(Project suino-pieno)
(Created with Estlcam 12,155)
(Machining time about 00:59:35 hours)

(Required tools:)
(6mm spiral)

G21
G90
G94
M03 S24000
G00 Z5.0000

(No. 1 Pocketing linear: Pocket 2)
G00 X394.3673 Y161.7466
G00 Z0.5000
G01 Z0.0000 F300 S24000
G01 X398.4885 Z-1.5000
G01 X394.3673 Z-3.0000
G01 X419.4189 F600
G03 X425.4948 Y166.2466 I-13.8555 J25.0593
G01 X388.2915
G02 X384.4414 Y170.7466 I21.5725 J22.3538
G01 X429.3448
G03 X432.0103 Y175.2466 I-26.9355 J18.9943
G01 X381.7759
G02 X379.9506 Y179.7466 I30.6941 J15.0700
G01 X433.8356
G03 X434.9836 Y184.2466 I-33.4344 J10.9258
G01 X378.8027
G02 X378.2514 Y188.7466 I35.4686 J6.6286
G01 X435.5348
G03 Y193.2466 I-36.7960 J2.2501
G01 X378.2519
G02 X378.8038 Y197.7466 I36.0316 J-2.1348
G01 X434.9818
G03 X433.8348 Y202.2466 I-34.5129 J-6.4009
G01 X379.9519
G02 X381.7770 Y206.7466 I32.5290 J-10.5727
G01 X432.0090
G03 X429.3451 Y211.2466 I-29.4846 J-14.4162
G01 X384.4421
G02 X388.2917 Y215.7466 I25.3653 J-17.8026
G01 X425.4957
G03 X419.4210 Y220.2466 I-19.9375 J-20.5640
G01 X394.3672
G01 X394.1514 Y220.6415
G02 X421.2857 Y219.6594 I12.7547 J-22.9391
G02 X432.3171 Y207.1411 I-17.3059 J-26.3700
G02 X435.3067 Y183.5523 I-32.9754 J-16.1631
G02 X426.3664 Y166.4742 I-33.3401 J6.5742
G02 X413.3452 Y158.8529 I-20.1496 J19.4919
G02 X391.9777 Y162.6786 I-6.4579 J25.5153
G02 X381.1243 Y175.5624 I18.0231 J26.1963
G02 X378.6184 Y199.0846 I33.4322 J15.4562
G02 X387.8455 Y215.9424 I33.0510 J-7.1365
G02 X394.1514 Y220.6415 I20.3263 J-20.6959
G01 X394.3672 Y220.2466
G01 X398.4884 Z-4.5000 F300
G01 X394.3672 Z-6.0000
G01 X419.4210 F600
G02 X425.4957 Y215.7466 I-13.8628 J-25.0640
G01 X388.2917
G03 X384.4421 Y211.2466 I21.5710 J-22.3499
G01 X429.3451
G02 X432.0090 Y206.7466 I-26.8650 J-18.9425
G01 X381.7770
G03 X379.9519 Y202.2466 I30.7039 J-15.0727
G01 X433.8348
G02 X434.9818 Y197.7466 I-33.3762 J-10.9035
G01 X378.8038
G03 X378.2519 Y193.2466 I35.4797 J-6.6348
G01 X435.5348
G02 Y188.7466 I-36.7960 J-2.2499
G01 X378.2514
G03 X378.8027 Y184.2466 I36.0198 J2.1286
G01 X434.9836
G02 X433.8356 Y179.7466 I-34.5824 J6.4258
G01 X379.9506
G03 X381.7759 Y175.2466 I32.5194 J10.5700
G01 X432.0103
G02 X429.3448 Y170.7466 I-29.4494 J14.4045
G01 X384.4414
G03 X388.2915 Y166.2466 I25.3673 J17.8065
G01 X425.4948
G02 X419.4189 Y161.7466 I-19.8393 J20.4350
G01 X394.3673
G01 X394.1515 Y161.3517
G02 X382.5926 Y172.7807 I15.0569 J26.7879
G02 X377.8339 Y193.7583 I31.2930 J18.1272
G02 X385.0223 Y212.7855 I34.9872 J-2.3466
G02 X397.1226 Y222.0533 I23.2421 J-17.8121
G02 X421.2857 Y219.6594 I9.7879 J-24.3477
G02 X432.3171 Y207.1411 I-17.3059 J-26.3700
G02 X435.3067 Y183.5523 I-32.9754 J-16.1631
G02 X426.3664 Y166.4742 I-33.3401 J6.5742
G02 X413.3452 Y158.8529 I-20.1496 J19.4919
G02 X394.1515 Y161.3517 I-6.4569 J25.3683
G01 X394.3673 Y161.7466
G01 X398.4885 Z-7.5000 F300
G01 X394.3673 Z-9.0000
G01 X419.4189 F600
G03 X425.4948 Y166.2466 I-13.8555 J25.0593
G01 X388.2915
G02 X384.4414 Y170.7466 I21.5725 J22.3538
G01 X429.3448
G03 X432.0103 Y175.2466 I-26.9355 J18.9943
G01 X381.7759
G02 X379.9506 Y179.7466 I30.6941 J15.0700
G01 X433.8356
G03 X434.9836 Y184.2466 I-33.4344 J10.9258
G01 X378.8027
G02 X378.2514 Y188.7466 I35.4686 J6.6286
G01 X435.5348
G03 Y193.2466 I-36.7960 J2.2501
G01 X378.2519
G02 X378.8038 Y197.7466 I36.0316 J-2.1348
G01 X434.9818
G03 X433.8348 Y202.2466 I-34.5129 J-6.4009
G01 X379.9519
G02 X381.7770 Y206.7466 I32.5290 J-10.5727
G01 X432.0090
G03 X429.3451 Y211.2466 I-29.4846 J-14.4162
G01 X384.4421
G02 X388.2917 Y215.7466 I25.3653 J-17.8026
G01 X425.4957
G03 X419.4210 Y220.2466 I-19.9375 J-20.5640
G01 X394.3672
G01 X394.1514 Y220.6415
G02 X421.2857 Y219.6594 I12.7547 J-22.9391
G02 X432.3171 Y207.1411 I-17.3059 J-26.3700
G02 X435.3067 Y183.5523 I-32.9754 J-16.1631
G02 X426.3664 Y166.4742 I-33.3401 J6.5742
G02 X413.3452 Y158.8529 I-20.1496 J19.4919
G02 X391.9777 Y162.6786 I-6.4579 J25.5153
G02 X381.1243 Y175.5624 I18.0231 J26.1963
G02 X378.6184 Y199.0846 I33.4322 J15.4562
G02 X387.8455 Y215.9424 I33.0510 J-7.1365
G02 X394.1514 Y220.6415 I20.3263 J-20.6959
G01 X394.3672 Y220.2466
G01 X398.4884 Z-10.5000 F300
G01 X394.3672 Z-12.0000
G01 X419.4210 F600
G02 X425.4957 Y215.7466 I-13.8628 J-25.0640
G01 X388.2917
G03 X384.4421 Y211.2466 I21.5710 J-22.3499
G01 X429.3451
G02 X432.0090 Y206.7466 I-26.8650 J-18.9425
G01 X381.7770
G03 X379.9519 Y202.2466 I30.7039 J-15.0727
G01 X433.8348
G02 X434.9818 Y197.7466 I-33.3762 J-10.9035
G01 X378.8038
G03 X378.2519 Y193.2466 I35.4797 J-6.6348
G01 X435.5348
G02 Y188.7466 I-36.7960 J-2.2499
G01 X378.2514
G03 X378.8027 Y184.2466 I36.0198 J2.1286
G01 X434.9836
G02 X433.8356 Y179.7466 I-34.5824 J6.4258
G01 X379.9506
G03 X381.7759 Y175.2466 I32.5194 J10.5700
G01 X432.0103
G02 X429.3448 Y170.7466 I-29.4494 J14.4045
G01 X384.4414
G03 X388.2915 Y166.2466 I25.3673 J17.8065
G01 X425.4948
G02 X419.4189 Y161.7466 I-19.8393 J20.4350
G01 X394.3673
G01 X394.1515 Y161.3517
G02 X382.5926 Y172.7807 I15.0569 J26.7879
G02 X377.8339 Y193.7583 I31.2930 J18.1272
G02 X385.0223 Y212.7855 I34.9872 J-2.3466
G02 X397.1226 Y222.0533 I23.2421 J-17.8121
G02 X421.2857 Y219.6594 I9.7879 J-24.3477
G02 X432.3171 Y207.1411 I-17.3059 J-26.3700
G02 X435.3067 Y183.5523 I-32.9754 J-16.1631
G02 X426.3664 Y166.4742 I-33.3401 J6.5742
G02 X413.3452 Y158.8529 I-20.1496 J19.4919
G02 X394.1515 Y161.3517 I-6.4569 J25.3683
G01 X394.3673 Y161.7466
G01 X398.4885 Z-13.5000 F300
G01 X394.3673 Z-15.0000
G01 X419.4189 F600
G03 X425.4948 Y166.2466 I-13.8555 J25.0593
G01 X388.2915
G02 X384.4414 Y170.7466 I21.5725 J22.3538
G01 X429.3448
G03 X432.0103 Y175.2466 I-26.9355 J18.9943
G01 X381.7759
G02 X379.9506 Y179.7466 I30.6941 J15.0700
G01 X433.8356
G03 X434.9836 Y184.2466 I-33.4344 J10.9258
G01 X378.8027
G02 X378.2514 Y188.7466 I35.4686 J6.6286
G01 X435.5348
G03 Y193.2466 I-36.7960 J2.2501
G01 X378.2519
G02 X378.8038 Y197.7466 I36.0316 J-2.1348
G01 X434.9818
G03 X433.8348 Y202.2466 I-34.5129 J-6.4009
G01 X379.9519
G02 X381.7770 Y206.7466 I32.5290 J-10.5727
G01 X432.0090
G03 X429.3451 Y211.2466 I-29.4846 J-14.4162
G01 X384.4421
G02 X388.2917 Y215.7466 I25.3653 J-17.8026
G01 X425.4957
G03 X419.4210 Y220.2466 I-19.9375 J-20.5640
G01 X394.3672
G01 X394.1514 Y220.6415
G02 X421.2857 Y219.6594 I12.7547 J-22.9391
G02 X432.3171 Y207.1411 I-17.3059 J-26.3700
G02 X435.3067 Y183.5523 I-32.9754 J-16.1631
G02 X426.3664 Y166.4742 I-33.3401 J6.5742
G02 X413.3452 Y158.8529 I-20.1496 J19.4919
G02 X391.9777 Y162.6786 I-6.4579 J25.5153
G02 X381.1243 Y175.5624 I18.0231 J26.1963
G02 X378.6184 Y199.0846 I33.4322 J15.4562
G02 X387.8455 Y215.9424 I33.0510 J-7.1365
G02 X394.1514 Y220.6415 I20.3263 J-20.6959
G01 X394.3672 Y220.2466
G01 X398.4884 Z-16.5000 F300
G01 X394.3672 Z-18.0000
G01 X419.4210 F600
G02 X425.4957 Y215.7466 I-13.8628 J-25.0640
G01 X388.2917
G03 X384.4421 Y211.2466 I21.5710 J-22.3499
G01 X429.3451
G02 X432.0090 Y206.7466 I-26.8650 J-18.9425
G01 X381.7770
G03 X379.9519 Y202.2466 I30.7039 J-15.0727
G01 X433.8348
G02 X434.9818 Y197.7466 I-33.3762 J-10.9035
G01 X378.8038
G03 X378.2519 Y193.2466 I35.4797 J-6.6348
G01 X435.5348
G02 Y188.7466 I-36.7960 J-2.2499
G01 X378.2514
G03 X378.8027 Y184.2466 I36.0198 J2.1286
G01 X434.9836
G02 X433.8356 Y179.7466 I-34.5824 J6.4258
G01 X379.9506
G03 X381.7759 Y175.2466 I32.5194 J10.5700
G01 X432.0103
G02 X429.3448 Y170.7466 I-29.4494 J14.4045
G01 X384.4414
G03 X388.2915 Y166.2466 I25.3673 J17.8065
G01 X425.4948
G02 X419.4189 Y161.7466 I-19.8393 J20.4350
G01 X394.3673
G01 X394.1515 Y161.3517
G02 X382.5926 Y172.7807 I15.0569 J26.7879
G02 X377.8339 Y193.7583 I31.2930 J18.1272
G02 X385.0223 Y212.7855 I34.9872 J-2.3466
G02 X397.1226 Y222.0533 I23.2421 J-17.8121
G02 X421.2857 Y219.6594 I9.7879 J-24.3477
G02 X432.3171 Y207.1411 I-17.3059 J-26.3700
G02 X435.3067 Y183.5523 I-32.9754 J-16.1631
G02 X426.3664 Y166.4742 I-33.3401 J6.5742
G02 X413.3452 Y158.8529 I-20.1496 J19.4919
G02 X394.1515 Y161.3517 I-6.4569 J25.3683
G01 X394.3673 Y161.7466
G01 X397.1148 Z-19.0000 F300
G01 X394.3673 Z-20.0000
G01 X419.4189 F600
G03 X425.4948 Y166.2466 I-13.8555 J25.0593
G01 X388.2915
G02 X384.4414 Y170.7466 I21.5725 J22.3538
G01 X429.3448
G03 X432.0103 Y175.2466 I-26.9355 J18.9943
G01 X381.7759
G02 X379.9506 Y179.7466 I30.6941 J15.0700
G01 X433.8356
G03 X434.9836 Y184.2466 I-33.4344 J10.9258
G01 X378.8027
G02 X378.2514 Y188.7466 I35.4686 J6.6286
G01 X435.5348
G03 Y193.2466 I-36.7960 J2.2501
G01 X378.2519
G02 X378.8038 Y197.7466 I36.0316 J-2.1348
G01 X434.9818
G03 X433.8348 Y202.2466 I-34.5129 J-6.4009
G01 X379.9519
G02 X381.7770 Y206.7466 I32.5290 J-10.5727
G01 X432.0090
G03 X429.3451 Y211.2466 I-29.4846 J-14.4162
G01 X384.4421
G02 X388.2917 Y215.7466 I25.3653 J-17.8026
G01 X425.4957
G03 X419.4210 Y220.2466 I-19.9375 J-20.5640
G01 X394.3672
G01 X394.1514 Y220.6415
G02 X421.2857 Y219.6594 I12.7547 J-22.9391
G02 X432.3171 Y207.1411 I-17.3059 J-26.3700
G02 X435.3067 Y183.5523 I-32.9754 J-16.1631
G02 X426.3664 Y166.4742 I-33.3401 J6.5742
G02 X413.3452 Y158.8529 I-20.1496 J19.4919
G02 X391.9777 Y162.6786 I-6.4579 J25.5153
G02 X381.1243 Y175.5624 I18.0231 J26.1963
G02 X378.6184 Y199.0846 I33.4322 J15.4562
G02 X387.8455 Y215.9424 I33.0510 J-7.1365
G02 X394.1514 Y220.6415 I20.3263 J-20.6959
G01 X394.3672 Y220.2466
G00 Z5.0000

(No. 2 Pocketing linear: Pocket 1)
G00 X484.2117 Y161.7435 Z5.0000
G00 Z0.5000
G01 Z0.0000 F300
G01 X488.3329 Z-1.5000
G01 X484.2117 Z-3.0000
G01 X509.2115 F600
G03 X515.2885 Y166.2435 I-13.9016 J25.1266
G01 X478.1172
G02 X474.2593 Y170.7435 I21.6813 J22.4913
G01 X519.1435
G03 X521.8114 Y175.2435 I-26.8888 J18.9825
G01 X471.5901
G02 X469.7619 Y179.7435 I30.5802 J15.0450
G01 X523.6414
G03 X524.7905 Y184.2435 I-33.6192 J10.9816
G01 X468.6129
G02 X468.0600 Y188.7435 I35.3099 J6.6227
G01 X525.3432
G03 X525.3440 Y192.6200 I-26.7094 J1.9437
G01 X525.3179 Y193.0663
G01 X525.3064 Y193.2435
G01 X468.0614
G02 X468.6235 Y197.7435 I35.3171 J-2.1266
G01 X524.7526
G03 X523.6060 Y202.2435 I-34.5377 J-6.4041
G01 X469.7845
G02 X471.6213 Y206.7435 I32.6860 J-10.7165
G01 X521.7830
G03 X519.1231 Y211.2435 I-29.4408 J-14.3660
G01 X474.2879
G02 X478.1362 Y215.7435 I25.4640 J-17.8811
G01 X515.2811
G03 X509.2148 Y220.2435 I-19.8753 J-20.4544
G01 X484.2011
G01 X483.9815 Y220.6363
G02 X511.0892 Y219.6494 I12.7395 J-22.8617
G02 X521.8401 Y207.6323 I-17.2680 J-26.2662
G02 X525.7932 Y192.6464 I-32.1357 J-16.4914
G02 X525.4455 Y185.4160 I-34.1374 J-1.9816
G02 X517.0290 Y167.3884 I-34.0355 J4.9116
G02 X504.2570 Y159.1614 I-21.2712 J18.9950
G02 X482.7264 Y162.0880 I-7.5456 J25.1501
G02 X471.6418 Y174.1502 I16.7357 J26.5037
G02 X468.2376 Y198.1261 I32.3681 J16.8254
G02 X476.4311 Y214.6351 I33.8377 J-6.5061
G02 X483.9815 Y220.6363 I21.8661 J-19.7604
G01 X484.2011 Y220.2435
G01 X488.3223 Z-4.5000 F300
G01 X484.2011 Z-6.0000
G01 X509.2148 F600
G02 X515.2811 Y215.7435 I-13.8558 J-25.0177
G01 X478.1362
G03 X474.2879 Y211.2435 I21.6796 J-22.4359
G01 X519.1231
G02 X521.7830 Y206.7435 I-26.8878 J-18.9291
G01 X471.6213
G03 X469.7845 Y202.2435 I30.8492 J-15.2165
G01 X523.6060
G02 X524.7526 Y197.7435 I-33.3911 J-10.9041
G01 X468.6235
G03 X468.0614 Y193.2435 I34.8806 J-6.6422
G01 X525.3064
G01 X525.3179 Y193.0663
G01 X525.3440 Y192.6200
G02 X525.3432 Y188.7435 I-26.7102 J-1.9327
G01 X468.0600
G03 X468.6129 Y184.2435 I35.8136 J2.1167
G01 X524.7905
G02 X523.6414 Y179.7435 I-34.7683 J6.4816
G01 X469.7619
G03 X471.5901 Y175.2435 I32.3543 J10.5230
G01 X521.8114
G02 X519.1435 Y170.7435 I-29.5039 J14.4512
G01 X474.2593
G03 X478.1172 Y166.2435 I25.4967 J17.9549
G01 X515.2885
G02 X509.2115 Y161.7435 I-19.9508 J20.5891
G01 X484.2117
G01 X483.9928 Y161.3503
G02 X472.4534 Y172.7020 I15.0461 J26.8360
G02 X467.6556 Y193.9013 I31.1589 J18.1943
G02 X475.2732 Y213.2901 I35.0773 J-2.5906
G02 X487.7054 Y222.3410 I22.7043 J-18.1224
G02 X511.0892 Y219.6494 I9.0186 J-24.5700
G02 X521.8401 Y207.6323 I-17.2680 J-26.2662
G02 X525.7932 Y192.6464 I-32.1357 J-16.4914
G02 X525.4455 Y185.4160 I-34.1374 J-1.9816
G02 X517.0290 Y167.3884 I-34.0355 J4.9116
G02 X504.2570 Y159.1614 I-21.2712 J18.9950
G02 X483.9928 Y161.3503 I-7.5467 J25.0285
G01 X484.2117 Y161.7435
G01 X488.3329 Z-7.5000 F300
G01 X484.2117 Z-9.0000
G01 X509.2115 F600
G03 X515.2885 Y166.2435 I-13.9016 J25.1266
G01 X478.1172
G02 X474.2593 Y170.7435 I21.6813 J22.4913
G01 X519.1435
G03 X521.8114 Y175.2435 I-26.8888 J18.9825
G01 X471.5901
G02 X469.7619 Y179.7435 I30.5802 J15.0450
G01 X523.6414
G03 X524.7905 Y184.2435 I-33.6192 J10.9816
G01 X468.6129
G02 X468.0600 Y188.7435 I35.3099 J6.6227
G01 X525.3432
G03 X525.3440 Y192.6200 I-26.7094 J1.9437
G01 X525.3179 Y193.0663
G01 X525.3064 Y193.2435
G01 X468.0614
G02 X468.6235 Y197.7435 I35.3171 J-2.1266
G01 X524.7526
G03 X523.6060 Y202.2435 I-34.5377 J-6.4041
G01 X469.7845
G02 X471.6213 Y206.7435 I32.6860 J-10.7165
G01 X521.7830
G03 X519.1231 Y211.2435 I-29.4408 J-14.3660
G01 X474.2879
G02 X478.1362 Y215.7435 I25.4640 J-17.8811
G01 X515.2811
G03 X509.2148 Y220.2435 I-19.8753 J-20.4544
G01 X484.2011
G01 X483.9815 Y220.6363
G02 X511.0892 Y219.6494 I12.7395 J-22.8617
G02 X521.8401 Y207.6323 I-17.2680 J-26.2662
G02 X525.7932 Y192.6464 I-32.1357 J-16.4914
G02 X525.4455 Y185.4160 I-34.1374 J-1.9816
G02 X517.0290 Y167.3884 I-34.0355 J4.9116
G02 X504.2570 Y159.1614 I-21.2712 J18.9950
G02 X482.7264 Y162.0880 I-7.5456 J25.1501
G02 X471.6418 Y174.1502 I16.7357 J26.5037
G02 X468.2376 Y198.1261 I32.3681 J16.8254
G02 X476.4311 Y214.6351 I33.8377 J-6.5061
G02 X483.9815 Y220.6363 I21.8661 J-19.7604
G01 X484.2011 Y220.2435
G01 X488.3223 Z-10.5000 F300
G01 X484.2011 Z-12.0000
G01 X509.2148 F600
G02 X515.2811 Y215.7435 I-13.8558 J-25.0177
G01 X478.1362
G03 X474.2879 Y211.2435 I21.6796 J-22.4359
G01 X519.1231
G02 X521.7830 Y206.7435 I-26.8878 J-18.9291
G01 X471.6213
G03 X469.7845 Y202.2435 I30.8492 J-15.2165
G01 X523.6060
G02 X524.7526 Y197.7435 I-33.3911 J-10.9041
G01 X468.6235
G03 X468.0614 Y193.2435 I34.8806 J-6.6422
G01 X525.3064
G01 X525.3179 Y193.0663
G01 X525.3440 Y192.6200
G02 X525.3432 Y188.7435 I-26.7102 J-1.9327
G01 X468.0600
G03 X468.6129 Y184.2435 I35.8136 J2.1167
G01 X524.7905
G02 X523.6414 Y179.7435 I-34.7683 J6.4816
G01 X469.7619
G03 X471.5901 Y175.2435 I32.3543 J10.5230
G01 X521.8114
G02 X519.1435 Y170.7435 I-29.5039 J14.4512
G01 X474.2593
G03 X478.1172 Y166.2435 I25.4967 J17.9549
G01 X515.2885
G02 X509.2115 Y161.7435 I-19.9508 J20.5891
G01 X484.2117
G01 X483.9928 Y161.3503
G02 X472.4534 Y172.7020 I15.0461 J26.8360
G02 X467.6556 Y193.9013 I31.1589 J18.1943
G02 X475.2732 Y213.2901 I35.0773 J-2.5906
G02 X487.7054 Y222.3410 I22.7043 J-18.1224
G02 X511.0892 Y219.6494 I9.0186 J-24.5700
G02 X521.8401 Y207.6323 I-17.2680 J-26.2662
G02 X525.7932 Y192.6464 I-32.1357 J-16.4914
G02 X525.4455 Y185.4160 I-34.1374 J-1.9816
G02 X517.0290 Y167.3884 I-34.0355 J4.9116
G02 X504.2570 Y159.1614 I-21.2712 J18.9950
G02 X483.9928 Y161.3503 I-7.5467 J25.0285
G01 X484.2117 Y161.7435
G01 X488.3329 Z-13.5000 F300
G01 X484.2117 Z-15.0000
G01 X509.2115 F600
G03 X515.2885 Y166.2435 I-13.9016 J25.1266
G01 X478.1172
G02 X474.2593 Y170.7435 I21.6813 J22.4913
G01 X519.1435
G03 X521.8114 Y175.2435 I-26.8888 J18.9825
G01 X471.5901
G02 X469.7619 Y179.7435 I30.5802 J15.0450
G01 X523.6414
G03 X524.7905 Y184.2435 I-33.6192 J10.9816
G01 X468.6129
G02 X468.0600 Y188.7435 I35.3099 J6.6227
G01 X525.3432
G03 X525.3440 Y192.6200 I-26.7094 J1.9437
G01 X525.3179 Y193.0663
G01 X525.3064 Y193.2435
G01 X468.0614
G02 X468.6235 Y197.7435 I35.3171 J-2.1266
G01 X524.7526
G03 X523.6060 Y202.2435 I-34.5377 J-6.4041
G01 X469.7845
G02 X471.6213 Y206.7435 I32.6860 J-10.7165
G01 X521.7830
G03 X519.1231 Y211.2435 I-29.4408 J-14.3660
G01 X474.2879
G02 X478.1362 Y215.7435 I25.4640 J-17.8811
G01 X515.2811
G03 X509.2148 Y220.2435 I-19.8753 J-20.4544
G01 X484.2011
G01 X483.9815 Y220.6363
G02 X511.0892 Y219.6494 I12.7395 J-22.8617
G02 X521.8401 Y207.6323 I-17.2680 J-26.2662
G02 X525.7932 Y192.6464 I-32.1357 J-16.4914
G02 X525.4455 Y185.4160 I-34.1374 J-1.9816
G02 X517.0290 Y167.3884 I-34.0355 J4.9116
G02 X504.2570 Y159.1614 I-21.2712 J18.9950
G02 X482.7264 Y162.0880 I-7.5456 J25.1501
G02 X471.6418 Y174.1502 I16.7357 J26.5037
G02 X468.2376 Y198.1261 I32.3681 J16.8254
G02 X476.4311 Y214.6351 I33.8377 J-6.5061
G02 X483.9815 Y220.6363 I21.8661 J-19.7604
G01 X484.2011 Y220.2435
G01 X488.3223 Z-16.5000 F300
G01 X484.2011 Z-18.0000
G01 X509.2148 F600
G02 X515.2811 Y215.7435 I-13.8558 J-25.0177
G01 X478.1362
G03 X474.2879 Y211.2435 I21.6796 J-22.4359
G01 X519.1231
G02 X521.7830 Y206.7435 I-26.8878 J-18.9291
G01 X471.6213
G03 X469.7845 Y202.2435 I30.8492 J-15.2165
G01 X523.6060
G02 X524.7526 Y197.7435 I-33.3911 J-10.9041
G01 X468.6235
G03 X468.0614 Y193.2435 I34.8806 J-6.6422
G01 X525.3064
G01 X525.3179 Y193.0663
G01 X525.3440 Y192.6200
G02 X525.3432 Y188.7435 I-26.7102 J-1.9327
G01 X468.0600
G03 X468.6129 Y184.2435 I35.8136 J2.1167
G01 X524.7905
G02 X523.6414 Y179.7435 I-34.7683 J6.4816
G01 X469.7619
G03 X471.5901 Y175.2435 I32.3543 J10.5230
G01 X521.8114
G02 X519.1435 Y170.7435 I-29.5039 J14.4512
G01 X474.2593
G03 X478.1172 Y166.2435 I25.4967 J17.9549
G01 X515.2885
G02 X509.2115 Y161.7435 I-19.9508 J20.5891
G01 X484.2117
G01 X483.9928 Y161.3503
G02 X472.4534 Y172.7020 I15.0461 J26.8360
G02 X467.6556 Y193.9013 I31.1589 J18.1943
G02 X475.2732 Y213.2901 I35.0773 J-2.5906
G02 X487.7054 Y222.3410 I22.7043 J-18.1224
G02 X511.0892 Y219.6494 I9.0186 J-24.5700
G02 X521.8401 Y207.6323 I-17.2680 J-26.2662
G02 X525.7932 Y192.6464 I-32.1357 J-16.4914
G02 X525.4455 Y185.4160 I-34.1374 J-1.9816
G02 X517.0290 Y167.3884 I-34.0355 J4.9116
G02 X504.2570 Y159.1614 I-21.2712 J18.9950
G02 X483.9928 Y161.3503 I-7.5467 J25.0285
G01 X484.2117 Y161.7435
G01 X486.9592 Z-19.0000 F300
G01 X484.2117 Z-20.0000
G01 X509.2115 F600
G03 X515.2885 Y166.2435 I-13.9016 J25.1266
G01 X478.1172
G02 X474.2593 Y170.7435 I21.6813 J22.4913
G01 X519.1435
G03 X521.8114 Y175.2435 I-26.8888 J18.9825
G01 X471.5901
G02 X469.7619 Y179.7435 I30.5802 J15.0450
G01 X523.6414
G03 X524.7905 Y184.2435 I-33.6192 J10.9816
G01 X468.6129
G02 X468.0600 Y188.7435 I35.3099 J6.6227
G01 X525.3432
G03 X525.3440 Y192.6200 I-26.7094 J1.9437
G01 X525.3179 Y193.0663
G01 X525.3064 Y193.2435
G01 X468.0614
G02 X468.6235 Y197.7435 I35.3171 J-2.1266
G01 X524.7526
G03 X523.6060 Y202.2435 I-34.5377 J-6.4041
G01 X469.7845
G02 X471.6213 Y206.7435 I32.6860 J-10.7165
G01 X521.7830
G03 X519.1231 Y211.2435 I-29.4408 J-14.3660
G01 X474.2879
G02 X478.1362 Y215.7435 I25.4640 J-17.8811
G01 X515.2811
G03 X509.2148 Y220.2435 I-19.8753 J-20.4544
G01 X484.2011
G01 X483.9815 Y220.6363
G02 X511.0892 Y219.6494 I12.7395 J-22.8617
G02 X521.8401 Y207.6323 I-17.2680 J-26.2662
G02 X525.7932 Y192.6464 I-32.1357 J-16.4914
G02 X525.4455 Y185.4160 I-34.1374 J-1.9816
G02 X517.0290 Y167.3884 I-34.0355 J4.9116
G02 X504.2570 Y159.1614 I-21.2712 J18.9950
G02 X482.7264 Y162.0880 I-7.5456 J25.1501
G02 X471.6418 Y174.1502 I16.7357 J26.5037
G02 X468.2376 Y198.1261 I32.3681 J16.8254
G02 X476.4311 Y214.6351 I33.8377 J-6.5061
G02 X483.9815 Y220.6363 I21.8661 J-19.7604
G01 X484.2011 Y220.2435
G00 Z5.0000

(No. 3 Part machining: Part 1)
G00 X639.5632 Y550.9079 Z5.0000
G00 Z0.5000
G01 Z0.0000 F300
G01 X635.4420 Z-1.5000
G01 X639.5632 Z-3.0000
G01 X586.8220 F600
G03 X446.7099 Y630.2694 I-221.3991 J-227.5143
G03 X298.2546 Y633.5399 I-81.0450 J-307.8148
G03 X264.4165 Y624.2478 I66.3835 J-307.9984
G02 X256.3129 Y629.2259 I13.1946 J30.5641
G02 X247.0927 Y645.0505 I18.7722 J21.5360
G02 X251.0898 Y667.3088 I29.0750 J6.2668
G02 X258.1160 Y673.6919 I15.1816 J-9.6528
G02 X272.8680 Y674.1369 I7.8725 J-16.2331
G02 X277.1105 Y671.7638 I-6.4132 J-16.4435
G02 X280.0756 Y667.0165 I-4.8229 J-6.3118
G02 X279.1777 Y661.1545 I-8.7029 J-1.6668
G02 X274.9457 Y658.1833 I-4.6851 J2.1737
G02 X270.1937 Y659.4674 I-0.7849 J6.5302
G03 X254.9699 Y636.1525 I-7.4701 J-11.7501
G03 X283.6808 Y631.6278 I19.1983 J28.4672
G03 X304.5157 Y649.5823 I-9.2246 J31.7704
G03 X307.0465 Y674.0304 I-33.0281 J15.7741
G03 X290.2818 Y696.4581 I-35.2785 J-8.8909
G03 X262.5042 Y703.2302 I-24.4360 J-39.8769
G03 X227.0765 Y681.4289 I3.4491 J-45.2911
G03 X220.9387 Y634.9923 I49.1564 J-30.1212
G03 X233.8687 Y612.2761 I54.1672 J15.7938
G01 X233.1458 Y611.9625
G01 X231.5919 Y611.2909
G01 X230.0573 Y610.6296
G01 X228.5415 Y609.9777
G01 X227.0437 Y609.3344
G01 X225.5633 Y608.6990
G01 X224.0996 Y608.0704
G01 X222.6520 Y607.4481
G01 X221.2199 Y606.8310
G03 X203.7128 Y598.9153 I161.0808 J-379.5790
G03 X182.3292 Y586.6995 I73.7808 J-153.9758
G03 X166.4271 Y574.4816 I96.2809 J-141.7721
G03 X136.9445 Y575.1383 I-36.9214 J-995.5676
G01 X133.9016 Y575.1645
G01 X130.8248 Y575.1856
G01 X127.7161 Y575.2020
G01 X124.5775 Y575.2138
G01 X121.4109 Y575.2215
G01 X118.2183 Y575.2252
G01 X115.0018 Y575.2253
G01 X111.7632 Y575.2220
G01 X108.5046 Y575.2156
G01 X105.2280 Y575.2064
G01 X101.9353 Y575.1947
G01 X98.6286 Y575.1808
G01 X95.3098 Y575.1649
G01 X91.9810 Y575.1474
G01 X91.6275 Y575.1454
G00 Z0.0000
G01 X88.6441 Y575.1285
G01 X85.3012 Y575.1084
G01 X81.9541 Y575.0875
G01 X78.6050 Y575.0661
G01 X75.6278 Y575.0468
G01 X75.2558 Y575.0444 Z-0.1354 F300
G01 X71.9086 Y575.0228 Z-1.3537
G01 X71.5067 Y575.0202 Z-1.5000
G01 X71.9086 Y575.0228 Z-1.6463
G01 X75.2558 Y575.0444 Z-2.8646
G01 X75.6278 Y575.0468 Z-3.0000
G01 X75.2558 Y575.0444 F600
G01 X71.9086 Y575.0228
G01 X68.5652 Y575.0014
G01 X65.2278 Y574.9806
G01 X61.8983 Y574.9607
G01 X58.5787 Y574.9419
G01 X55.2711 Y574.9245
G01 X51.9774 Y574.9089
G01 X48.6996 Y574.8952
G01 X45.4398 Y574.8838
G01 X42.1999 Y574.8750
G01 X38.9820 Y574.8689
G01 X35.7881 Y574.8660
G01 X32.6202 Y574.8665
G01 X29.4803 Y574.8706
G01 X26.3703 Y574.8787
G01 X23.2925 Y574.8910
G01 X20.2486 Y574.9079
G01 X17.2409 Y574.9295
G01 X14.2712 Y574.9562
G01 X11.3417 Y574.9882
G01 X8.4544 Y575.0259
G01 X5.6112 Y575.0694
G01 X2.8143 Y575.1192
G01 X0.0613 Y575.1754
G03 X-3.0000 Y572.1761 I-0.0613 J-2.9994
G01 Y554.1764
G03 X-0.2536 Y551.1871 I3.0000 J0.0000
G02 X15.6418 Y548.8123 I-7.8461 J-106.8979
G02 X26.4102 Y545.2074 I-12.1829 J-54.2788
G02 X43.9614 Y531.1687 I-19.8084 J-42.7552
G02 X47.6434 Y524.9211 I-46.4721 J-31.5964
G02 X55.4559 Y508.4440 I-259.8330 J-133.2888
G02 X58.8977 Y500.5475 I-645.7571 J-286.1646
G01 X77.5782 Y457.5790
G03 X47.7442 Y317.4670 I286.7811 J-134.2966
G03 X95.2208 Y155.7707 I316.0119 J4.9681
G03 X102.6713 Y144.3161 I270.2400 J167.6238
G00 Z0.0000
G03 X112.0098 Y131.3261 I261.9504 J178.4640
G03 X114.5196 Y128.0573 Z-1.5000 I254.8627 J193.0820 F300
G02 X112.0098 Y131.3261 Z-3.0000 I252.3529 J196.3509
G03 X163.6946 Y77.5187 I254.8627 J193.0820 F600
G01 X163.6912 Y77.0758
G01 X163.6846 Y76.3008
G01 X163.6771 Y75.4129
G01 X163.6690 Y74.4207
G01 X163.6604 Y73.3330
G01 X163.6513 Y72.1582
G01 X163.6420 Y70.9050
G01 X163.6324 Y69.5820
G01 X163.6229 Y68.1978
G01 X163.6134 Y66.7611
G01 X163.6041 Y65.2805
G01 X163.5951 Y63.7645
G01 X163.5867 Y62.2218
G01 X163.5788 Y60.6610
G01 X163.5716 Y59.0907
G01 X163.5652 Y57.5195
G01 X163.5599 Y55.9559
G01 X163.5556 Y54.4087
G01 X163.5525 Y52.8863
G01 X163.5508 Y51.3973
G01 X163.5505 Y49.9503
G03 X163.6601 Y39.5940 I271.3236 J-2.3077
G03 X163.7648 Y38.4889 I8.8089 J0.2769
G03 X164.5577 Y34.4873 I76.7464 J13.1282
G03 X204.4983 Y-2.3935 I47.7481 J11.6420
G03 X256.3236 Y24.4630 I7.7478 J48.4812
G01 X256.3373 Y24.4893
G03 X386.3940 Y5.8693 I109.0722 J298.3260
G03 X471.0367 Y23.1719 I-20.4792 J315.8653
G01 X471.0401 Y23.1701
G03 X515.3245 Y-2.9918 I43.3834 J22.8743
G03 X555.5761 Y19.3775 I-0.8530 J48.9343
G03 X561.9572 Y33.9255 I-41.0477 J26.6781
G03 X562.2347 Y35.1010 I-2.7421 J1.2679
G01 X562.2371 Y35.1189
G03 X562.4753 Y38.1100 I-23.5799 J3.3824
G03 X562.5742 Y53.3483 I-379.7851 J10.0832
G01 X562.5651 Y54.4038
G01 X562.5550 Y55.4608
G01 X562.5439 Y56.5167
G01 X562.5320 Y57.5689
G01 X562.5194 Y58.6148
G01 X562.5061 Y59.6517
G01 X562.4922 Y60.6770
G01 X562.4779 Y61.6882
G01 X562.4631 Y62.6827
G01 X562.4481 Y63.6577
G01 X562.4329 Y64.6107
G01 X562.4177 Y65.5392
G01 X562.4024 Y66.4404
G01 X562.3872 Y67.3117
G01 X562.3722 Y68.1506
G01 X562.3575 Y68.9543
G01 X562.3431 Y69.7204
G01 X562.3292 Y70.4462
G01 X562.3159 Y71.1290
G01 X562.3033 Y71.7662
G01 X562.2914 Y72.3553
G01 X562.2804 Y72.8935
G01 X562.2703 Y73.3783
G01 X562.2665 Y73.5567
G01 X562.2679 Y73.5568
G03 X628.5846 Y144.8124 I-198.2746 J251.0195
G00 Z0.0000
G03 X637.2382 Y158.2684 I-261.7922 J177.8690
G03 X639.3572 Y161.8030 Z-1.5000 I-269.8374 J164.1752 F300
G02 X637.2382 Y158.2684 Z-3.0000 I-271.9564 J160.6406
G03 X683.2167 Y317.3391 I-269.8374 J164.1752 F600
G03 X649.9746 Y464.5327 I-316.3557 J5.9050
G01 X655.0799 Y476.2732
G02 X663.9035 Y495.8331 I424.9872 J-179.9434
G02 X668.6833 Y504.8637 I103.4618 J-48.9819
G02 X671.5346 Y508.7950 I20.9836 J-12.2191
G02 X694.8260 Y523.6190 I36.1562 J-31.0987
G02 X709.6482 Y526.4637 I24.5055 J-87.6476
G02 X714.2281 Y526.9127 I15.7519 J-137.0866
G03 X716.9744 Y529.9020 I-0.2536 J2.9893
G01 Y547.9079
G03 X713.9744 Y550.9079 I-3.0000 J0.0000
G01 X655.5632
G00 Z0.0000
G01 X639.5632
G00 Z-2.5000
G01 Z-3.0000 F300
G01 X635.4420 Z-4.5000
G01 X639.5632 Z-6.0000
G01 X586.8220 F600
G03 X446.7099 Y630.2694 I-221.3991 J-227.5143
G03 X298.2546 Y633.5399 I-81.0450 J-307.8148
G03 X264.4165 Y624.2478 I66.3835 J-307.9984
G02 X256.3129 Y629.2259 I13.1946 J30.5641
G02 X247.0927 Y645.0505 I18.7722 J21.5360
G02 X251.0898 Y667.3088 I29.0750 J6.2668
G02 X258.1160 Y673.6919 I15.1816 J-9.6528
G02 X272.8680 Y674.1369 I7.8725 J-16.2331
G02 X277.1105 Y671.7638 I-6.4132 J-16.4435
G02 X280.0756 Y667.0165 I-4.8229 J-6.3118
G02 X279.1777 Y661.1545 I-8.7029 J-1.6668
G02 X274.9457 Y658.1833 I-4.6851 J2.1737
G02 X270.1937 Y659.4674 I-0.7849 J6.5302
G03 X254.9699 Y636.1525 I-7.4701 J-11.7501
G03 X283.6808 Y631.6278 I19.1983 J28.4672
G03 X304.5157 Y649.5823 I-9.2246 J31.7704
G03 X307.0465 Y674.0304 I-33.0281 J15.7741
G03 X290.2818 Y696.4581 I-35.2785 J-8.8909
G03 X262.5042 Y703.2302 I-24.4360 J-39.8769
G03 X227.0765 Y681.4289 I3.4491 J-45.2911
G03 X220.9387 Y634.9923 I49.1564 J-30.1212
G03 X233.8687 Y612.2761 I54.1672 J15.7938
G01 X233.1458 Y611.9625
G01 X231.5919 Y611.2909
G01 X230.0573 Y610.6296
G01 X228.5415 Y609.9777
G01 X227.0437 Y609.3344
G01 X225.5633 Y608.6990
G01 X224.0996 Y608.0704
G01 X222.6520 Y607.4481
G01 X221.2199 Y606.8310
G03 X203.7128 Y598.9153 I161.0808 J-379.5790
G03 X182.3292 Y586.6995 I73.7808 J-153.9758
G03 X166.4271 Y574.4816 I96.2809 J-141.7721
G03 X136.9445 Y575.1383 I-36.9214 J-995.5676
G01 X133.9016 Y575.1645
G01 X130.8248 Y575.1856
G01 X127.7161 Y575.2020
G01 X124.5775 Y575.2138
G01 X121.4109 Y575.2215
G01 X118.2183 Y575.2252
G01 X115.0018 Y575.2253
G01 X111.7632 Y575.2220
G01 X108.5046 Y575.2156
G01 X105.2280 Y575.2064
G01 X101.9353 Y575.1947
G01 X98.6286 Y575.1808
G01 X95.3098 Y575.1649
G01 X91.9810 Y575.1474
G01 X91.6275 Y575.1454
G00 Z0.0000
G01 X88.6441 Y575.1285
G01 X85.3012 Y575.1084
G01 X81.9541 Y575.0875
G01 X78.6050 Y575.0661
G01 X75.6278 Y575.0468
G00 Z-2.5000
G01 Z-3.0000 F300
G01 X75.2558 Y575.0444 Z-3.1354
G01 X71.9086 Y575.0228 Z-4.3537
G01 X71.5067 Y575.0202 Z-4.5000
G01 X71.9086 Y575.0228 Z-4.6463
G01 X75.2558 Y575.0444 Z-5.8646
G01 X75.6278 Y575.0468 Z-6.0000
G01 X75.2558 Y575.0444 F600
G01 X71.9086 Y575.0228
G01 X68.5652 Y575.0014
G01 X65.2278 Y574.9806
G01 X61.8983 Y574.9607
G01 X58.5787 Y574.9419
G01 X55.2711 Y574.9245
G01 X51.9774 Y574.9089
G01 X48.6996 Y574.8952
G01 X45.4398 Y574.8838
G01 X42.1999 Y574.8750
G01 X38.9820 Y574.8689
G01 X35.7881 Y574.8660
G01 X32.6202 Y574.8665
G01 X29.4803 Y574.8706
G01 X26.3703 Y574.8787
G01 X23.2925 Y574.8910
G01 X20.2486 Y574.9079
G01 X17.2409 Y574.9295
G01 X14.2712 Y574.9562
G01 X11.3417 Y574.9882
G01 X8.4544 Y575.0259
G01 X5.6112 Y575.0694
G01 X2.8143 Y575.1192
G01 X0.0613 Y575.1754
G03 X-3.0000 Y572.1761 I-0.0613 J-2.9994
G01 Y554.1764
G03 X-0.2536 Y551.1871 I3.0000 J0.0000
G02 X15.6418 Y548.8123 I-7.8461 J-106.8979
G02 X26.4102 Y545.2074 I-12.1829 J-54.2788
G02 X43.9614 Y531.1687 I-19.8084 J-42.7552
G02 X47.6434 Y524.9211 I-46.4721 J-31.5964
G02 X55.4559 Y508.4440 I-259.8330 J-133.2888
G02 X58.8977 Y500.5475 I-645.7571 J-286.1646
G01 X77.5782 Y457.5790
G03 X47.7442 Y317.4670 I286.7811 J-134.2966
G03 X95.2208 Y155.7707 I316.0119 J4.9681
G03 X102.6713 Y144.3161 I270.2400 J167.6238
G00 Z0.0000
G03 X112.0098 Y131.3261 I261.9504 J178.4640
G00 Z-2.5000
G01 Z-3.0000 F300
G03 X114.5196 Y128.0573 Z-4.5000 I254.8627 J193.0820
G02 X112.0098 Y131.3261 Z-6.0000 I252.3529 J196.3509
G03 X163.6946 Y77.5187 I254.8627 J193.0820 F600
G01 X163.6912 Y77.0758
G01 X163.6846 Y76.3008
G01 X163.6771 Y75.4129
G01 X163.6690 Y74.4207
G01 X163.6604 Y73.3330
G01 X163.6513 Y72.1582
G01 X163.6420 Y70.9050
G01 X163.6324 Y69.5820
G01 X163.6229 Y68.1978
G01 X163.6134 Y66.7611
G01 X163.6041 Y65.2805
G01 X163.5951 Y63.7645
G01 X163.5867 Y62.2218
G01 X163.5788 Y60.6610
G01 X163.5716 Y59.0907
G01 X163.5652 Y57.5195
G01 X163.5599 Y55.9559
G01 X163.5556 Y54.4087
G01 X163.5525 Y52.8863
G01 X163.5508 Y51.3973
G01 X163.5505 Y49.9503
G03 X163.6601 Y39.5940 I271.3236 J-2.3077
G03 X163.7648 Y38.4889 I8.8089 J0.2769
G03 X164.5577 Y34.4873 I76.7464 J13.1282
G03 X204.4983 Y-2.3935 I47.7481 J11.6420
G03 X256.3236 Y24.4630 I7.7478 J48.4812
G01 X256.3373 Y24.4893
G03 X386.3940 Y5.8693 I109.0722 J298.3260
G03 X471.0367 Y23.1719 I-20.4792 J315.8653
G01 X471.0401 Y23.1701
G03 X515.3245 Y-2.9918 I43.3834 J22.8743
G03 X555.5761 Y19.3775 I-0.8530 J48.9343
G03 X561.9572 Y33.9255 I-41.0477 J26.6781
G03 X562.2347 Y35.1010 I-2.7421 J1.2679
G01 X562.2371 Y35.1189
G03 X562.4753 Y38.1100 I-23.5799 J3.3824
G03 X562.5742 Y53.3483 I-379.7851 J10.0832
G01 X562.5651 Y54.4038
G01 X562.5550 Y55.4608
G01 X562.5439 Y56.5167
G01 X562.5320 Y57.5689
G01 X562.5194 Y58.6148
G01 X562.5061 Y59.6517
G01 X562.4922 Y60.6770
G01 X562.4779 Y61.6882
G01 X562.4631 Y62.6827
G01 X562.4481 Y63.6577
G01 X562.4329 Y64.6107
G01 X562.4177 Y65.5392
G01 X562.4024 Y66.4404
G01 X562.3872 Y67.3117
G01 X562.3722 Y68.1506
G01 X562.3575 Y68.9543
G01 X562.3431 Y69.7204
G01 X562.3292 Y70.4462
G01 X562.3159 Y71.1290
G01 X562.3033 Y71.7662
G01 X562.2914 Y72.3553
G01 X562.2804 Y72.8935
G01 X562.2703 Y73.3783
G01 X562.2665 Y73.5567
G01 X562.2679 Y73.5568
G03 X628.5846 Y144.8124 I-198.2746 J251.0195
G00 Z0.0000
G03 X637.2382 Y158.2684 I-261.7922 J177.8690
G00 Z-2.5000
G01 Z-3.0000 F300
G03 X639.3572 Y161.8030 Z-4.5000 I-269.8374 J164.1752
G02 X637.2382 Y158.2684 Z-6.0000 I-271.9564 J160.6406
G03 X683.2167 Y317.3391 I-269.8374 J164.1752 F600
G03 X649.9746 Y464.5327 I-316.3557 J5.9050
G01 X655.0799 Y476.2732
G02 X663.9035 Y495.8331 I424.9872 J-179.9434
G02 X668.6833 Y504.8637 I103.4618 J-48.9819
G02 X671.5346 Y508.7950 I20.9836 J-12.2191
G02 X694.8260 Y523.6190 I36.1562 J-31.0987
G02 X709.6482 Y526.4637 I24.5055 J-87.6476
G02 X714.2281 Y526.9127 I15.7519 J-137.0866
G03 X716.9744 Y529.9020 I-0.2536 J2.9893
G01 Y547.9079
G03 X713.9744 Y550.9079 I-3.0000 J0.0000
G01 X655.5632
G00 Z0.0000
G01 X639.5632
G00 Z-5.5000
G01 Z-6.0000 F300
G01 X635.4420 Z-7.5000
G01 X639.5632 Z-9.0000
G01 X586.8220 F600
G03 X446.7099 Y630.2694 I-221.3991 J-227.5143
G03 X298.2546 Y633.5399 I-81.0450 J-307.8148
G03 X264.4165 Y624.2478 I66.3835 J-307.9984
G02 X256.3129 Y629.2259 I13.1946 J30.5641
G02 X247.0927 Y645.0505 I18.7722 J21.5360
G02 X251.0898 Y667.3088 I29.0750 J6.2668
G02 X258.1160 Y673.6919 I15.1816 J-9.6528
G02 X272.8680 Y674.1369 I7.8725 J-16.2331
G02 X277.1105 Y671.7638 I-6.4132 J-16.4435
G02 X280.0756 Y667.0165 I-4.8229 J-6.3118
G02 X279.1777 Y661.1545 I-8.7029 J-1.6668
G02 X274.9457 Y658.1833 I-4.6851 J2.1737
G02 X270.1937 Y659.4674 I-0.7849 J6.5302
G03 X254.9699 Y636.1525 I-7.4701 J-11.7501
G03 X283.6808 Y631.6278 I19.1983 J28.4672
G03 X304.5157 Y649.5823 I-9.2246 J31.7704
G03 X307.0465 Y674.0304 I-33.0281 J15.7741
G03 X290.2818 Y696.4581 I-35.2785 J-8.8909
G03 X262.5042 Y703.2302 I-24.4360 J-39.8769
G03 X227.0765 Y681.4289 I3.4491 J-45.2911
G03 X220.9387 Y634.9923 I49.1564 J-30.1212
G03 X233.8687 Y612.2761 I54.1672 J15.7938
G01 X233.1458 Y611.9625
G01 X231.5919 Y611.2909
G01 X230.0573 Y610.6296
G01 X228.5415 Y609.9777
G01 X227.0437 Y609.3344
G01 X225.5633 Y608.6990
G01 X224.0996 Y608.0704
G01 X222.6520 Y607.4481
G01 X221.2199 Y606.8310
G03 X203.7128 Y598.9153 I161.0808 J-379.5790
G03 X182.3292 Y586.6995 I73.7808 J-153.9758
G03 X166.4271 Y574.4816 I96.2809 J-141.7721
G03 X136.9445 Y575.1383 I-36.9214 J-995.5676
G01 X133.9016 Y575.1645
G01 X130.8248 Y575.1856
G01 X127.7161 Y575.2020
G01 X124.5775 Y575.2138
G01 X121.4109 Y575.2215
G01 X118.2183 Y575.2252
G01 X115.0018 Y575.2253
G01 X111.7632 Y575.2220
G01 X108.5046 Y575.2156
G01 X105.2280 Y575.2064
G01 X101.9353 Y575.1947
G01 X98.6286 Y575.1808
G01 X95.3098 Y575.1649
G01 X91.9810 Y575.1474
G01 X91.6275 Y575.1454
G00 Z0.0000
G01 X88.6441 Y575.1285
G01 X85.3012 Y575.1084
G01 X81.9541 Y575.0875
G01 X78.6050 Y575.0661
G01 X75.6278 Y575.0468
G00 Z-5.5000
G01 Z-6.0000 F300
G01 X75.2558 Y575.0444 Z-6.1354
G01 X71.9086 Y575.0228 Z-7.3537
G01 X71.5067 Y575.0202 Z-7.5000
G01 X71.9086 Y575.0228 Z-7.6463
G01 X75.2558 Y575.0444 Z-8.8646
G01 X75.6278 Y575.0468 Z-9.0000
G01 X75.2558 Y575.0444 F600
G01 X71.9086 Y575.0228
G01 X68.5652 Y575.0014
G01 X65.2278 Y574.9806
G01 X61.8983 Y574.9607
G01 X58.5787 Y574.9419
G01 X55.2711 Y574.9245
G01 X51.9774 Y574.9089
G01 X48.6996 Y574.8952
G01 X45.4398 Y574.8838
G01 X42.1999 Y574.8750
G01 X38.9820 Y574.8689
G01 X35.7881 Y574.8660
G01 X32.6202 Y574.8665
G01 X29.4803 Y574.8706
G01 X26.3703 Y574.8787
G01 X23.2925 Y574.8910
G01 X20.2486 Y574.9079
G01 X17.2409 Y574.9295
G01 X14.2712 Y574.9562
G01 X11.3417 Y574.9882
G01 X8.4544 Y575.0259
G01 X5.6112 Y575.0694
G01 X2.8143 Y575.1192
G01 X0.0613 Y575.1754
G03 X-3.0000 Y572.1761 I-0.0613 J-2.9994
G01 Y554.1764
G03 X-0.2536 Y551.1871 I3.0000 J0.0000
G02 X15.6418 Y548.8123 I-7.8461 J-106.8979
G02 X26.4102 Y545.2074 I-12.1829 J-54.2788
G02 X43.9614 Y531.1687 I-19.8084 J-42.7552
G02 X47.6434 Y524.9211 I-46.4721 J-31.5964
G02 X55.4559 Y508.4440 I-259.8330 J-133.2888
G02 X58.8977 Y500.5475 I-645.7571 J-286.1646
G01 X77.5782 Y457.5790
G03 X47.7442 Y317.4670 I286.7811 J-134.2966
G03 X95.2208 Y155.7707 I316.0119 J4.9681
G03 X102.6713 Y144.3161 I270.2400 J167.6238
G00 Z0.0000
G03 X112.0098 Y131.3261 I261.9504 J178.4640
G00 Z-5.5000
G01 Z-6.0000 F300
G03 X114.5196 Y128.0573 Z-7.5000 I254.8627 J193.0820
G02 X112.0098 Y131.3261 Z-9.0000 I252.3529 J196.3509
G03 X163.6946 Y77.5187 I254.8627 J193.0820 F600
G01 X163.6912 Y77.0758
G01 X163.6846 Y76.3008
G01 X163.6771 Y75.4129
G01 X163.6690 Y74.4207
G01 X163.6604 Y73.3330
G01 X163.6513 Y72.1582
G01 X163.6420 Y70.9050
G01 X163.6324 Y69.5820
G01 X163.6229 Y68.1978
G01 X163.6134 Y66.7611
G01 X163.6041 Y65.2805
G01 X163.5951 Y63.7645
G01 X163.5867 Y62.2218
G01 X163.5788 Y60.6610
G01 X163.5716 Y59.0907
G01 X163.5652 Y57.5195
G01 X163.5599 Y55.9559
G01 X163.5556 Y54.4087
G01 X163.5525 Y52.8863
G01 X163.5508 Y51.3973
G01 X163.5505 Y49.9503
G03 X163.6601 Y39.5940 I271.3236 J-2.3077
G03 X163.7648 Y38.4889 I8.8089 J0.2769
G03 X164.5577 Y34.4873 I76.7464 J13.1282
G03 X204.4983 Y-2.3935 I47.7481 J11.6420
G03 X256.3236 Y24.4630 I7.7478 J48.4812
G01 X256.3373 Y24.4893
G03 X386.3940 Y5.8693 I109.0722 J298.3260
G03 X471.0367 Y23.1719 I-20.4792 J315.8653
G01 X471.0401 Y23.1701
G03 X515.3245 Y-2.9918 I43.3834 J22.8743
G03 X555.5761 Y19.3775 I-0.8530 J48.9343
G03 X561.9572 Y33.9255 I-41.0477 J26.6781
G03 X562.2347 Y35.1010 I-2.7421 J1.2679
G01 X562.2371 Y35.1189
G03 X562.4753 Y38.1100 I-23.5799 J3.3824
G03 X562.5742 Y53.3483 I-379.7851 J10.0832
G01 X562.5651 Y54.4038
G01 X562.5550 Y55.4608
G01 X562.5439 Y56.5167
G01 X562.5320 Y57.5689
G01 X562.5194 Y58.6148
G01 X562.5061 Y59.6517
G01 X562.4922 Y60.6770
G01 X562.4779 Y61.6882
G01 X562.4631 Y62.6827
G01 X562.4481 Y63.6577
G01 X562.4329 Y64.6107
G01 X562.4177 Y65.5392
G01 X562.4024 Y66.4404
G01 X562.3872 Y67.3117
G01 X562.3722 Y68.1506
G01 X562.3575 Y68.9543
G01 X562.3431 Y69.7204
G01 X562.3292 Y70.4462
G01 X562.3159 Y71.1290
G01 X562.3033 Y71.7662
G01 X562.2914 Y72.3553
G01 X562.2804 Y72.8935
G01 X562.2703 Y73.3783
G01 X562.2665 Y73.5567
G01 X562.2679 Y73.5568
G03 X628.5846 Y144.8124 I-198.2746 J251.0195
G00 Z0.0000
G03 X637.2382 Y158.2684 I-261.7922 J177.8690
G00 Z-5.5000
G01 Z-6.0000 F300
G03 X639.3572 Y161.8030 Z-7.5000 I-269.8374 J164.1752
G02 X637.2382 Y158.2684 Z-9.0000 I-271.9564 J160.6406
G03 X683.2167 Y317.3391 I-269.8374 J164.1752 F600
G03 X649.9746 Y464.5327 I-316.3557 J5.9050
G01 X655.0799 Y476.2732
G02 X663.9035 Y495.8331 I424.9872 J-179.9434
G02 X668.6833 Y504.8637 I103.4618 J-48.9819
G02 X671.5346 Y508.7950 I20.9836 J-12.2191
G02 X694.8260 Y523.6190 I36.1562 J-31.0987
G02 X709.6482 Y526.4637 I24.5055 J-87.6476
G02 X714.2281 Y526.9127 I15.7519 J-137.0866
G03 X716.9744 Y529.9020 I-0.2536 J2.9893
G01 Y547.9079
G03 X713.9744 Y550.9079 I-3.0000 J0.0000
G01 X655.5632
G00 Z0.0000
G01 X639.5632
G00 Z-8.5000
G01 Z-9.0000 F300
G01 X635.4420 Z-10.5000
G01 X639.5632 Z-12.0000
G01 X586.8220 F600
G03 X446.7099 Y630.2694 I-221.3991 J-227.5143
G03 X298.2546 Y633.5399 I-81.0450 J-307.8148
G03 X264.4165 Y624.2478 I66.3835 J-307.9984
G02 X256.3129 Y629.2259 I13.1946 J30.5641
G02 X247.0927 Y645.0505 I18.7722 J21.5360
G02 X251.0898 Y667.3088 I29.0750 J6.2668
G02 X258.1160 Y673.6919 I15.1816 J-9.6528
G02 X272.8680 Y674.1369 I7.8725 J-16.2331
G02 X277.1105 Y671.7638 I-6.4132 J-16.4435
G02 X280.0756 Y667.0165 I-4.8229 J-6.3118
G02 X279.1777 Y661.1545 I-8.7029 J-1.6668
G02 X274.9457 Y658.1833 I-4.6851 J2.1737
G02 X270.1937 Y659.4674 I-0.7849 J6.5302
G03 X254.9699 Y636.1525 I-7.4701 J-11.7501
G03 X283.6808 Y631.6278 I19.1983 J28.4672
G03 X304.5157 Y649.5823 I-9.2246 J31.7704
G03 X307.0465 Y674.0304 I-33.0281 J15.7741
G03 X290.2818 Y696.4581 I-35.2785 J-8.8909
G03 X262.5042 Y703.2302 I-24.4360 J-39.8769
G03 X227.0765 Y681.4289 I3.4491 J-45.2911
G03 X220.9387 Y634.9923 I49.1564 J-30.1212
G03 X233.8687 Y612.2761 I54.1672 J15.7938
G01 X233.1458 Y611.9625
G01 X231.5919 Y611.2909
G01 X230.0573 Y610.6296
G01 X228.5415 Y609.9777
G01 X227.0437 Y609.3344
G01 X225.5633 Y608.6990
G01 X224.0996 Y608.0704
G01 X222.6520 Y607.4481
G01 X221.2199 Y606.8310
G03 X203.7128 Y598.9153 I161.0808 J-379.5790
G03 X182.3292 Y586.6995 I73.7808 J-153.9758
G03 X166.4271 Y574.4816 I96.2809 J-141.7721
G03 X136.9445 Y575.1383 I-36.9214 J-995.5676
G01 X133.9016 Y575.1645
G01 X130.8248 Y575.1856
G01 X127.7161 Y575.2020
G01 X124.5775 Y575.2138
G01 X121.4109 Y575.2215
G01 X118.2183 Y575.2252
G01 X115.0018 Y575.2253
G01 X111.7632 Y575.2220
G01 X108.5046 Y575.2156
G01 X105.2280 Y575.2064
G01 X101.9353 Y575.1947
G01 X98.6286 Y575.1808
G01 X95.3098 Y575.1649
G01 X91.9810 Y575.1474
G01 X91.6275 Y575.1454
G00 Z0.0000
G01 X88.6441 Y575.1285
G01 X85.3012 Y575.1084
G01 X81.9541 Y575.0875
G01 X78.6050 Y575.0661
G01 X75.6278 Y575.0468
G00 Z-8.5000
G01 Z-9.0000 F300
G01 X75.2558 Y575.0444 Z-9.1354
G01 X71.9086 Y575.0228 Z-10.3537
G01 X71.5067 Y575.0202 Z-10.5000
G01 X71.9086 Y575.0228 Z-10.6463
G01 X75.2558 Y575.0444 Z-11.8646
G01 X75.6278 Y575.0468 Z-12.0000
G01 X75.2558 Y575.0444 F600
G01 X71.9086 Y575.0228
G01 X68.5652 Y575.0014
G01 X65.2278 Y574.9806
G01 X61.8983 Y574.9607
G01 X58.5787 Y574.9419
G01 X55.2711 Y574.9245
G01 X51.9774 Y574.9089
G01 X48.6996 Y574.8952
G01 X45.4398 Y574.8838
G01 X42.1999 Y574.8750
G01 X38.9820 Y574.8689
G01 X35.7881 Y574.8660
G01 X32.6202 Y574.8665
G01 X29.4803 Y574.8706
G01 X26.3703 Y574.8787
G01 X23.2925 Y574.8910
G01 X20.2486 Y574.9079
G01 X17.2409 Y574.9295
G01 X14.2712 Y574.9562
G01 X11.3417 Y574.9882
G01 X8.4544 Y575.0259
G01 X5.6112 Y575.0694
G01 X2.8143 Y575.1192
G01 X0.0613 Y575.1754
G03 X-3.0000 Y572.1761 I-0.0613 J-2.9994
G01 Y554.1764
G03 X-0.2536 Y551.1871 I3.0000 J0.0000
G02 X15.6418 Y548.8123 I-7.8461 J-106.8979
G02 X26.4102 Y545.2074 I-12.1829 J-54.2788
G02 X43.9614 Y531.1687 I-19.8084 J-42.7552
G02 X47.6434 Y524.9211 I-46.4721 J-31.5964
G02 X55.4559 Y508.4440 I-259.8330 J-133.2888
G02 X58.8977 Y500.5475 I-645.7571 J-286.1646
G01 X77.5782 Y457.5790
G03 X47.7442 Y317.4670 I286.7811 J-134.2966
G03 X95.2208 Y155.7707 I316.0119 J4.9681
G03 X102.6713 Y144.3161 I270.2400 J167.6238
G00 Z0.0000
G03 X112.0098 Y131.3261 I261.9504 J178.4640
G00 Z-8.5000
G01 Z-9.0000 F300
G03 X114.5196 Y128.0573 Z-10.5000 I254.8627 J193.0820
G02 X112.0098 Y131.3261 Z-12.0000 I252.3529 J196.3509
G03 X163.6946 Y77.5187 I254.8627 J193.0820 F600
G01 X163.6912 Y77.0758
G01 X163.6846 Y76.3008
G01 X163.6771 Y75.4129
G01 X163.6690 Y74.4207
G01 X163.6604 Y73.3330
G01 X163.6513 Y72.1582
G01 X163.6420 Y70.9050
G01 X163.6324 Y69.5820
G01 X163.6229 Y68.1978
G01 X163.6134 Y66.7611
G01 X163.6041 Y65.2805
G01 X163.5951 Y63.7645
G01 X163.5867 Y62.2218
G01 X163.5788 Y60.6610
G01 X163.5716 Y59.0907
G01 X163.5652 Y57.5195
G01 X163.5599 Y55.9559
G01 X163.5556 Y54.4087
G01 X163.5525 Y52.8863
G01 X163.5508 Y51.3973
G01 X163.5505 Y49.9503
G03 X163.6601 Y39.5940 I271.3236 J-2.3077
G03 X163.7648 Y38.4889 I8.8089 J0.2769
G03 X164.5577 Y34.4873 I76.7464 J13.1282
G03 X204.4983 Y-2.3935 I47.7481 J11.6420
G03 X256.3236 Y24.4630 I7.7478 J48.4812
G01 X256.3373 Y24.4893
G03 X386.3940 Y5.8693 I109.0722 J298.3260
G03 X471.0367 Y23.1719 I-20.4792 J315.8653
G01 X471.0401 Y23.1701
G03 X515.3245 Y-2.9918 I43.3834 J22.8743
G03 X555.5761 Y19.3775 I-0.8530 J48.9343
G03 X561.9572 Y33.9255 I-41.0477 J26.6781
G03 X562.2347 Y35.1010 I-2.7421 J1.2679
G01 X562.2371 Y35.1189
G03 X562.4753 Y38.1100 I-23.5799 J3.3824
G03 X562.5742 Y53.3483 I-379.7851 J10.0832
G01 X562.5651 Y54.4038
G01 X562.5550 Y55.4608
G01 X562.5439 Y56.5167
G01 X562.5320 Y57.5689
G01 X562.5194 Y58.6148
G01 X562.5061 Y59.6517
G01 X562.4922 Y60.6770
G01 X562.4779 Y61.6882
G01 X562.4631 Y62.6827
G01 X562.4481 Y63.6577
G01 X562.4329 Y64.6107
G01 X562.4177 Y65.5392
G01 X562.4024 Y66.4404
G01 X562.3872 Y67.3117
G01 X562.3722 Y68.1506
G01 X562.3575 Y68.9543
G01 X562.3431 Y69.7204
G01 X562.3292 Y70.4462
G01 X562.3159 Y71.1290
G01 X562.3033 Y71.7662
G01 X562.2914 Y72.3553
G01 X562.2804 Y72.8935
G01 X562.2703 Y73.3783
G01 X562.2665 Y73.5567
G01 X562.2679 Y73.5568
G03 X628.5846 Y144.8124 I-198.2746 J251.0195
G00 Z0.0000
G03 X637.2382 Y158.2684 I-261.7922 J177.8690
G00 Z-8.5000
G01 Z-9.0000 F300
G03 X639.3572 Y161.8030 Z-10.5000 I-269.8374 J164.1752
G02 X637.2382 Y158.2684 Z-12.0000 I-271.9564 J160.6406
G03 X683.2167 Y317.3391 I-269.8374 J164.1752 F600
G03 X649.9746 Y464.5327 I-316.3557 J5.9050
G01 X655.0799 Y476.2732
G02 X663.9035 Y495.8331 I424.9872 J-179.9434
G02 X668.6833 Y504.8637 I103.4618 J-48.9819
G02 X671.5346 Y508.7950 I20.9836 J-12.2191
G02 X694.8260 Y523.6190 I36.1562 J-31.0987
G02 X709.6482 Y526.4637 I24.5055 J-87.6476
G02 X714.2281 Y526.9127 I15.7519 J-137.0866
G03 X716.9744 Y529.9020 I-0.2536 J2.9893
G01 Y547.9079
G03 X713.9744 Y550.9079 I-3.0000 J0.0000
G01 X655.5632
G00 Z0.0000
G01 X639.5632
G00 Z-11.5000
G01 Z-12.0000 F300
G01 X635.4420 Z-13.5000
G01 X639.5632 Z-15.0000
G01 X586.8220 F600
G03 X446.7099 Y630.2694 I-221.3991 J-227.5143
G03 X298.2546 Y633.5399 I-81.0450 J-307.8148
G03 X264.4165 Y624.2478 I66.3835 J-307.9984
G02 X256.3129 Y629.2259 I13.1946 J30.5641
G02 X247.0927 Y645.0505 I18.7722 J21.5360
G02 X251.0898 Y667.3088 I29.0750 J6.2668
G02 X258.1160 Y673.6919 I15.1816 J-9.6528
G02 X272.8680 Y674.1369 I7.8725 J-16.2331
G02 X277.1105 Y671.7638 I-6.4132 J-16.4435
G02 X280.0756 Y667.0165 I-4.8229 J-6.3118
G02 X279.1777 Y661.1545 I-8.7029 J-1.6668
G02 X274.9457 Y658.1833 I-4.6851 J2.1737
G02 X270.1937 Y659.4674 I-0.7849 J6.5302
G03 X254.9699 Y636.1525 I-7.4701 J-11.7501
G03 X283.6808 Y631.6278 I19.1983 J28.4672
G03 X304.5157 Y649.5823 I-9.2246 J31.7704
G03 X307.0465 Y674.0304 I-33.0281 J15.7741
G03 X290.2818 Y696.4581 I-35.2785 J-8.8909
G03 X262.5042 Y703.2302 I-24.4360 J-39.8769
G03 X227.0765 Y681.4289 I3.4491 J-45.2911
G03 X220.9387 Y634.9923 I49.1564 J-30.1212
G03 X233.8687 Y612.2761 I54.1672 J15.7938
G01 X233.1458 Y611.9625
G01 X231.5919 Y611.2909
G01 X230.0573 Y610.6296
G01 X228.5415 Y609.9777
G01 X227.0437 Y609.3344
G01 X225.5633 Y608.6990
G01 X224.0996 Y608.0704
G01 X222.6520 Y607.4481
G01 X221.2199 Y606.8310
G03 X203.7128 Y598.9153 I161.0808 J-379.5790
G03 X182.3292 Y586.6995 I73.7808 J-153.9758
G03 X166.4271 Y574.4816 I96.2809 J-141.7721
G03 X136.9445 Y575.1383 I-36.9214 J-995.5676
G01 X133.9016 Y575.1645
G01 X130.8248 Y575.1856
G01 X127.7161 Y575.2020
G01 X124.5775 Y575.2138
G01 X121.4109 Y575.2215
G01 X118.2183 Y575.2252
G01 X115.0018 Y575.2253
G01 X111.7632 Y575.2220
G01 X108.5046 Y575.2156
G01 X105.2280 Y575.2064
G01 X101.9353 Y575.1947
G01 X98.6286 Y575.1808
G01 X95.3098 Y575.1649
G01 X91.9810 Y575.1474
G01 X91.6275 Y575.1454
G00 Z0.0000
G01 X88.6441 Y575.1285
G01 X85.3012 Y575.1084
G01 X81.9541 Y575.0875
G01 X78.6050 Y575.0661
G01 X75.6278 Y575.0468
G00 Z-11.5000
G01 Z-12.0000 F300
G01 X75.2558 Y575.0444 Z-12.1354
G01 X71.9086 Y575.0228 Z-13.3537
G01 X71.5067 Y575.0202 Z-13.5000
G01 X71.9086 Y575.0228 Z-13.6463
G01 X75.2558 Y575.0444 Z-14.8646
G01 X75.6278 Y575.0468 Z-15.0000
G01 X75.2558 Y575.0444 F600
G01 X71.9086 Y575.0228
G01 X68.5652 Y575.0014
G01 X65.2278 Y574.9806
G01 X61.8983 Y574.9607
G01 X58.5787 Y574.9419
G01 X55.2711 Y574.9245
G01 X51.9774 Y574.9089
G01 X48.6996 Y574.8952
G01 X45.4398 Y574.8838
G01 X42.1999 Y574.8750
G01 X38.9820 Y574.8689
G01 X35.7881 Y574.8660
G01 X32.6202 Y574.8665
G01 X29.4803 Y574.8706
G01 X26.3703 Y574.8787
G01 X23.2925 Y574.8910
G01 X20.2486 Y574.9079
G01 X17.2409 Y574.9295
G01 X14.2712 Y574.9562
G01 X11.3417 Y574.9882
G01 X8.4544 Y575.0259
G01 X5.6112 Y575.0694
G01 X2.8143 Y575.1192
G01 X0.0613 Y575.1754
G03 X-3.0000 Y572.1761 I-0.0613 J-2.9994
G01 Y554.1764
G03 X-0.2536 Y551.1871 I3.0000 J0.0000
G02 X15.6418 Y548.8123 I-7.8461 J-106.8979
G02 X26.4102 Y545.2074 I-12.1829 J-54.2788
G02 X43.9614 Y531.1687 I-19.8084 J-42.7552
G02 X47.6434 Y524.9211 I-46.4721 J-31.5964
G02 X55.4559 Y508.4440 I-259.8330 J-133.2888
G02 X58.8977 Y500.5475 I-645.7571 J-286.1646
G01 X77.5782 Y457.5790
G03 X47.7442 Y317.4670 I286.7811 J-134.2966
G03 X95.2208 Y155.7707 I316.0119 J4.9681
G03 X102.6713 Y144.3161 I270.2400 J167.6238
G00 Z0.0000
G03 X112.0098 Y131.3261 I261.9504 J178.4640
G00 Z-11.5000
G01 Z-12.0000 F300
G03 X114.5196 Y128.0573 Z-13.5000 I254.8627 J193.0820
G02 X112.0098 Y131.3261 Z-15.0000 I252.3529 J196.3509
G03 X163.6946 Y77.5187 I254.8627 J193.0820 F600
G01 X163.6912 Y77.0758
G01 X163.6846 Y76.3008
G01 X163.6771 Y75.4129
G01 X163.6690 Y74.4207
G01 X163.6604 Y73.3330
G01 X163.6513 Y72.1582
G01 X163.6420 Y70.9050
G01 X163.6324 Y69.5820
G01 X163.6229 Y68.1978
G01 X163.6134 Y66.7611
G01 X163.6041 Y65.2805
G01 X163.5951 Y63.7645
G01 X163.5867 Y62.2218
G01 X163.5788 Y60.6610
G01 X163.5716 Y59.0907
G01 X163.5652 Y57.5195
G01 X163.5599 Y55.9559
G01 X163.5556 Y54.4087
G01 X163.5525 Y52.8863
G01 X163.5508 Y51.3973
G01 X163.5505 Y49.9503
G03 X163.6601 Y39.5940 I271.3236 J-2.3077
G03 X163.7648 Y38.4889 I8.8089 J0.2769
G03 X164.5577 Y34.4873 I76.7464 J13.1282
G03 X204.4983 Y-2.3935 I47.7481 J11.6420
G03 X256.3236 Y24.4630 I7.7478 J48.4812
G01 X256.3373 Y24.4893
G03 X386.3940 Y5.8693 I109.0722 J298.3260
G03 X471.0367 Y23.1719 I-20.4792 J315.8653
G01 X471.0401 Y23.1701
G03 X515.3245 Y-2.9918 I43.3834 J22.8743
G03 X555.5761 Y19.3775 I-0.8530 J48.9343
G03 X561.9572 Y33.9255 I-41.0477 J26.6781
G03 X562.2347 Y35.1010 I-2.7421 J1.2679
G01 X562.2371 Y35.1189
G03 X562.4753 Y38.1100 I-23.5799 J3.3824
G03 X562.5742 Y53.3483 I-379.7851 J10.0832
G01 X562.5651 Y54.4038
G01 X562.5550 Y55.4608
G01 X562.5439 Y56.5167
G01 X562.5320 Y57.5689
G01 X562.5194 Y58.6148
G01 X562.5061 Y59.6517
G01 X562.4922 Y60.6770
G01 X562.4779 Y61.6882
G01 X562.4631 Y62.6827
G01 X562.4481 Y63.6577
G01 X562.4329 Y64.6107
G01 X562.4177 Y65.5392
G01 X562.4024 Y66.4404
G01 X562.3872 Y67.3117
G01 X562.3722 Y68.1506
G01 X562.3575 Y68.9543
G01 X562.3431 Y69.7204
G01 X562.3292 Y70.4462
G01 X562.3159 Y71.1290
G01 X562.3033 Y71.7662
G01 X562.2914 Y72.3553
G01 X562.2804 Y72.8935
G01 X562.2703 Y73.3783
G01 X562.2665 Y73.5567
G01 X562.2679 Y73.5568
G03 X628.5846 Y144.8124 I-198.2746 J251.0195
G00 Z0.0000
G03 X637.2382 Y158.2684 I-261.7922 J177.8690
G00 Z-11.5000
G01 Z-12.0000 F300
G03 X639.3572 Y161.8030 Z-13.5000 I-269.8374 J164.1752
G02 X637.2382 Y158.2684 Z-15.0000 I-271.9564 J160.6406
G03 X683.2167 Y317.3391 I-269.8374 J164.1752 F600
G03 X649.9746 Y464.5327 I-316.3557 J5.9050
G01 X655.0799 Y476.2732
G02 X663.9035 Y495.8331 I424.9872 J-179.9434
G02 X668.6833 Y504.8637 I103.4618 J-48.9819
G02 X671.5346 Y508.7950 I20.9836 J-12.2191
G02 X694.8260 Y523.6190 I36.1562 J-31.0987
G02 X709.6482 Y526.4637 I24.5055 J-87.6476
G02 X714.2281 Y526.9127 I15.7519 J-137.0866
G03 X716.9744 Y529.9020 I-0.2536 J2.9893
G01 Y547.9079
G03 X713.9744 Y550.9079 I-3.0000 J0.0000
G01 X655.5632
G00 Z0.0000
G01 X639.5632
G00 Z-14.5000
G01 Z-15.0000 F300
G01 X635.4420 Z-16.5000
G01 X639.5632 Z-18.0000
G01 X586.8220 F600
G03 X446.7099 Y630.2694 I-221.3991 J-227.5143
G03 X298.2546 Y633.5399 I-81.0450 J-307.8148
G03 X264.4165 Y624.2478 I66.3835 J-307.9984
G02 X256.3129 Y629.2259 I13.1946 J30.5641
G02 X247.0927 Y645.0505 I18.7722 J21.5360
G02 X251.0898 Y667.3088 I29.0750 J6.2668
G02 X258.1160 Y673.6919 I15.1816 J-9.6528
G02 X272.8680 Y674.1369 I7.8725 J-16.2331
G02 X277.1105 Y671.7638 I-6.4132 J-16.4435
G02 X280.0756 Y667.0165 I-4.8229 J-6.3118
G02 X279.1777 Y661.1545 I-8.7029 J-1.6668
G02 X274.9457 Y658.1833 I-4.6851 J2.1737
G02 X270.1937 Y659.4674 I-0.7849 J6.5302
G03 X254.9699 Y636.1525 I-7.4701 J-11.7501
G03 X283.6808 Y631.6278 I19.1983 J28.4672
G03 X304.5157 Y649.5823 I-9.2246 J31.7704
G03 X307.0465 Y674.0304 I-33.0281 J15.7741
G03 X290.2818 Y696.4581 I-35.2785 J-8.8909
G03 X262.5042 Y703.2302 I-24.4360 J-39.8769
G03 X227.0765 Y681.4289 I3.4491 J-45.2911
G03 X220.9387 Y634.9923 I49.1564 J-30.1212
G03 X233.8687 Y612.2761 I54.1672 J15.7938
G01 X233.1458 Y611.9625
G01 X231.5919 Y611.2909
G01 X230.0573 Y610.6296
G01 X228.5415 Y609.9777
G01 X227.0437 Y609.3344
G01 X225.5633 Y608.6990
G01 X224.0996 Y608.0704
G01 X222.6520 Y607.4481
G01 X221.2199 Y606.8310
G03 X203.7128 Y598.9153 I161.0808 J-379.5790
G03 X182.3292 Y586.6995 I73.7808 J-153.9758
G03 X166.4271 Y574.4816 I96.2809 J-141.7721
G03 X136.9445 Y575.1383 I-36.9214 J-995.5676
G01 X133.9016 Y575.1645
G01 X130.8248 Y575.1856
G01 X127.7161 Y575.2020
G01 X124.5775 Y575.2138
G01 X121.4109 Y575.2215
G01 X118.2183 Y575.2252
G01 X115.0018 Y575.2253
G01 X111.7632 Y575.2220
G01 X108.5046 Y575.2156
G01 X105.2280 Y575.2064
G01 X101.9353 Y575.1947
G01 X98.6286 Y575.1808
G01 X95.3098 Y575.1649
G01 X91.9810 Y575.1474
G01 X91.6275 Y575.1454
G00 Z0.0000
G01 X88.6441 Y575.1285
G01 X85.3012 Y575.1084
G01 X81.9541 Y575.0875
G01 X78.6050 Y575.0661
G01 X75.6278 Y575.0468
G00 Z-14.5000
G01 Z-15.0000 F300
G01 X75.2558 Y575.0444 Z-15.1354
G01 X71.9086 Y575.0228 Z-16.3537
G01 X71.5067 Y575.0202 Z-16.5000
G01 X71.9086 Y575.0228 Z-16.6463
G01 X75.2558 Y575.0444 Z-17.8646
G01 X75.6278 Y575.0468 Z-18.0000
G01 X75.2558 Y575.0444 F600
G01 X71.9086 Y575.0228
G01 X68.5652 Y575.0014
G01 X65.2278 Y574.9806
G01 X61.8983 Y574.9607
G01 X58.5787 Y574.9419
G01 X55.2711 Y574.9245
G01 X51.9774 Y574.9089
G01 X48.6996 Y574.8952
G01 X45.4398 Y574.8838
G01 X42.1999 Y574.8750
G01 X38.9820 Y574.8689
G01 X35.7881 Y574.8660
G01 X32.6202 Y574.8665
G01 X29.4803 Y574.8706
G01 X26.3703 Y574.8787
G01 X23.2925 Y574.8910
G01 X20.2486 Y574.9079
G01 X17.2409 Y574.9295
G01 X14.2712 Y574.9562
G01 X11.3417 Y574.9882
G01 X8.4544 Y575.0259
G01 X5.6112 Y575.0694
G01 X2.8143 Y575.1192
G01 X0.0613 Y575.1754
G03 X-3.0000 Y572.1761 I-0.0613 J-2.9994
G01 Y554.1764
G03 X-0.2536 Y551.1871 I3.0000 J0.0000
G02 X15.6418 Y548.8123 I-7.8461 J-106.8979
G02 X26.4102 Y545.2074 I-12.1829 J-54.2788
G02 X43.9614 Y531.1687 I-19.8084 J-42.7552
G02 X47.6434 Y524.9211 I-46.4721 J-31.5964
G02 X55.4559 Y508.4440 I-259.8330 J-133.2888
G02 X58.8977 Y500.5475 I-645.7571 J-286.1646
G01 X77.5782 Y457.5790
G03 X47.7442 Y317.4670 I286.7811 J-134.2966
G03 X95.2208 Y155.7707 I316.0119 J4.9681
G03 X102.6713 Y144.3161 I270.2400 J167.6238
G00 Z0.0000
G03 X112.0098 Y131.3261 I261.9504 J178.4640
G00 Z-14.5000
G01 Z-15.0000 F300
G03 X114.5196 Y128.0573 Z-16.5000 I254.8627 J193.0820
G02 X112.0098 Y131.3261 Z-18.0000 I252.3529 J196.3509
G03 X163.6946 Y77.5187 I254.8627 J193.0820 F600
G01 X163.6912 Y77.0758
G01 X163.6846 Y76.3008
G01 X163.6771 Y75.4129
G01 X163.6690 Y74.4207
G01 X163.6604 Y73.3330
G01 X163.6513 Y72.1582
G01 X163.6420 Y70.9050
G01 X163.6324 Y69.5820
G01 X163.6229 Y68.1978
G01 X163.6134 Y66.7611
G01 X163.6041 Y65.2805
G01 X163.5951 Y63.7645
G01 X163.5867 Y62.2218
G01 X163.5788 Y60.6610
G01 X163.5716 Y59.0907
G01 X163.5652 Y57.5195
G01 X163.5599 Y55.9559
G01 X163.5556 Y54.4087
G01 X163.5525 Y52.8863
G01 X163.5508 Y51.3973
G01 X163.5505 Y49.9503
G03 X163.6601 Y39.5940 I271.3236 J-2.3077
G03 X163.7648 Y38.4889 I8.8089 J0.2769
G03 X164.5577 Y34.4873 I76.7464 J13.1282
G03 X204.4983 Y-2.3935 I47.7481 J11.6420
G03 X256.3236 Y24.4630 I7.7478 J48.4812
G01 X256.3373 Y24.4893
G03 X386.3940 Y5.8693 I109.0722 J298.3260
G03 X471.0367 Y23.1719 I-20.4792 J315.8653
G01 X471.0401 Y23.1701
G03 X515.3245 Y-2.9918 I43.3834 J22.8743
G03 X555.5761 Y19.3775 I-0.8530 J48.9343
G03 X561.9572 Y33.9255 I-41.0477 J26.6781
G03 X562.2347 Y35.1010 I-2.7421 J1.2679
G01 X562.2371 Y35.1189
G03 X562.4753 Y38.1100 I-23.5799 J3.3824
G03 X562.5742 Y53.3483 I-379.7851 J10.0832
G01 X562.5651 Y54.4038
G01 X562.5550 Y55.4608
G01 X562.5439 Y56.5167
G01 X562.5320 Y57.5689
G01 X562.5194 Y58.6148
G01 X562.5061 Y59.6517
G01 X562.4922 Y60.6770
G01 X562.4779 Y61.6882
G01 X562.4631 Y62.6827
G01 X562.4481 Y63.6577
G01 X562.4329 Y64.6107
G01 X562.4177 Y65.5392
G01 X562.4024 Y66.4404
G01 X562.3872 Y67.3117
G01 X562.3722 Y68.1506
G01 X562.3575 Y68.9543
G01 X562.3431 Y69.7204
G01 X562.3292 Y70.4462
G01 X562.3159 Y71.1290
G01 X562.3033 Y71.7662
G01 X562.2914 Y72.3553
G01 X562.2804 Y72.8935
G01 X562.2703 Y73.3783
G01 X562.2665 Y73.5567
G01 X562.2679 Y73.5568
G03 X628.5846 Y144.8124 I-198.2746 J251.0195
G00 Z0.0000
G03 X637.2382 Y158.2684 I-261.7922 J177.8690
G00 Z-14.5000
G01 Z-15.0000 F300
G03 X639.3572 Y161.8030 Z-16.5000 I-269.8374 J164.1752
G02 X637.2382 Y158.2684 Z-18.0000 I-271.9564 J160.6406
G03 X683.2167 Y317.3391 I-269.8374 J164.1752 F600
G03 X649.9746 Y464.5327 I-316.3557 J5.9050
G01 X655.0799 Y476.2732
G02 X663.9035 Y495.8331 I424.9872 J-179.9434
G02 X668.6833 Y504.8637 I103.4618 J-48.9819
G02 X671.5346 Y508.7950 I20.9836 J-12.2191
G02 X694.8260 Y523.6190 I36.1562 J-31.0987
G02 X709.6482 Y526.4637 I24.5055 J-87.6476
G02 X714.2281 Y526.9127 I15.7519 J-137.0866
G03 X716.9744 Y529.9020 I-0.2536 J2.9893
G01 Y547.9079
G03 X713.9744 Y550.9079 I-3.0000 J0.0000
G01 X655.5632
G00 Z0.0000
G01 X639.5632
G00 Z-17.5000
G01 Z-18.0000 F300
G01 X636.8158 Z-19.0000
G01 X639.5632 Z-20.0000
G01 X586.8220 F600
G03 X446.7099 Y630.2694 I-221.3991 J-227.5143
G03 X298.2546 Y633.5399 I-81.0450 J-307.8148
G03 X264.4165 Y624.2478 I66.3835 J-307.9984
G02 X256.3129 Y629.2259 I13.1946 J30.5641
G02 X247.0927 Y645.0505 I18.7722 J21.5360
G02 X251.0898 Y667.3088 I29.0750 J6.2668
G02 X258.1160 Y673.6919 I15.1816 J-9.6528
G02 X272.8680 Y674.1369 I7.8725 J-16.2331
G02 X277.1105 Y671.7638 I-6.4132 J-16.4435
G02 X280.0756 Y667.0165 I-4.8229 J-6.3118
G02 X279.1777 Y661.1545 I-8.7029 J-1.6668
G02 X274.9457 Y658.1833 I-4.6851 J2.1737
G02 X270.1937 Y659.4674 I-0.7849 J6.5302
G03 X254.9699 Y636.1525 I-7.4701 J-11.7501
G03 X283.6808 Y631.6278 I19.1983 J28.4672
G03 X304.5157 Y649.5823 I-9.2246 J31.7704
G03 X307.0465 Y674.0304 I-33.0281 J15.7741
G03 X290.2818 Y696.4581 I-35.2785 J-8.8909
G03 X262.5042 Y703.2302 I-24.4360 J-39.8769
G03 X227.0765 Y681.4289 I3.4491 J-45.2911
G03 X220.9387 Y634.9923 I49.1564 J-30.1212
G03 X233.8687 Y612.2761 I54.1672 J15.7938
G01 X233.1458 Y611.9625
G01 X231.5919 Y611.2909
G01 X230.0573 Y610.6296
G01 X228.5415 Y609.9777
G01 X227.0437 Y609.3344
G01 X225.5633 Y608.6990
G01 X224.0996 Y608.0704
G01 X222.6520 Y607.4481
G01 X221.2199 Y606.8310
G03 X203.7128 Y598.9153 I161.0808 J-379.5790
G03 X182.3292 Y586.6995 I73.7808 J-153.9758
G03 X166.4271 Y574.4816 I96.2809 J-141.7721
G03 X136.9445 Y575.1383 I-36.9214 J-995.5676
G01 X133.9016 Y575.1645
G01 X130.8248 Y575.1856
G01 X127.7161 Y575.2020
G01 X124.5775 Y575.2138
G01 X121.4109 Y575.2215
G01 X118.2183 Y575.2252
G01 X115.0018 Y575.2253
G01 X111.7632 Y575.2220
G01 X108.5046 Y575.2156
G01 X105.2280 Y575.2064
G01 X101.9353 Y575.1947
G01 X98.6286 Y575.1808
G01 X95.3098 Y575.1649
G01 X91.9810 Y575.1474
G01 X91.6275 Y575.1454
G00 Z0.0000
G01 X88.6441 Y575.1285
G01 X85.3012 Y575.1084
G01 X81.9541 Y575.0875
G01 X78.6050 Y575.0661
G01 X75.6278 Y575.0468
G00 Z-17.5000
G01 Z-18.0000 F300
G01 X75.2558 Y575.0444 Z-18.1354
G01 X72.8804 Y575.0290 Z-19.0000
G01 X75.2558 Y575.0444 Z-19.8646
G01 X75.6278 Y575.0468 Z-20.0000
G01 X75.2558 Y575.0444 F600
G01 X71.9086 Y575.0228
G01 X68.5652 Y575.0014
G01 X65.2278 Y574.9806
G01 X61.8983 Y574.9607
G01 X58.5787 Y574.9419
G01 X55.2711 Y574.9245
G01 X51.9774 Y574.9089
G01 X48.6996 Y574.8952
G01 X45.4398 Y574.8838
G01 X42.1999 Y574.8750
G01 X38.9820 Y574.8689
G01 X35.7881 Y574.8660
G01 X32.6202 Y574.8665
G01 X29.4803 Y574.8706
G01 X26.3703 Y574.8787
G01 X23.2925 Y574.8910
G01 X20.2486 Y574.9079
G01 X17.2409 Y574.9295
G01 X14.2712 Y574.9562
G01 X11.3417 Y574.9882
G01 X8.4544 Y575.0259
G01 X5.6112 Y575.0694
G01 X2.8143 Y575.1192
G01 X0.0613 Y575.1754
G03 X-3.0000 Y572.1761 I-0.0613 J-2.9994
G01 Y554.1764
G03 X-0.2536 Y551.1871 I3.0000 J0.0000
G02 X15.6418 Y548.8123 I-7.8461 J-106.8979
G02 X26.4102 Y545.2074 I-12.1829 J-54.2788
G02 X43.9614 Y531.1687 I-19.8084 J-42.7552
G02 X47.6434 Y524.9211 I-46.4721 J-31.5964
G02 X55.4559 Y508.4440 I-259.8330 J-133.2888
G02 X58.8977 Y500.5475 I-645.7571 J-286.1646
G01 X77.5782 Y457.5790
G03 X47.7442 Y317.4670 I286.7811 J-134.2966
G03 X95.2208 Y155.7707 I316.0119 J4.9681
G03 X102.6713 Y144.3161 I270.2400 J167.6238
G00 Z0.0000
G03 X112.0098 Y131.3261 I261.9504 J178.4640
G00 Z-17.5000
G01 Z-18.0000 F300
G03 X113.6783 Y129.1433 Z-19.0000 I254.8627 J193.0820
G02 X112.0098 Y131.3261 Z-20.0000 I253.1942 J195.2649
G03 X163.6946 Y77.5187 I254.8627 J193.0820 F600
G01 X163.6912 Y77.0758
G01 X163.6846 Y76.3008
G01 X163.6771 Y75.4129
G01 X163.6690 Y74.4207
G01 X163.6604 Y73.3330
G01 X163.6513 Y72.1582
G01 X163.6420 Y70.9050
G01 X163.6324 Y69.5820
G01 X163.6229 Y68.1978
G01 X163.6134 Y66.7611
G01 X163.6041 Y65.2805
G01 X163.5951 Y63.7645
G01 X163.5867 Y62.2218
G01 X163.5788 Y60.6610
G01 X163.5716 Y59.0907
G01 X163.5652 Y57.5195
G01 X163.5599 Y55.9559
G01 X163.5556 Y54.4087
G01 X163.5525 Y52.8863
G01 X163.5508 Y51.3973
G01 X163.5505 Y49.9503
G03 X163.6601 Y39.5940 I271.3236 J-2.3077
G03 X163.7648 Y38.4889 I8.8089 J0.2769
G03 X164.5577 Y34.4873 I76.7464 J13.1282
G03 X204.4983 Y-2.3935 I47.7481 J11.6420
G03 X256.3236 Y24.4630 I7.7478 J48.4812
G01 X256.3373 Y24.4893
G03 X386.3940 Y5.8693 I109.0722 J298.3260
G03 X471.0367 Y23.1719 I-20.4792 J315.8653
G01 X471.0401 Y23.1701
G03 X515.3245 Y-2.9918 I43.3834 J22.8743
G03 X555.5761 Y19.3775 I-0.8530 J48.9343
G03 X561.9572 Y33.9255 I-41.0477 J26.6781
G03 X562.2347 Y35.1010 I-2.7421 J1.2679
G01 X562.2371 Y35.1189
G03 X562.4753 Y38.1100 I-23.5799 J3.3824
G03 X562.5742 Y53.3483 I-379.7851 J10.0832
G01 X562.5651 Y54.4038
G01 X562.5550 Y55.4608
G01 X562.5439 Y56.5167
G01 X562.5320 Y57.5689
G01 X562.5194 Y58.6148
G01 X562.5061 Y59.6517
G01 X562.4922 Y60.6770
G01 X562.4779 Y61.6882
G01 X562.4631 Y62.6827
G01 X562.4481 Y63.6577
G01 X562.4329 Y64.6107
G01 X562.4177 Y65.5392
G01 X562.4024 Y66.4404
G01 X562.3872 Y67.3117
G01 X562.3722 Y68.1506
G01 X562.3575 Y68.9543
G01 X562.3431 Y69.7204
G01 X562.3292 Y70.4462
G01 X562.3159 Y71.1290
G01 X562.3033 Y71.7662
G01 X562.2914 Y72.3553
G01 X562.2804 Y72.8935
G01 X562.2703 Y73.3783
G01 X562.2665 Y73.5567
G01 X562.2679 Y73.5568
G03 X628.5846 Y144.8124 I-198.2746 J251.0195
G00 Z0.0000
G03 X637.2382 Y158.2684 I-261.7922 J177.8690
G00 Z-17.5000
G01 Z-18.0000 F300
G03 X638.6560 Y160.6217 Z-19.0000 I-269.8374 J164.1752
G02 X637.2382 Y158.2684 Z-20.0000 I-271.2552 J161.8219
G03 X683.2167 Y317.3391 I-269.8374 J164.1752 F600
G03 X649.9746 Y464.5327 I-316.3557 J5.9050
G01 X655.0799 Y476.2732
G02 X663.9035 Y495.8331 I424.9872 J-179.9434
G02 X668.6833 Y504.8637 I103.4618 J-48.9819
G02 X671.5346 Y508.7950 I20.9836 J-12.2191
G02 X694.8260 Y523.6190 I36.1562 J-31.0987
G02 X709.6482 Y526.4637 I24.5055 J-87.6476
G02 X714.2281 Y526.9127 I15.7519 J-137.0866
G03 X716.9744 Y529.9020 I-0.2536 J2.9893
G01 Y547.9079
G03 X713.9744 Y550.9079 I-3.0000 J0.0000
G01 X655.5632
G00 Z5.0000
G00 X0.0000 Y0.0000


M05
M30
