(Project test-quadrato-cerchio)
(Created with Estlcam 12,155)
(Machining time about 00:22:15 hours)

(Required tools:)
(8mm straight)

G21
G90
G94
M03 S24000
G00 Z5.0000

(No. 1 Part machining: Part 4)
G00 X82.8328 Y23.4221 Z5.0000
G00 Z0.5000
G01 Z0.0000 F300 S24000
G03 X86.9068 Y24.0374 Z-1.5000 I-6.0213 J53.6622
G02 X82.8328 Y23.4221 Z-3.0000 I-10.0953 J53.0469
G03 X70.9186 Y130.7607 I-6.0213 J53.6622 F600
G03 X35.3317 Y111.6527 I5.8837 J-53.6506
G00 Z0.0000
G03 X26.3037 Y96.1776 I41.2438 J-34.4319
G03 X24.9943 Y92.2710 Z-1.5000 I50.4990 J-19.0997 F300
G02 X26.3037 Y96.1776 Z-3.0000 I51.8085 J-15.1931
G03 X64.9433 Y24.4063 I50.4990 J-19.0997 F600
G00 Z0.0000
G03 X82.8328 Y23.4221 I11.8615 J52.5252
G00 Z-2.5000
G01 Z-3.0000 F300
G03 X86.9068 Y24.0374 Z-4.5000 I-6.0213 J53.6622
G02 X82.8328 Y23.4221 Z-6.0000 I-10.0953 J53.0469
G03 X70.9186 Y130.7607 I-6.0213 J53.6622 F600
G03 X35.3317 Y111.6527 I5.8837 J-53.6506
G00 Z0.0000
G03 X26.3037 Y96.1776 I41.2438 J-34.4319
G00 Z-2.5000
G01 Z-3.0000 F300
G03 X24.9943 Y92.2710 Z-4.5000 I50.4990 J-19.0997
G02 X26.3037 Y96.1776 Z-6.0000 I51.8085 J-15.1931
G03 X64.9433 Y24.4063 I50.4990 J-19.0997 F600
G00 Z0.0000
G03 X82.8328 Y23.4221 I11.8615 J52.5252
G00 Z-5.5000
G01 Z-6.0000 F300
G03 X86.9068 Y24.0374 Z-7.5000 I-6.0213 J53.6622
G02 X82.8328 Y23.4221 Z-9.0000 I-10.0953 J53.0469
G03 X70.9186 Y130.7607 I-6.0213 J53.6622 F600
G03 X35.3317 Y111.6527 I5.8837 J-53.6506
G00 Z0.0000
G03 X26.3037 Y96.1776 I41.2438 J-34.4319
G00 Z-5.5000
G01 Z-6.0000 F300
G03 X24.9943 Y92.2710 Z-7.5000 I50.4990 J-19.0997
G02 X26.3037 Y96.1776 Z-9.0000 I51.8085 J-15.1931
G03 X64.9433 Y24.4063 I50.4990 J-19.0997 F600
G00 Z0.0000
G03 X82.8328 Y23.4221 I11.8615 J52.5252
G00 Z-8.5000
G01 Z-9.0000 F300
G03 X86.9068 Y24.0374 Z-10.5000 I-6.0213 J53.6622
G02 X82.8328 Y23.4221 Z-12.0000 I-10.0953 J53.0469
G03 X70.9186 Y130.7607 I-6.0213 J53.6622 F600
G03 X35.3317 Y111.6527 I5.8837 J-53.6506
G00 Z0.0000
G03 X26.3037 Y96.1776 I41.2438 J-34.4319
G00 Z-8.5000
G01 Z-9.0000 F300
G03 X24.9943 Y92.2710 Z-10.5000 I50.4990 J-19.0997
G02 X26.3037 Y96.1776 Z-12.0000 I51.8085 J-15.1931
G03 X64.9433 Y24.4063 I50.4990 J-19.0997 F600
G00 Z0.0000
G03 X82.8328 Y23.4221 I11.8615 J52.5252
G00 Z-11.5000
G01 Z-12.0000 F300
G03 X86.9068 Y24.0374 Z-13.5000 I-6.0213 J53.6622
G02 X82.8328 Y23.4221 Z-15.0000 I-10.0953 J53.0469
G03 X70.9186 Y130.7607 I-6.0213 J53.6622 F600
G03 X35.3317 Y111.6527 I5.8837 J-53.6506
G00 Z0.0000
G03 X26.3037 Y96.1776 I41.2438 J-34.4319
G00 Z-11.5000
G01 Z-12.0000 F300
G03 X24.9943 Y92.2710 Z-13.5000 I50.4990 J-19.0997
G02 X26.3037 Y96.1776 Z-15.0000 I51.8085 J-15.1931
G03 X64.9433 Y24.4063 I50.4990 J-19.0997 F600
G00 Z0.0000
G03 X82.8328 Y23.4221 I11.8615 J52.5252
G00 Z-14.5000
G01 Z-15.0000 F300
G03 X86.9068 Y24.0374 Z-16.5000 I-6.0213 J53.6622
G02 X82.8328 Y23.4221 Z-18.0000 I-10.0953 J53.0469
G03 X70.9186 Y130.7607 I-6.0213 J53.6622 F600
G03 X35.3317 Y111.6527 I5.8837 J-53.6506
G00 Z0.0000
G03 X26.3037 Y96.1776 I41.2438 J-34.4319
G00 Z-14.5000
G01 Z-15.0000 F300
G03 X24.9943 Y92.2710 Z-16.5000 I50.4990 J-19.0997
G02 X26.3037 Y96.1776 Z-18.0000 I51.8085 J-15.1931
G03 X64.9433 Y24.4063 I50.4990 J-19.0997 F600
G00 Z0.0000
G03 X82.8328 Y23.4221 I11.8615 J52.5252
G00 Z-17.5000
G01 Z-18.0000 F300
G03 X85.5542 Y23.7978 Z-19.0000 I-6.0213 J53.6622
G02 X82.8328 Y23.4221 Z-20.0000 I-8.7426 J53.2865
G03 X70.9186 Y130.7607 I-6.0213 J53.6622 F600
G03 X35.3317 Y111.6527 I5.8837 J-53.6506
G00 Z0.0000
G03 X26.3037 Y96.1776 I41.2438 J-34.4319
G00 Z-17.5000
G01 Z-18.0000 F300
G03 X25.3976 Y93.5842 Z-19.0000 I50.4990 J-19.0997
G02 X26.3037 Y96.1776 Z-20.0000 I51.4052 J-16.5062
G03 X64.9433 Y24.4063 I50.4990 J-19.0997 F600
G00 Z5.0000

(No. 2 Part machining: Part 3)
G00 X247.4106 Y78.6147 Z5.0000
G00 Z0.5000
G01 Z0.0000 F300
G01 Y82.7360 Z-1.5000
G01 Y78.6147 Z-3.0000
G01 Y124.3623 F600
G03 X243.4106 Y128.3623 I-4.0000 J0.0000
G01 X143.4106
G03 X139.4106 Y124.3623 I0.0000 J-4.0000
G01 Y24.3623
G03 X143.4106 Y20.3623 I4.0000 J0.0000
G01 X243.4106
G03 X247.4106 Y24.3623 I0.0000 J4.0000
G01 Y60.6147
G00 Z0.0000
G01 Y78.6147
G00 Z-2.5000
G01 Z-3.0000 F300
G01 Y82.7360 Z-4.5000
G01 Y78.6147 Z-6.0000
G01 Y124.3623 F600
G03 X243.4106 Y128.3623 I-4.0000 J0.0000
G01 X143.4106
G03 X139.4106 Y124.3623 I0.0000 J-4.0000
G01 Y24.3623
G03 X143.4106 Y20.3623 I4.0000 J0.0000
G01 X243.4106
G03 X247.4106 Y24.3623 I0.0000 J4.0000
G01 Y60.6147
G00 Z0.0000
G01 Y78.6147
G00 Z-5.5000
G01 Z-6.0000 F300
G01 Y82.7360 Z-7.5000
G01 Y78.6147 Z-9.0000
G01 Y124.3623 F600
G03 X243.4106 Y128.3623 I-4.0000 J0.0000
G01 X143.4106
G03 X139.4106 Y124.3623 I0.0000 J-4.0000
G01 Y24.3623
G03 X143.4106 Y20.3623 I4.0000 J0.0000
G01 X243.4106
G03 X247.4106 Y24.3623 I0.0000 J4.0000
G01 Y60.6147
G00 Z0.0000
G01 Y78.6147
G00 Z-8.5000
G01 Z-9.0000 F300
G01 Y82.7360 Z-10.5000
G01 Y78.6147 Z-12.0000
G01 Y124.3623 F600
G03 X243.4106 Y128.3623 I-4.0000 J0.0000
G01 X143.4106
G03 X139.4106 Y124.3623 I0.0000 J-4.0000
G01 Y24.3623
G03 X143.4106 Y20.3623 I4.0000 J0.0000
G01 X243.4106
G03 X247.4106 Y24.3623 I0.0000 J4.0000
G01 Y60.6147
G00 Z0.0000
G01 Y78.6147
G00 Z-11.5000
G01 Z-12.0000 F300
G01 Y82.7360 Z-13.5000
G01 Y78.6147 Z-15.0000
G01 Y124.3623 F600
G03 X243.4106 Y128.3623 I-4.0000 J0.0000
G01 X143.4106
G03 X139.4106 Y124.3623 I0.0000 J-4.0000
G01 Y24.3623
G03 X143.4106 Y20.3623 I4.0000 J0.0000
G01 X243.4106
G03 X247.4106 Y24.3623 I0.0000 J4.0000
G01 Y60.6147
G00 Z0.0000
G01 Y78.6147
G00 Z-14.5000
G01 Z-15.0000 F300
G01 Y82.7360 Z-16.5000
G01 Y78.6147 Z-18.0000
G01 Y124.3623 F600
G03 X243.4106 Y128.3623 I-4.0000 J0.0000
G01 X143.4106
G03 X139.4106 Y124.3623 I0.0000 J-4.0000
G01 Y24.3623
G03 X143.4106 Y20.3623 I4.0000 J0.0000
G01 X243.4106
G03 X247.4106 Y24.3623 I0.0000 J4.0000
G01 Y60.6147
G00 Z0.0000
G01 Y78.6147
G00 Z-17.5000
G01 Z-18.0000 F300
G01 Y81.3622 Z-19.0000
G01 Y78.6147 Z-20.0000
G01 Y124.3623 F600
G03 X243.4106 Y128.3623 I-4.0000 J0.0000
G01 X143.4106
G03 X139.4106 Y124.3623 I0.0000 J-4.0000
G01 Y24.3623
G03 X143.4106 Y20.3623 I4.0000 J0.0000
G01 X243.4106
G03 X247.4106 Y24.3623 I0.0000 J4.0000
G01 Y60.6147
G00 Z5.0000

(No. 3 Part machining: Part 2)
G00 X246.6968 Y205.7202 Z5.0000
G00 Z0.5000
G01 Z0.0000 F300
G03 X245.6957 Y209.7170 Z-1.5000 I-52.8421 J-11.1116
G02 X246.6968 Y205.7202 Z-3.0000 I-51.8411 J-15.1084
G03 X140.8350 Y184.3779 I-52.8421 J-11.1116 F600
G03 X247.4244 Y187.8191 I53.0201 J10.2268
G00 Z0.0000
G03 X246.6968 Y205.7202 I-53.2952 J6.7991
G00 Z-2.5000
G01 Z-3.0000 F300
G03 X245.6957 Y209.7170 Z-4.5000 I-52.8421 J-11.1116
G02 X246.6968 Y205.7202 Z-6.0000 I-51.8411 J-15.1084
G03 X140.8350 Y184.3779 I-52.8421 J-11.1116 F600
G03 X247.4244 Y187.8191 I53.0201 J10.2268
G00 Z0.0000
G03 X246.6968 Y205.7202 I-53.2952 J6.7991
G00 Z-5.5000
G01 Z-6.0000 F300
G03 X245.6957 Y209.7170 Z-7.5000 I-52.8421 J-11.1116
G02 X246.6968 Y205.7202 Z-9.0000 I-51.8411 J-15.1084
G03 X140.8350 Y184.3779 I-52.8421 J-11.1116 F600
G03 X247.4244 Y187.8191 I53.0201 J10.2268
G00 Z0.0000
G03 X246.6968 Y205.7202 I-53.2952 J6.7991
G00 Z-8.5000
G01 Z-9.0000 F300
G03 X245.6957 Y209.7170 Z-10.5000 I-52.8421 J-11.1116
G02 X246.6968 Y205.7202 Z-12.0000 I-51.8411 J-15.1084
G03 X140.8350 Y184.3779 I-52.8421 J-11.1116 F600
G03 X247.4244 Y187.8191 I53.0201 J10.2268
G00 Z0.0000
G03 X246.6968 Y205.7202 I-53.2952 J6.7991
G00 Z-11.5000
G01 Z-12.0000 F300
G03 X245.6957 Y209.7170 Z-13.5000 I-52.8421 J-11.1116
G02 X246.6968 Y205.7202 Z-15.0000 I-51.8411 J-15.1084
G03 X140.8350 Y184.3779 I-52.8421 J-11.1116 F600
G03 X247.4244 Y187.8191 I53.0201 J10.2268
G00 Z0.0000
G03 X246.6968 Y205.7202 I-53.2952 J6.7991
G00 Z-14.5000
G01 Z-15.0000 F300
G03 X245.6957 Y209.7170 Z-16.5000 I-52.8421 J-11.1116
G02 X246.6968 Y205.7202 Z-18.0000 I-51.8411 J-15.1084
G03 X140.8350 Y184.3779 I-52.8421 J-11.1116 F600
G03 X247.4244 Y187.8191 I53.0201 J10.2268
G00 Z0.0000
G03 X246.6968 Y205.7202 I-53.2952 J6.7991
G00 Z-17.5000
G01 Z-18.0000 F300
G03 X246.0633 Y208.3934 Z-19.0000 I-52.8421 J-11.1116
G02 X246.6968 Y205.7202 Z-20.0000 I-52.2086 J-13.7847
G03 X140.8350 Y184.3779 I-52.8421 J-11.1116 F600
G03 X247.4244 Y187.8191 I53.0201 J10.2268
G00 Z5.0000

(No. 4 Part machining: Part 1)
G00 X21.1125 Y184.8602 Z5.0000
G00 Z0.5000
G01 Z0.0000 F300
G01 Y180.7390 Z-1.5000
G01 Y184.8602 Z-3.0000
G01 Y143.8602 F600
G03 X25.1125 Y139.8602 I4.0000 J0.0000
G01 X125.1125
G03 X129.1125 Y143.8602 I0.0000 J4.0000
G01 Y243.8602
G03 X125.1125 Y247.8602 I-4.0000 J0.0000
G01 X25.1125
G03 X21.1125 Y243.8602 I0.0000 J-4.0000
G01 Y202.8602
G00 Z0.0000
G01 Y184.8602
G00 Z-2.5000
G01 Z-3.0000 F300
G01 Y180.7390 Z-4.5000
G01 Y184.8602 Z-6.0000
G01 Y143.8602 F600
G03 X25.1125 Y139.8602 I4.0000 J0.0000
G01 X125.1125
G03 X129.1125 Y143.8602 I0.0000 J4.0000
G01 Y243.8602
G03 X125.1125 Y247.8602 I-4.0000 J0.0000
G01 X25.1125
G03 X21.1125 Y243.8602 I0.0000 J-4.0000
G01 Y202.8602
G00 Z0.0000
G01 Y184.8602
G00 Z-5.5000
G01 Z-6.0000 F300
G01 Y180.7390 Z-7.5000
G01 Y184.8602 Z-9.0000
G01 Y143.8602 F600
G03 X25.1125 Y139.8602 I4.0000 J0.0000
G01 X125.1125
G03 X129.1125 Y143.8602 I0.0000 J4.0000
G01 Y243.8602
G03 X125.1125 Y247.8602 I-4.0000 J0.0000
G01 X25.1125
G03 X21.1125 Y243.8602 I0.0000 J-4.0000
G01 Y202.8602
G00 Z0.0000
G01 Y184.8602
G00 Z-8.5000
G01 Z-9.0000 F300
G01 Y180.7390 Z-10.5000
G01 Y184.8602 Z-12.0000
G01 Y143.8602 F600
G03 X25.1125 Y139.8602 I4.0000 J0.0000
G01 X125.1125
G03 X129.1125 Y143.8602 I0.0000 J4.0000
G01 Y243.8602
G03 X125.1125 Y247.8602 I-4.0000 J0.0000
G01 X25.1125
G03 X21.1125 Y243.8602 I0.0000 J-4.0000
G01 Y202.8602
G00 Z0.0000
G01 Y184.8602
G00 Z-11.5000
G01 Z-12.0000 F300
G01 Y180.7390 Z-13.5000
G01 Y184.8602 Z-15.0000
G01 Y143.8602 F600
G03 X25.1125 Y139.8602 I4.0000 J0.0000
G01 X125.1125
G03 X129.1125 Y143.8602 I0.0000 J4.0000
G01 Y243.8602
G03 X125.1125 Y247.8602 I-4.0000 J0.0000
G01 X25.1125
G03 X21.1125 Y243.8602 I0.0000 J-4.0000
G01 Y202.8602
G00 Z0.0000
G01 Y184.8602
G00 Z-14.5000
G01 Z-15.0000 F300
G01 Y180.7390 Z-16.5000
G01 Y184.8602 Z-18.0000
G01 Y143.8602 F600
G03 X25.1125 Y139.8602 I4.0000 J0.0000
G01 X125.1125
G03 X129.1125 Y143.8602 I0.0000 J4.0000
G01 Y243.8602
G03 X125.1125 Y247.8602 I-4.0000 J0.0000
G01 X25.1125
G03 X21.1125 Y243.8602 I0.0000 J-4.0000
G01 Y202.8602
G00 Z0.0000
G01 Y184.8602
G00 Z-17.5000
G01 Z-18.0000 F300
G01 Y182.1127 Z-19.0000
G01 Y184.8602 Z-20.0000
G01 Y143.8602 F600
G03 X25.1125 Y139.8602 I4.0000 J0.0000
G01 X125.1125
G03 X129.1125 Y143.8602 I0.0000 J4.0000
G01 Y243.8602
G03 X125.1125 Y247.8602 I-4.0000 J0.0000
G01 X25.1125
G03 X21.1125 Y243.8602 I0.0000 J-4.0000
G01 Y202.8602
G00 Z5.0000
G00 X0.0000 Y0.0000


M05
M30
