(Project maniglia-piano-pc)
(Created with Estlcam 12.155)
(Machining time about 00:04:51 hours)

(Required tools:)
(6mm spiral)

G21
G90
G94
M03 S24000
G00 Z5.0000

(No. 1 Part machining: Part 1)
G00 X82.3413 Y-3.0000 Z5.0000
G00 Z0.5000
G01 Z0.0000 F300 S24000
G01 X86.4626 Z-1.5000
G01 X82.3413 Z-3.0000
G01 X135.0000 F600
G03 X153.0000 Y15.0000 I0.0000 J18.0000
G01 Y39.0000
G03 X135.0000 Y57.0000 I-18.0000 J0.0000
G01 X15.0000
G03 X-3.0000 Y39.0000 I0.0000 J-18.0000
G01 Y15.0000
G03 X15.0000 Y-3.0000 I18.0000 J0.0000
G01 X66.3413
G01 X82.3413
G01 X86.4626 Z-4.5000 F300
G01 X82.3413 Z-6.0000
G01 X135.0000 F600
G03 X153.0000 Y15.0000 I0.0000 J18.0000
G01 Y39.0000
G03 X135.0000 Y57.0000 I-18.0000 J0.0000
G01 X15.0000
G03 X-3.0000 Y39.0000 I0.0000 J-18.0000
G01 Y15.0000
G03 X15.0000 Y-3.0000 I18.0000 J0.0000
G01 X66.3413
G01 X82.3413
G01 X86.4626 Z-7.5000 F300
G01 X82.3413 Z-9.0000
G01 X135.0000 F600
G03 X153.0000 Y15.0000 I0.0000 J18.0000
G01 Y39.0000
G03 X135.0000 Y57.0000 I-18.0000 J0.0000
G01 X15.0000
G03 X-3.0000 Y39.0000 I0.0000 J-18.0000
G01 Y15.0000
G03 X15.0000 Y-3.0000 I18.0000 J0.0000
G01 X66.3413
G01 X82.3413
G01 X86.4626 Z-10.5000 F300
G01 X82.3413 Z-12.0000
G01 X135.0000 F600
G03 X153.0000 Y15.0000 I0.0000 J18.0000
G01 Y39.0000
G03 X135.0000 Y57.0000 I-18.0000 J0.0000
G01 X15.0000
G03 X-3.0000 Y39.0000 I0.0000 J-18.0000
G01 Y15.0000
G03 X15.0000 Y-3.0000 I18.0000 J0.0000
G01 X66.3413
G01 X82.3413
G01 X86.4626 Z-13.5000 F300
G01 X82.3413 Z-15.0000
G01 X135.0000 F600
G03 X153.0000 Y15.0000 I0.0000 J18.0000
G01 Y39.0000
G03 X135.0000 Y57.0000 I-18.0000 J0.0000
G01 X15.0000
G03 X-3.0000 Y39.0000 I0.0000 J-18.0000
G01 Y15.0000
G03 X15.0000 Y-3.0000 I18.0000 J0.0000
G01 X66.3413
G00 Z-13.0000
G01 X82.3413
G00 Z-14.5000
G01 Z-15.0000 F300
G01 X86.4626 Z-16.5000
G01 X82.3413 Z-18.0000
G01 X135.0000 F600
G03 X153.0000 Y15.0000 I0.0000 J18.0000
G01 Y39.0000
G03 X135.0000 Y57.0000 I-18.0000 J0.0000
G01 X15.0000
G03 X-3.0000 Y39.0000 I0.0000 J-18.0000
G01 Y15.0000
G03 X15.0000 Y-3.0000 I18.0000 J0.0000
G01 X66.3413
G00 Z-13.0000
G01 X82.3413
G00 Z5.0000
G00 X0.0000 Y0.0000


M05
M30
