(Project piano-pc)
(Created with Estlcam 12.155)
(Machining time about 06:19:40 hours)

(Required tools:)
(6mm spiral)

G21
G90
G94
M03 S24000
G00 Z5.0000

(No. 1 Pocketing linear: Pocket 1)
G00 X229.0000 Y31.1802
G00 Z0.5000
G01 Z0.0000 F300 S24000
G01 Y35.3014 Z-1.5000
G01 Y31.1802 Z-3.0000
G01 Y348.8198 F600
G03 X224.5000 Y353.5472 I-13.8894 J-8.7158
G01 Y26.4528
G02 X220.0000 Y24.2261 I-9.4095 J13.3553
G01 Y355.7739
G03 X215.5000 Y356.5395 I-4.9621 J-15.5588
G01 Y23.4605
G01 X214.9661 Y23.4500
G01 X211.0000
G01 Y356.5500
G01 X206.5000
G01 Y23.4500
G01 X202.0000
G01 Y356.5500
G01 X197.5000
G01 Y23.4500
G01 X193.0000
G01 Y356.5500
G01 X188.5000
G01 Y23.4500
G01 X184.0000
G01 Y356.5500
G01 X179.5000
G01 Y23.4500
G01 X175.0000
G01 Y356.5500
G01 X170.5000
G01 Y23.4500
G01 X166.0000
G01 Y356.5500
G01 X161.5000
G01 Y23.4500
G01 X157.0000
G01 Y356.5500
G01 X152.5000
G01 Y23.4500
G01 X148.0000
G01 Y356.5500
G01 X143.5000
G01 Y23.4500
G01 X139.0000
G01 Y356.5500
G01 X134.5000
G01 Y23.4500
G01 X130.0000
G01 Y356.5500
G01 X125.5000
G01 Y23.4500
G01 X121.0000
G01 Y356.5500
G01 X116.5000
G01 Y23.4500
G01 X112.0000
G01 Y356.5500
G01 X107.5000
G01 Y23.4500
G01 X103.0000
G01 Y356.5500
G01 X98.5000
G01 Y23.4500
G01 X94.0000
G01 Y356.5500
G01 X89.5000
G01 Y23.4500
G01 X85.0000
G01 Y356.5500
G01 X80.5000
G01 Y23.4500
G01 X76.0000
G01 Y356.5500
G01 X71.5000
G01 Y23.4500
G01 X67.0000
G01 Y356.5500
G01 X62.5000
G01 Y23.4500
G01 X58.0000
G01 Y356.5500
G01 X53.5000
G01 Y23.4500
G01 X49.0000
G01 Y356.5500
G01 X45.0339
G01 X44.5000 Y356.5395
G01 Y23.4605
G02 X40.0000 Y24.2261 I0.4621 J16.3243
G01 Y355.7739
G03 X35.5000 Y353.5472 I4.9060 J-15.5751
G01 Y26.4528
G02 X31.0000 Y31.1802 I9.3919 J13.4456
G01 Y348.8198
G01 X30.6210 Y349.0624
G02 X45.0295 Y357.0000 I14.3782 J-9.0536
G01 X214.9705
G02 X232.0000 Y339.9705 I0.0280 J-17.0015
G01 Y40.0295
G02 X214.9705 Y23.0000 I-17.0015 J-0.0280
G01 X45.0295
G02 X28.0000 Y40.0295 I-0.0280 J17.0015
G01 Y339.9705
G02 X30.6210 Y349.0624 I16.9654 J0.0330
G01 X31.0000 Y348.8198
G01 Y344.6986 Z-4.5000 F300
G01 Y348.8198 Z-6.0000
G01 Y31.1802 F600
G03 X35.5000 Y26.4528 I13.8894 J8.7158
G01 Y353.5472
G02 X40.0000 Y355.7739 I9.4095 J-13.3553
G01 Y24.2261
G03 X44.5000 Y23.4605 I4.9621 J15.5588
G01 Y356.5395
G01 X45.0339 Y356.5500
G01 X49.0000
G01 Y23.4500
G01 X53.5000
G01 Y356.5500
G01 X58.0000
G01 Y23.4500
G01 X62.5000
G01 Y356.5500
G01 X67.0000
G01 Y23.4500
G01 X71.5000
G01 Y356.5500
G01 X76.0000
G01 Y23.4500
G01 X80.5000
G01 Y356.5500
G01 X85.0000
G01 Y23.4500
G01 X89.5000
G01 Y356.5500
G01 X94.0000
G01 Y23.4500
G01 X98.5000
G01 Y356.5500
G01 X103.0000
G01 Y23.4500
G01 X107.5000
G01 Y356.5500
G01 X112.0000
G01 Y23.4500
G01 X116.5000
G01 Y356.5500
G01 X121.0000
G01 Y23.4500
G01 X125.5000
G01 Y356.5500
G01 X130.0000
G01 Y23.4500
G01 X134.5000
G01 Y356.5500
G01 X139.0000
G01 Y23.4500
G01 X143.5000
G01 Y356.5500
G01 X148.0000
G01 Y23.4500
G01 X152.5000
G01 Y356.5500
G01 X157.0000
G01 Y23.4500
G01 X161.5000
G01 Y356.5500
G01 X166.0000
G01 Y23.4500
G01 X170.5000
G01 Y356.5500
G01 X175.0000
G01 Y23.4500
G01 X179.5000
G01 Y356.5500
G01 X184.0000
G01 Y23.4500
G01 X188.5000
G01 Y356.5500
G01 X193.0000
G01 Y23.4500
G01 X197.5000
G01 Y356.5500
G01 X202.0000
G01 Y23.4500
G01 X206.5000
G01 Y356.5500
G01 X211.0000
G01 Y23.4500
G01 X214.9661
G01 X215.5000 Y23.4605
G01 Y356.5395
G02 X220.0000 Y355.7739 I-0.4621 J-16.3243
G01 Y24.2261
G03 X224.5000 Y26.4528 I-4.9060 J15.5751
G01 Y353.5472
G02 X229.0000 Y348.8198 I-9.3919 J-13.4456
G01 Y31.1802
G01 X229.3790 Y30.9376
G02 X214.9705 Y23.0000 I-14.3782 J9.0536
G01 X45.0295
G02 X28.0000 Y40.0295 I-0.0280 J17.0015
G01 Y339.9705
G02 X45.0295 Y357.0000 I17.0015 J0.0280
G01 X214.9705
G02 X232.0000 Y339.9705 I0.0280 J-17.0015
G01 Y40.0295
G02 X229.3790 Y30.9376 I-16.9654 J-0.0330
G01 X229.0000 Y31.1802
G01 Y35.3014 Z-7.5000 F300
G01 Y31.1802 Z-9.0000
G01 Y348.8198 F600
G03 X224.5000 Y353.5472 I-13.8894 J-8.7158
G01 Y26.4528
G02 X220.0000 Y24.2261 I-9.4095 J13.3553
G01 Y355.7739
G03 X215.5000 Y356.5395 I-4.9621 J-15.5588
G01 Y23.4605
G01 X214.9661 Y23.4500
G01 X211.0000
G01 Y356.5500
G01 X206.5000
G01 Y23.4500
G01 X202.0000
G01 Y356.5500
G01 X197.5000
G01 Y23.4500
G01 X193.0000
G01 Y356.5500
G01 X188.5000
G01 Y23.4500
G01 X184.0000
G01 Y356.5500
G01 X179.5000
G01 Y23.4500
G01 X175.0000
G01 Y356.5500
G01 X170.5000
G01 Y23.4500
G01 X166.0000
G01 Y356.5500
G01 X161.5000
G01 Y23.4500
G01 X157.0000
G01 Y356.5500
G01 X152.5000
G01 Y23.4500
G01 X148.0000
G01 Y356.5500
G01 X143.5000
G01 Y23.4500
G01 X139.0000
G01 Y356.5500
G01 X134.5000
G01 Y23.4500
G01 X130.0000
G01 Y356.5500
G01 X125.5000
G01 Y23.4500
G01 X121.0000
G01 Y356.5500
G01 X116.5000
G01 Y23.4500
G01 X112.0000
G01 Y356.5500
G01 X107.5000
G01 Y23.4500
G01 X103.0000
G01 Y356.5500
G01 X98.5000
G01 Y23.4500
G01 X94.0000
G01 Y356.5500
G01 X89.5000
G01 Y23.4500
G01 X85.0000
G01 Y356.5500
G01 X80.5000
G01 Y23.4500
G01 X76.0000
G01 Y356.5500
G01 X71.5000
G01 Y23.4500
G01 X67.0000
G01 Y356.5500
G01 X62.5000
G01 Y23.4500
G01 X58.0000
G01 Y356.5500
G01 X53.5000
G01 Y23.4500
G01 X49.0000
G01 Y356.5500
G01 X45.0339
G01 X44.5000 Y356.5395
G01 Y23.4605
G02 X40.0000 Y24.2261 I0.4621 J16.3243
G01 Y355.7739
G03 X35.5000 Y353.5472 I4.9060 J-15.5751
G01 Y26.4528
G02 X31.0000 Y31.1802 I9.3919 J13.4456
G01 Y348.8198
G01 X30.6210 Y349.0624
G02 X45.0295 Y357.0000 I14.3782 J-9.0536
G01 X214.9705
G02 X232.0000 Y339.9705 I0.0280 J-17.0015
G01 Y40.0295
G02 X214.9705 Y23.0000 I-17.0015 J-0.0280
G01 X45.0295
G02 X28.0000 Y40.0295 I-0.0280 J17.0015
G01 Y339.9705
G02 X30.6210 Y349.0624 I16.9654 J0.0330
G01 X31.0000 Y348.8198
G01 Y344.6986 Z-10.5000 F300
G01 Y348.8198 Z-12.0000
G01 Y31.1802 F600
G03 X35.5000 Y26.4528 I13.8894 J8.7158
G01 Y353.5472
G02 X40.0000 Y355.7739 I9.4095 J-13.3553
G01 Y24.2261
G03 X44.5000 Y23.4605 I4.9621 J15.5588
G01 Y356.5395
G01 X45.0339 Y356.5500
G01 X49.0000
G01 Y23.4500
G01 X53.5000
G01 Y356.5500
G01 X58.0000
G01 Y23.4500
G01 X62.5000
G01 Y356.5500
G01 X67.0000
G01 Y23.4500
G01 X71.5000
G01 Y356.5500
G01 X76.0000
G01 Y23.4500
G01 X80.5000
G01 Y356.5500
G01 X85.0000
G01 Y23.4500
G01 X89.5000
G01 Y356.5500
G01 X94.0000
G01 Y23.4500
G01 X98.5000
G01 Y356.5500
G01 X103.0000
G01 Y23.4500
G01 X107.5000
G01 Y356.5500
G01 X112.0000
G01 Y23.4500
G01 X116.5000
G01 Y356.5500
G01 X121.0000
G01 Y23.4500
G01 X125.5000
G01 Y356.5500
G01 X130.0000
G01 Y23.4500
G01 X134.5000
G01 Y356.5500
G01 X139.0000
G01 Y23.4500
G01 X143.5000
G01 Y356.5500
G01 X148.0000
G01 Y23.4500
G01 X152.5000
G01 Y356.5500
G01 X157.0000
G01 Y23.4500
G01 X161.5000
G01 Y356.5500
G01 X166.0000
G01 Y23.4500
G01 X170.5000
G01 Y356.5500
G01 X175.0000
G01 Y23.4500
G01 X179.5000
G01 Y356.5500
G01 X184.0000
G01 Y23.4500
G01 X188.5000
G01 Y356.5500
G01 X193.0000
G01 Y23.4500
G01 X197.5000
G01 Y356.5500
G01 X202.0000
G01 Y23.4500
G01 X206.5000
G01 Y356.5500
G01 X211.0000
G01 Y23.4500
G01 X214.9661
G01 X215.5000 Y23.4605
G01 Y356.5395
G02 X220.0000 Y355.7739 I-0.4621 J-16.3243
G01 Y24.2261
G03 X224.5000 Y26.4528 I-4.9060 J15.5751
G01 Y353.5472
G02 X229.0000 Y348.8198 I-9.3919 J-13.4456
G01 Y31.1802
G01 X229.3790 Y30.9376
G02 X214.9705 Y23.0000 I-14.3782 J9.0536
G01 X45.0295
G02 X28.0000 Y40.0295 I-0.0280 J17.0015
G01 Y339.9705
G02 X45.0295 Y357.0000 I17.0015 J0.0280
G01 X214.9705
G02 X232.0000 Y339.9705 I0.0280 J-17.0015
G01 Y40.0295
G02 X229.3790 Y30.9376 I-16.9654 J-0.0330
G01 X229.0000 Y31.1802
G01 Y35.3014 Z-13.5000 F300
G01 Y31.1802 Z-15.0000
G01 Y348.8198 F600
G03 X224.5000 Y353.5472 I-13.8894 J-8.7158
G01 Y26.4528
G02 X220.0000 Y24.2261 I-9.4095 J13.3553
G01 Y355.7739
G03 X215.5000 Y356.5395 I-4.9621 J-15.5588
G01 Y23.4605
G01 X214.9661 Y23.4500
G01 X211.0000
G01 Y356.5500
G01 X206.5000
G01 Y23.4500
G01 X202.0000
G01 Y356.5500
G01 X197.5000
G01 Y23.4500
G01 X193.0000
G01 Y356.5500
G01 X188.5000
G01 Y23.4500
G01 X184.0000
G01 Y356.5500
G01 X179.5000
G01 Y23.4500
G01 X175.0000
G01 Y356.5500
G01 X170.5000
G01 Y23.4500
G01 X166.0000
G01 Y356.5500
G01 X161.5000
G01 Y23.4500
G01 X157.0000
G01 Y356.5500
G01 X152.5000
G01 Y23.4500
G01 X148.0000
G01 Y356.5500
G01 X143.5000
G01 Y23.4500
G01 X139.0000
G01 Y356.5500
G01 X134.5000
G01 Y23.4500
G01 X130.0000
G01 Y356.5500
G01 X125.5000
G01 Y23.4500
G01 X121.0000
G01 Y356.5500
G01 X116.5000
G01 Y23.4500
G01 X112.0000
G01 Y356.5500
G01 X107.5000
G01 Y23.4500
G01 X103.0000
G01 Y356.5500
G01 X98.5000
G01 Y23.4500
G01 X94.0000
G01 Y356.5500
G01 X89.5000
G01 Y23.4500
G01 X85.0000
G01 Y356.5500
G01 X80.5000
G01 Y23.4500
G01 X76.0000
G01 Y356.5500
G01 X71.5000
G01 Y23.4500
G01 X67.0000
G01 Y356.5500
G01 X62.5000
G01 Y23.4500
G01 X58.0000
G01 Y356.5500
G01 X53.5000
G01 Y23.4500
G01 X49.0000
G01 Y356.5500
G01 X45.0339
G01 X44.5000 Y356.5395
G01 Y23.4605
G02 X40.0000 Y24.2261 I0.4621 J16.3243
G01 Y355.7739
G03 X35.5000 Y353.5472 I4.9060 J-15.5751
G01 Y26.4528
G02 X31.0000 Y31.1802 I9.3919 J13.4456
G01 Y348.8198
G01 X30.6210 Y349.0624
G02 X45.0295 Y357.0000 I14.3782 J-9.0536
G01 X214.9705
G02 X232.0000 Y339.9705 I0.0280 J-17.0015
G01 Y40.0295
G02 X214.9705 Y23.0000 I-17.0015 J-0.0280
G01 X45.0295
G02 X28.0000 Y40.0295 I-0.0280 J17.0015
G01 Y339.9705
G02 X30.6210 Y349.0624 I16.9654 J0.0330
G01 X31.0000 Y348.8198
G01 Y344.6986 Z-16.5000 F300
G01 Y348.8198 Z-18.0000
G01 Y31.1802 F600
G03 X35.5000 Y26.4528 I13.8894 J8.7158
G01 Y353.5472
G02 X40.0000 Y355.7739 I9.4095 J-13.3553
G01 Y24.2261
G03 X44.5000 Y23.4605 I4.9621 J15.5588
G01 Y356.5395
G01 X45.0339 Y356.5500
G01 X49.0000
G01 Y23.4500
G01 X53.5000
G01 Y356.5500
G01 X58.0000
G01 Y23.4500
G01 X62.5000
G01 Y356.5500
G01 X67.0000
G01 Y23.4500
G01 X71.5000
G01 Y356.5500
G01 X76.0000
G01 Y23.4500
G01 X80.5000
G01 Y356.5500
G01 X85.0000
G01 Y23.4500
G01 X89.5000
G01 Y356.5500
G01 X94.0000
G01 Y23.4500
G01 X98.5000
G01 Y356.5500
G01 X103.0000
G01 Y23.4500
G01 X107.5000
G01 Y356.5500
G01 X112.0000
G01 Y23.4500
G01 X116.5000
G01 Y356.5500
G01 X121.0000
G01 Y23.4500
G01 X125.5000
G01 Y356.5500
G01 X130.0000
G01 Y23.4500
G01 X134.5000
G01 Y356.5500
G01 X139.0000
G01 Y23.4500
G01 X143.5000
G01 Y356.5500
G01 X148.0000
G01 Y23.4500
G01 X152.5000
G01 Y356.5500
G01 X157.0000
G01 Y23.4500
G01 X161.5000
G01 Y356.5500
G01 X166.0000
G01 Y23.4500
G01 X170.5000
G01 Y356.5500
G01 X175.0000
G01 Y23.4500
G01 X179.5000
G01 Y356.5500
G01 X184.0000
G01 Y23.4500
G01 X188.5000
G01 Y356.5500
G01 X193.0000
G01 Y23.4500
G01 X197.5000
G01 Y356.5500
G01 X202.0000
G01 Y23.4500
G01 X206.5000
G01 Y356.5500
G01 X211.0000
G01 Y23.4500
G01 X214.9661
G01 X215.5000 Y23.4605
G01 Y356.5395
G02 X220.0000 Y355.7739 I-0.4621 J-16.3243
G01 Y24.2261
G03 X224.5000 Y26.4528 I-4.9060 J15.5751
G01 Y353.5472
G02 X229.0000 Y348.8198 I-9.3919 J-13.4456
G01 Y31.1802
G01 X229.3790 Y30.9376
G02 X214.9705 Y23.0000 I-14.3782 J9.0536
G01 X45.0295
G02 X28.0000 Y40.0295 I-0.0280 J17.0015
G01 Y339.9705
G02 X45.0295 Y357.0000 I17.0015 J0.0280
G01 X214.9705
G02 X232.0000 Y339.9705 I0.0280 J-17.0015
G01 Y40.0295
G02 X229.3790 Y30.9376 I-16.9654 J-0.0330
G01 X229.0000 Y31.1802
G01 Y35.3014 Z-19.5000 F300
G01 Y31.1802 Z-21.0000
G01 Y348.8198 F600
G03 X224.5000 Y353.5472 I-13.8894 J-8.7158
G01 Y26.4528
G02 X220.0000 Y24.2261 I-9.4095 J13.3553
G01 Y355.7739
G03 X215.5000 Y356.5395 I-4.9621 J-15.5588
G01 Y23.4605
G01 X214.9661 Y23.4500
G01 X211.0000
G01 Y356.5500
G01 X206.5000
G01 Y23.4500
G01 X202.0000
G01 Y356.5500
G01 X197.5000
G01 Y23.4500
G01 X193.0000
G01 Y356.5500
G01 X188.5000
G01 Y23.4500
G01 X184.0000
G01 Y356.5500
G01 X179.5000
G01 Y23.4500
G01 X175.0000
G01 Y356.5500
G01 X170.5000
G01 Y23.4500
G01 X166.0000
G01 Y356.5500
G01 X161.5000
G01 Y23.4500
G01 X157.0000
G01 Y356.5500
G01 X152.5000
G01 Y23.4500
G01 X148.0000
G01 Y356.5500
G01 X143.5000
G01 Y23.4500
G01 X139.0000
G01 Y356.5500
G01 X134.5000
G01 Y23.4500
G01 X130.0000
G01 Y356.5500
G01 X125.5000
G01 Y23.4500
G01 X121.0000
G01 Y356.5500
G01 X116.5000
G01 Y23.4500
G01 X112.0000
G01 Y356.5500
G01 X107.5000
G01 Y23.4500
G01 X103.0000
G01 Y356.5500
G01 X98.5000
G01 Y23.4500
G01 X94.0000
G01 Y356.5500
G01 X89.5000
G01 Y23.4500
G01 X85.0000
G01 Y356.5500
G01 X80.5000
G01 Y23.4500
G01 X76.0000
G01 Y356.5500
G01 X71.5000
G01 Y23.4500
G01 X67.0000
G01 Y356.5500
G01 X62.5000
G01 Y23.4500
G01 X58.0000
G01 Y356.5500
G01 X53.5000
G01 Y23.4500
G01 X49.0000
G01 Y356.5500
G01 X45.0339
G01 X44.5000 Y356.5395
G01 Y23.4605
G02 X40.0000 Y24.2261 I0.4621 J16.3243
G01 Y355.7739
G03 X35.5000 Y353.5472 I4.9060 J-15.5751
G01 Y26.4528
G02 X31.0000 Y31.1802 I9.3919 J13.4456
G01 Y348.8198
G01 X30.6210 Y349.0624
G02 X45.0295 Y357.0000 I14.3782 J-9.0536
G01 X214.9705
G02 X232.0000 Y339.9705 I0.0280 J-17.0015
G01 Y40.0295
G02 X214.9705 Y23.0000 I-17.0015 J-0.0280
G01 X45.0295
G02 X28.0000 Y40.0295 I-0.0280 J17.0015
G01 Y339.9705
G02 X30.6210 Y349.0624 I16.9654 J0.0330
G01 X31.0000 Y348.8198
G01 Y344.6986 Z-22.5000 F300
G01 Y348.8198 Z-24.0000
G01 Y31.1802 F600
G03 X35.5000 Y26.4528 I13.8894 J8.7158
G01 Y353.5472
G02 X40.0000 Y355.7739 I9.4095 J-13.3553
G01 Y24.2261
G03 X44.5000 Y23.4605 I4.9621 J15.5588
G01 Y356.5395
G01 X45.0339 Y356.5500
G01 X49.0000
G01 Y23.4500
G01 X53.5000
G01 Y356.5500
G01 X58.0000
G01 Y23.4500
G01 X62.5000
G01 Y356.5500
G01 X67.0000
G01 Y23.4500
G01 X71.5000
G01 Y356.5500
G01 X76.0000
G01 Y23.4500
G01 X80.5000
G01 Y356.5500
G01 X85.0000
G01 Y23.4500
G01 X89.5000
G01 Y356.5500
G01 X94.0000
G01 Y23.4500
G01 X98.5000
G01 Y356.5500
G01 X103.0000
G01 Y23.4500
G01 X107.5000
G01 Y356.5500
G01 X112.0000
G01 Y23.4500
G01 X116.5000
G01 Y356.5500
G01 X121.0000
G01 Y23.4500
G01 X125.5000
G01 Y356.5500
G01 X130.0000
G01 Y23.4500
G01 X134.5000
G01 Y356.5500
G01 X139.0000
G01 Y23.4500
G01 X143.5000
G01 Y356.5500
G01 X148.0000
G01 Y23.4500
G01 X152.5000
G01 Y356.5500
G01 X157.0000
G01 Y23.4500
G01 X161.5000
G01 Y356.5500
G01 X166.0000
G01 Y23.4500
G01 X170.5000
G01 Y356.5500
G01 X175.0000
G01 Y23.4500
G01 X179.5000
G01 Y356.5500
G01 X184.0000
G01 Y23.4500
G01 X188.5000
G01 Y356.5500
G01 X193.0000
G01 Y23.4500
G01 X197.5000
G01 Y356.5500
G01 X202.0000
G01 Y23.4500
G01 X206.5000
G01 Y356.5500
G01 X211.0000
G01 Y23.4500
G01 X214.9661
G01 X215.5000 Y23.4605
G01 Y356.5395
G02 X220.0000 Y355.7739 I-0.4621 J-16.3243
G01 Y24.2261
G03 X224.5000 Y26.4528 I-4.9060 J15.5751
G01 Y353.5472
G02 X229.0000 Y348.8198 I-9.3919 J-13.4456
G01 Y31.1802
G01 X229.3790 Y30.9376
G02 X214.9705 Y23.0000 I-14.3782 J9.0536
G01 X45.0295
G02 X28.0000 Y40.0295 I-0.0280 J17.0015
G01 Y339.9705
G02 X45.0295 Y357.0000 I17.0015 J0.0280
G01 X214.9705
G02 X232.0000 Y339.9705 I0.0280 J-17.0015
G01 Y40.0295
G02 X229.3790 Y30.9376 I-16.9654 J-0.0330
G01 X229.0000 Y31.1802
G01 Y35.3014 Z-25.5000 F300
G01 Y31.1802 Z-27.0000
G01 Y348.8198 F600
G03 X224.5000 Y353.5472 I-13.8894 J-8.7158
G01 Y26.4528
G02 X220.0000 Y24.2261 I-9.4095 J13.3553
G01 Y355.7739
G03 X215.5000 Y356.5395 I-4.9621 J-15.5588
G01 Y23.4605
G01 X214.9661 Y23.4500
G01 X211.0000
G01 Y356.5500
G01 X206.5000
G01 Y23.4500
G01 X202.0000
G01 Y356.5500
G01 X197.5000
G01 Y23.4500
G01 X193.0000
G01 Y356.5500
G01 X188.5000
G01 Y23.4500
G01 X184.0000
G01 Y356.5500
G01 X179.5000
G01 Y23.4500
G01 X175.0000
G01 Y356.5500
G01 X170.5000
G01 Y23.4500
G01 X166.0000
G01 Y356.5500
G01 X161.5000
G01 Y23.4500
G01 X157.0000
G01 Y356.5500
G01 X152.5000
G01 Y23.4500
G01 X148.0000
G01 Y356.5500
G01 X143.5000
G01 Y23.4500
G01 X139.0000
G01 Y356.5500
G01 X134.5000
G01 Y23.4500
G01 X130.0000
G01 Y356.5500
G01 X125.5000
G01 Y23.4500
G01 X121.0000
G01 Y356.5500
G01 X116.5000
G01 Y23.4500
G01 X112.0000
G01 Y356.5500
G01 X107.5000
G01 Y23.4500
G01 X103.0000
G01 Y356.5500
G01 X98.5000
G01 Y23.4500
G01 X94.0000
G01 Y356.5500
G01 X89.5000
G01 Y23.4500
G01 X85.0000
G01 Y356.5500
G01 X80.5000
G01 Y23.4500
G01 X76.0000
G01 Y356.5500
G01 X71.5000
G01 Y23.4500
G01 X67.0000
G01 Y356.5500
G01 X62.5000
G01 Y23.4500
G01 X58.0000
G01 Y356.5500
G01 X53.5000
G01 Y23.4500
G01 X49.0000
G01 Y356.5500
G01 X45.0339
G01 X44.5000 Y356.5395
G01 Y23.4605
G02 X40.0000 Y24.2261 I0.4621 J16.3243
G01 Y355.7739
G03 X35.5000 Y353.5472 I4.9060 J-15.5751
G01 Y26.4528
G02 X31.0000 Y31.1802 I9.3919 J13.4456
G01 Y348.8198
G01 X30.6210 Y349.0624
G02 X45.0295 Y357.0000 I14.3782 J-9.0536
G01 X214.9705
G02 X232.0000 Y339.9705 I0.0280 J-17.0015
G01 Y40.0295
G02 X214.9705 Y23.0000 I-17.0015 J-0.0280
G01 X45.0295
G02 X28.0000 Y40.0295 I-0.0280 J17.0015
G01 Y339.9705
G02 X30.6210 Y349.0624 I16.9654 J0.0330
G01 X31.0000 Y348.8198
G01 Y344.6986 Z-28.5000 F300
G01 Y348.8198 Z-30.0000
G01 Y31.1802 F600
G03 X35.5000 Y26.4528 I13.8894 J8.7158
G01 Y353.5472
G02 X40.0000 Y355.7739 I9.4095 J-13.3553
G01 Y24.2261
G03 X44.5000 Y23.4605 I4.9621 J15.5588
G01 Y356.5395
G01 X45.0339 Y356.5500
G01 X49.0000
G01 Y23.4500
G01 X53.5000
G01 Y356.5500
G01 X58.0000
G01 Y23.4500
G01 X62.5000
G01 Y356.5500
G01 X67.0000
G01 Y23.4500
G01 X71.5000
G01 Y356.5500
G01 X76.0000
G01 Y23.4500
G01 X80.5000
G01 Y356.5500
G01 X85.0000
G01 Y23.4500
G01 X89.5000
G01 Y356.5500
G01 X94.0000
G01 Y23.4500
G01 X98.5000
G01 Y356.5500
G01 X103.0000
G01 Y23.4500
G01 X107.5000
G01 Y356.5500
G01 X112.0000
G01 Y23.4500
G01 X116.5000
G01 Y356.5500
G01 X121.0000
G01 Y23.4500
G01 X125.5000
G01 Y356.5500
G01 X130.0000
G01 Y23.4500
G01 X134.5000
G01 Y356.5500
G01 X139.0000
G01 Y23.4500
G01 X143.5000
G01 Y356.5500
G01 X148.0000
G01 Y23.4500
G01 X152.5000
G01 Y356.5500
G01 X157.0000
G01 Y23.4500
G01 X161.5000
G01 Y356.5500
G01 X166.0000
G01 Y23.4500
G01 X170.5000
G01 Y356.5500
G01 X175.0000
G01 Y23.4500
G01 X179.5000
G01 Y356.5500
G01 X184.0000
G01 Y23.4500
G01 X188.5000
G01 Y356.5500
G01 X193.0000
G01 Y23.4500
G01 X197.5000
G01 Y356.5500
G01 X202.0000
G01 Y23.4500
G01 X206.5000
G01 Y356.5500
G01 X211.0000
G01 Y23.4500
G01 X214.9661
G01 X215.5000 Y23.4605
G01 Y356.5395
G02 X220.0000 Y355.7739 I-0.4621 J-16.3243
G01 Y24.2261
G03 X224.5000 Y26.4528 I-4.9060 J15.5751
G01 Y353.5472
G02 X229.0000 Y348.8198 I-9.3919 J-13.4456
G01 Y31.1802
G01 X229.3790 Y30.9376
G02 X214.9705 Y23.0000 I-14.3782 J9.0536
G01 X45.0295
G02 X28.0000 Y40.0295 I-0.0280 J17.0015
G01 Y339.9705
G02 X45.0295 Y357.0000 I17.0015 J0.0280
G01 X214.9705
G02 X232.0000 Y339.9705 I0.0280 J-17.0015
G01 Y40.0295
G02 X229.3790 Y30.9376 I-16.9654 J-0.0330
G01 X229.0000 Y31.1802
G01 Y35.3014 Z-31.5000 F300
G01 Y31.1802 Z-33.0000
G01 Y348.8198 F600
G03 X224.5000 Y353.5472 I-13.8894 J-8.7158
G01 Y26.4528
G02 X220.0000 Y24.2261 I-9.4095 J13.3553
G01 Y355.7739
G03 X215.5000 Y356.5395 I-4.9621 J-15.5588
G01 Y23.4605
G01 X214.9661 Y23.4500
G01 X211.0000
G01 Y356.5500
G01 X206.5000
G01 Y23.4500
G01 X202.0000
G01 Y356.5500
G01 X197.5000
G01 Y23.4500
G01 X193.0000
G01 Y356.5500
G01 X188.5000
G01 Y23.4500
G01 X184.0000
G01 Y356.5500
G01 X179.5000
G01 Y23.4500
G01 X175.0000
G01 Y356.5500
G01 X170.5000
G01 Y23.4500
G01 X166.0000
G01 Y356.5500
G01 X161.5000
G01 Y23.4500
G01 X157.0000
G01 Y356.5500
G01 X152.5000
G01 Y23.4500
G01 X148.0000
G01 Y356.5500
G01 X143.5000
G01 Y23.4500
G01 X139.0000
G01 Y356.5500
G01 X134.5000
G01 Y23.4500
G01 X130.0000
G01 Y356.5500
G01 X125.5000
G01 Y23.4500
G01 X121.0000
G01 Y356.5500
G01 X116.5000
G01 Y23.4500
G01 X112.0000
G01 Y356.5500
G01 X107.5000
G01 Y23.4500
G01 X103.0000
G01 Y356.5500
G01 X98.5000
G01 Y23.4500
G01 X94.0000
G01 Y356.5500
G01 X89.5000
G01 Y23.4500
G01 X85.0000
G01 Y356.5500
G01 X80.5000
G01 Y23.4500
G01 X76.0000
G01 Y356.5500
G01 X71.5000
G01 Y23.4500
G01 X67.0000
G01 Y356.5500
G01 X62.5000
G01 Y23.4500
G01 X58.0000
G01 Y356.5500
G01 X53.5000
G01 Y23.4500
G01 X49.0000
G01 Y356.5500
G01 X45.0339
G01 X44.5000 Y356.5395
G01 Y23.4605
G02 X40.0000 Y24.2261 I0.4621 J16.3243
G01 Y355.7739
G03 X35.5000 Y353.5472 I4.9060 J-15.5751
G01 Y26.4528
G02 X31.0000 Y31.1802 I9.3919 J13.4456
G01 Y348.8198
G01 X30.6210 Y349.0624
G02 X45.0295 Y357.0000 I14.3782 J-9.0536
G01 X214.9705
G02 X232.0000 Y339.9705 I0.0280 J-17.0015
G01 Y40.0295
G02 X214.9705 Y23.0000 I-17.0015 J-0.0280
G01 X45.0295
G02 X28.0000 Y40.0295 I-0.0280 J17.0015
G01 Y339.9705
G02 X30.6210 Y349.0624 I16.9654 J0.0330
G01 X31.0000 Y348.8198
G01 Y344.6986 Z-34.5000 F300
G01 Y348.8198 Z-36.0000
G01 Y31.1802 F600
G03 X35.5000 Y26.4528 I13.8894 J8.7158
G01 Y353.5472
G02 X40.0000 Y355.7739 I9.4095 J-13.3553
G01 Y24.2261
G03 X44.5000 Y23.4605 I4.9621 J15.5588
G01 Y356.5395
G01 X45.0339 Y356.5500
G01 X49.0000
G01 Y23.4500
G01 X53.5000
G01 Y356.5500
G01 X58.0000
G01 Y23.4500
G01 X62.5000
G01 Y356.5500
G01 X67.0000
G01 Y23.4500
G01 X71.5000
G01 Y356.5500
G01 X76.0000
G01 Y23.4500
G01 X80.5000
G01 Y356.5500
G01 X85.0000
G01 Y23.4500
G01 X89.5000
G01 Y356.5500
G01 X94.0000
G01 Y23.4500
G01 X98.5000
G01 Y356.5500
G01 X103.0000
G01 Y23.4500
G01 X107.5000
G01 Y356.5500
G01 X112.0000
G01 Y23.4500
G01 X116.5000
G01 Y356.5500
G01 X121.0000
G01 Y23.4500
G01 X125.5000
G01 Y356.5500
G01 X130.0000
G01 Y23.4500
G01 X134.5000
G01 Y356.5500
G01 X139.0000
G01 Y23.4500
G01 X143.5000
G01 Y356.5500
G01 X148.0000
G01 Y23.4500
G01 X152.5000
G01 Y356.5500
G01 X157.0000
G01 Y23.4500
G01 X161.5000
G01 Y356.5500
G01 X166.0000
G01 Y23.4500
G01 X170.5000
G01 Y356.5500
G01 X175.0000
G01 Y23.4500
G01 X179.5000
G01 Y356.5500
G01 X184.0000
G01 Y23.4500
G01 X188.5000
G01 Y356.5500
G01 X193.0000
G01 Y23.4500
G01 X197.5000
G01 Y356.5500
G01 X202.0000
G01 Y23.4500
G01 X206.5000
G01 Y356.5500
G01 X211.0000
G01 Y23.4500
G01 X214.9661
G01 X215.5000 Y23.4605
G01 Y356.5395
G02 X220.0000 Y355.7739 I-0.4621 J-16.3243
G01 Y24.2261
G03 X224.5000 Y26.4528 I-4.9060 J15.5751
G01 Y353.5472
G02 X229.0000 Y348.8198 I-9.3919 J-13.4456
G01 Y31.1802
G01 X229.3790 Y30.9376
G02 X214.9705 Y23.0000 I-14.3782 J9.0536
G01 X45.0295
G02 X28.0000 Y40.0295 I-0.0280 J17.0015
G01 Y339.9705
G02 X45.0295 Y357.0000 I17.0015 J0.0280
G01 X214.9705
G02 X232.0000 Y339.9705 I0.0280 J-17.0015
G01 Y40.0295
G02 X229.3790 Y30.9376 I-16.9654 J-0.0330
G01 X229.0000 Y31.1802
G00 Z5.0000

(No. 2 Part machining: outline)
G00 X263.0000 Y201.4474 Z5.0000
G00 Z0.5000
G01 Z0.0000 F300
G01 Y205.5687 Z-1.5000
G01 Y201.4474 Z-3.0000
G01 Y360.0000 F600
G03 X240.0000 Y383.0000 I-23.0000 J0.0000
G01 X20.0000
G03 X-3.0000 Y360.0000 I0.0000 J-23.0000
G01 Y198.0000
G01 Y182.0000
G01 Y20.0000
G03 X20.0000 Y-3.0000 I23.0000 J0.0000
G01 X240.0000
G03 X263.0000 Y20.0000 I0.0000 J23.0000
G01 Y185.4474
G01 Y201.4474
G01 Y205.5687 Z-4.5000 F300
G01 Y201.4474 Z-6.0000
G01 Y360.0000 F600
G03 X240.0000 Y383.0000 I-23.0000 J0.0000
G01 X20.0000
G03 X-3.0000 Y360.0000 I0.0000 J-23.0000
G01 Y198.0000
G01 Y182.0000
G01 Y20.0000
G03 X20.0000 Y-3.0000 I23.0000 J0.0000
G01 X240.0000
G03 X263.0000 Y20.0000 I0.0000 J23.0000
G01 Y185.4474
G01 Y201.4474
G01 Y205.5687 Z-7.5000 F300
G01 Y201.4474 Z-9.0000
G01 Y360.0000 F600
G03 X240.0000 Y383.0000 I-23.0000 J0.0000
G01 X20.0000
G03 X-3.0000 Y360.0000 I0.0000 J-23.0000
G01 Y198.0000
G01 Y182.0000
G01 Y20.0000
G03 X20.0000 Y-3.0000 I23.0000 J0.0000
G01 X240.0000
G03 X263.0000 Y20.0000 I0.0000 J23.0000
G01 Y185.4474
G01 Y201.4474
G01 Y205.5687 Z-10.5000 F300
G01 Y201.4474 Z-12.0000
G01 Y360.0000 F600
G03 X240.0000 Y383.0000 I-23.0000 J0.0000
G01 X20.0000
G03 X-3.0000 Y360.0000 I0.0000 J-23.0000
G01 Y198.0000
G01 Y182.0000
G01 Y20.0000
G03 X20.0000 Y-3.0000 I23.0000 J0.0000
G01 X240.0000
G03 X263.0000 Y20.0000 I0.0000 J23.0000
G01 Y185.4474
G01 Y201.4474
G01 Y205.5687 Z-13.5000 F300
G01 Y201.4474 Z-15.0000
G01 Y360.0000 F600
G03 X240.0000 Y383.0000 I-23.0000 J0.0000
G01 X20.0000
G03 X-3.0000 Y360.0000 I0.0000 J-23.0000
G01 Y198.0000
G01 Y182.0000
G01 Y20.0000
G03 X20.0000 Y-3.0000 I23.0000 J0.0000
G01 X240.0000
G03 X263.0000 Y20.0000 I0.0000 J23.0000
G01 Y185.4474
G01 Y201.4474
G01 Y205.5687 Z-16.5000 F300
G01 Y201.4474 Z-18.0000
G01 Y360.0000 F600
G03 X240.0000 Y383.0000 I-23.0000 J0.0000
G01 X20.0000
G03 X-3.0000 Y360.0000 I0.0000 J-23.0000
G01 Y198.0000
G01 Y182.0000
G01 Y20.0000
G03 X20.0000 Y-3.0000 I23.0000 J0.0000
G01 X240.0000
G03 X263.0000 Y20.0000 I0.0000 J23.0000
G01 Y185.4474
G01 Y201.4474
G01 Y205.5687 Z-19.5000 F300
G01 Y201.4474 Z-21.0000
G01 Y360.0000 F600
G03 X240.0000 Y383.0000 I-23.0000 J0.0000
G01 X20.0000
G03 X-3.0000 Y360.0000 I0.0000 J-23.0000
G01 Y198.0000
G00 Z-18.0000
G01 Y182.0000
G01 Y177.8788 Z-19.5000 F300
G01 Y182.0000 Z-21.0000
G01 Y20.0000 F600
G03 X20.0000 Y-3.0000 I23.0000 J0.0000
G01 X240.0000
G03 X263.0000 Y20.0000 I0.0000 J23.0000
G01 Y185.4474
G00 Z-18.0000
G01 Y201.4474
G00 Z-20.5000
G01 Z-21.0000 F300
G01 Y205.5687 Z-22.5000
G01 Y201.4474 Z-24.0000
G01 Y360.0000 F600
G03 X240.0000 Y383.0000 I-23.0000 J0.0000
G01 X20.0000
G03 X-3.0000 Y360.0000 I0.0000 J-23.0000
G01 Y198.0000
G00 Z-18.0000
G01 Y182.0000
G00 Z-20.5000
G01 Z-21.0000 F300
G01 Y177.8788 Z-22.5000
G01 Y182.0000 Z-24.0000
G01 Y20.0000 F600
G03 X20.0000 Y-3.0000 I23.0000 J0.0000
G01 X240.0000
G03 X263.0000 Y20.0000 I0.0000 J23.0000
G01 Y185.4474
G00 Z-18.0000
G01 Y201.4474
G00 Z-23.5000
G01 Z-24.0000 F300
G01 Y205.5687 Z-25.5000
G01 Y201.4474 Z-27.0000
G01 Y360.0000 F600
G03 X240.0000 Y383.0000 I-23.0000 J0.0000
G01 X20.0000
G03 X-3.0000 Y360.0000 I0.0000 J-23.0000
G01 Y198.0000
G00 Z-18.0000
G01 Y182.0000
G00 Z-23.5000
G01 Z-24.0000 F300
G01 Y177.8788 Z-25.5000
G01 Y182.0000 Z-27.0000
G01 Y20.0000 F600
G03 X20.0000 Y-3.0000 I23.0000 J0.0000
G01 X240.0000
G03 X263.0000 Y20.0000 I0.0000 J23.0000
G01 Y185.4474
G00 Z-18.0000
G01 Y201.4474
G00 Z-26.5000
G01 Z-27.0000 F300
G01 Y205.5687 Z-28.5000
G01 Y201.4474 Z-30.0000
G01 Y360.0000 F600
G03 X240.0000 Y383.0000 I-23.0000 J0.0000
G01 X20.0000
G03 X-3.0000 Y360.0000 I0.0000 J-23.0000
G01 Y198.0000
G00 Z-18.0000
G01 Y182.0000
G00 Z-26.5000
G01 Z-27.0000 F300
G01 Y177.8788 Z-28.5000
G01 Y182.0000 Z-30.0000
G01 Y20.0000 F600
G03 X20.0000 Y-3.0000 I23.0000 J0.0000
G01 X240.0000
G03 X263.0000 Y20.0000 I0.0000 J23.0000
G01 Y185.4474
G00 Z-18.0000
G01 Y201.4474
G00 Z-29.5000
G01 Z-30.0000 F300
G01 Y205.5687 Z-31.5000
G01 Y201.4474 Z-33.0000
G01 Y360.0000 F600
G03 X240.0000 Y383.0000 I-23.0000 J0.0000
G01 X20.0000
G03 X-3.0000 Y360.0000 I0.0000 J-23.0000
G01 Y198.0000
G00 Z-18.0000
G01 Y182.0000
G00 Z-29.5000
G01 Z-30.0000 F300
G01 Y177.8788 Z-31.5000
G01 Y182.0000 Z-33.0000
G01 Y20.0000 F600
G03 X20.0000 Y-3.0000 I23.0000 J0.0000
G01 X240.0000
G03 X263.0000 Y20.0000 I0.0000 J23.0000
G01 Y185.4474
G00 Z-18.0000
G01 Y201.4474
G00 Z-32.5000
G01 Z-33.0000 F300
G01 Y205.5687 Z-34.5000
G01 Y201.4474 Z-36.0000
G01 Y360.0000 F600
G03 X240.0000 Y383.0000 I-23.0000 J0.0000
G01 X20.0000
G03 X-3.0000 Y360.0000 I0.0000 J-23.0000
G01 Y198.0000
G00 Z-18.0000
G01 Y182.0000
G00 Z-32.5000
G01 Z-33.0000 F300
G01 Y177.8788 Z-34.5000
G01 Y182.0000 Z-36.0000
G01 Y20.0000 F600
G03 X20.0000 Y-3.0000 I23.0000 J0.0000
G01 X240.0000
G03 X263.0000 Y20.0000 I0.0000 J23.0000
G01 Y185.4474
G00 Z-18.0000
G01 Y201.4474
G00 Z-35.5000
G01 Z-36.0000 F300
G01 Y205.5687 Z-37.5000
G01 Y201.4474 Z-39.0000
G01 Y360.0000 F600
G03 X240.0000 Y383.0000 I-23.0000 J0.0000
G01 X20.0000
G03 X-3.0000 Y360.0000 I0.0000 J-23.0000
G01 Y198.0000
G00 Z-18.0000
G01 Y182.0000
G00 Z-35.5000
G01 Z-36.0000 F300
G01 Y177.8788 Z-37.5000
G01 Y182.0000 Z-39.0000
G01 Y20.0000 F600
G03 X20.0000 Y-3.0000 I23.0000 J0.0000
G01 X240.0000
G03 X263.0000 Y20.0000 I0.0000 J23.0000
G01 Y185.4474
G00 Z-18.0000
G01 Y201.4474
G00 Z-38.5000
G01 Z-39.0000 F300
G01 Y205.5687 Z-40.5000
G01 Y201.4474 Z-42.0000
G01 Y360.0000 F600
G03 X240.0000 Y383.0000 I-23.0000 J0.0000
G01 X20.0000
G03 X-3.0000 Y360.0000 I0.0000 J-23.0000
G01 Y198.0000
G00 Z-18.0000
G01 Y182.0000
G00 Z-38.5000
G01 Z-39.0000 F300
G01 Y177.8788 Z-40.5000
G01 Y182.0000 Z-42.0000
G01 Y20.0000 F600
G03 X20.0000 Y-3.0000 I23.0000 J0.0000
G01 X240.0000
G03 X263.0000 Y20.0000 I0.0000 J23.0000
G01 Y185.4474
G00 Z-18.0000
G01 Y201.4474
G00 Z-41.5000
G01 Z-42.0000 F300
G01 Y205.5687 Z-43.5000
G01 Y201.4474 Z-45.0000
G01 Y360.0000 F600
G03 X240.0000 Y383.0000 I-23.0000 J0.0000
G01 X20.0000
G03 X-3.0000 Y360.0000 I0.0000 J-23.0000
G01 Y198.0000
G00 Z-18.0000
G01 Y182.0000
G00 Z-41.5000
G01 Z-42.0000 F300
G01 Y177.8788 Z-43.5000
G01 Y182.0000 Z-45.0000
G01 Y20.0000 F600
G03 X20.0000 Y-3.0000 I23.0000 J0.0000
G01 X240.0000
G03 X263.0000 Y20.0000 I0.0000 J23.0000
G01 Y185.4474
G00 Z-18.0000
G01 Y201.4474
G00 Z-44.5000
G01 Z-45.0000 F300
G01 Y205.5687 Z-46.5000
G01 Y201.4474 Z-48.0000
G01 Y360.0000 F600
G03 X240.0000 Y383.0000 I-23.0000 J0.0000
G01 X20.0000
G03 X-3.0000 Y360.0000 I0.0000 J-23.0000
G01 Y198.0000
G00 Z-18.0000
G01 Y182.0000
G00 Z-44.5000
G01 Z-45.0000 F300
G01 Y177.8788 Z-46.5000
G01 Y182.0000 Z-48.0000
G01 Y20.0000 F600
G03 X20.0000 Y-3.0000 I23.0000 J0.0000
G01 X240.0000
G03 X263.0000 Y20.0000 I0.0000 J23.0000
G01 Y185.4474
G00 Z-18.0000
G01 Y201.4474
G00 Z-47.5000
G01 Z-48.0000 F300
G01 Y205.5687 Z-49.5000
G01 Y201.4474 Z-51.0000
G01 Y360.0000 F600
G03 X240.0000 Y383.0000 I-23.0000 J0.0000
G01 X20.0000
G03 X-3.0000 Y360.0000 I0.0000 J-23.0000
G01 Y198.0000
G00 Z-18.0000
G01 Y182.0000
G00 Z-47.5000
G01 Z-48.0000 F300
G01 Y177.8788 Z-49.5000
G01 Y182.0000 Z-51.0000
G01 Y20.0000 F600
G03 X20.0000 Y-3.0000 I23.0000 J0.0000
G01 X240.0000
G03 X263.0000 Y20.0000 I0.0000 J23.0000
G01 Y185.4474
G00 Z-18.0000
G01 Y201.4474
G00 Z-50.5000
G01 Z-51.0000 F300
G01 Y205.5687 Z-52.5000
G01 Y201.4474 Z-54.0000
G01 Y360.0000 F600
G03 X240.0000 Y383.0000 I-23.0000 J0.0000
G01 X20.0000
G03 X-3.0000 Y360.0000 I0.0000 J-23.0000
G01 Y198.0000
G00 Z-18.0000
G01 Y182.0000
G00 Z-50.5000
G01 Z-51.0000 F300
G01 Y177.8788 Z-52.5000
G01 Y182.0000 Z-54.0000
G01 Y20.0000 F600
G03 X20.0000 Y-3.0000 I23.0000 J0.0000
G01 X240.0000
G03 X263.0000 Y20.0000 I0.0000 J23.0000
G01 Y185.4474
G00 Z-18.0000
G01 Y201.4474
G00 Z5.0000
G00 X0.0000 Y0.0000


M05
M30
