(Project box-maniglie)
(Created with Estlcam 12,154)
(Machining time about 02:54:17 hours)

(Required tools:)
(Straight bit 3mm)
(straight bit 6mm)

G21
G90
G94
M03 S24000
G00 Z5.0000

(No. 1 Drill machining: Drill 23)
G00 X133.2503 Y7.4740 Z5.0000
G00 Z0.5000
G01 Z-3.0000 F300 S24000
G00 Z0.5000
G00 Z-2.5000
G01 Z-6.0000
G00 Z0.5000
G00 Z-5.5000
G01 Z-9.0000
G00 Z0.5000
G00 Z-8.5000
G01 Z-12.0000
G00 Z0.5000
G00 Z-11.5000
G01 Z-15.0000
G00 Z5.0000

(No. 2 Drill machining: Drill 22)
G00 X266.2503 Y7.4740 Z5.0000
G00 Z0.5000
G01 Z-3.0000 F300
G00 Z0.5000
G00 Z-2.5000
G01 Z-6.0000
G00 Z0.5000
G00 Z-5.5000
G01 Z-9.0000
G00 Z0.5000
G00 Z-8.5000
G01 Z-12.0000
G00 Z0.5000
G00 Z-11.5000
G01 Z-15.0000
G00 Z5.0000

(No. 3 Drill machining: Drill 21)
G00 X391.9215 Y7.4741 Z5.0000
G00 Z0.5000
G01 Z-3.0000 F300
G00 Z0.5000
G00 Z-2.5000
G01 Z-6.0000
G00 Z0.5000
G00 Z-5.5000
G01 Z-9.0000
G00 Z0.5000
G00 Z-8.5000
G01 Z-12.0000
G00 Z0.5000
G00 Z-11.5000
G01 Z-15.0000
G00 Z5.0000

(No. 4 Drill machining: Drill 27)
G00 X391.9215 Y128.6121 Z5.0000
G00 Z0.5000
G01 Z-3.0000 F300
G00 Z0.5000
G00 Z-2.5000
G01 Z-6.0000
G00 Z0.5000
G00 Z-5.5000
G01 Z-9.0000
G00 Z0.5000
G00 Z-8.5000
G01 Z-12.0000
G00 Z0.5000
G00 Z-11.5000
G01 Z-15.0000
G00 Z5.0000

(No. 5 Drill machining: Drill 20)
G00 X391.9215 Y249.7502 Z5.0000
G00 Z0.5000
G01 Z-3.0000 F300
G00 Z0.5000
G00 Z-2.5000
G01 Z-6.0000
G00 Z0.5000
G00 Z-5.5000
G01 Z-9.0000
G00 Z0.5000
G00 Z-8.5000
G01 Z-12.0000
G00 Z0.5000
G00 Z-11.5000
G01 Z-15.0000
G00 Z5.0000

(No. 6 Drill machining: Drill 19)
G00 X391.9215 Y370.8883 Z5.0000
G00 Z0.5000
G01 Z-3.0000 F300
G00 Z0.5000
G00 Z-2.5000
G01 Z-6.0000
G00 Z0.5000
G00 Z-5.5000
G01 Z-9.0000
G00 Z0.5000
G00 Z-8.5000
G01 Z-12.0000
G00 Z0.5000
G00 Z-11.5000
G01 Z-15.0000
G00 Z5.0000

(No. 7 Drill machining: Drill 18)
G00 X391.9215 Y492.0263 Z5.0000
G00 Z0.5000
G01 Z-3.0000 F300
G00 Z0.5000
G00 Z-2.5000
G01 Z-6.0000
G00 Z0.5000
G00 Z-5.5000
G01 Z-9.0000
G00 Z0.5000
G00 Z-8.5000
G01 Z-12.0000
G00 Z0.5000
G00 Z-11.5000
G01 Z-15.0000
G00 Z5.0000

(No. 8 Drill machining: Drill 9)
G00 X391.9215 Y523.8783 Z5.0000
G00 Z0.5000
G01 Z-3.0000 F300
G00 Z0.5000
G00 Z-2.5000
G01 Z-6.0000
G00 Z0.5000
G00 Z-5.5000
G01 Z-9.0000
G00 Z0.5000
G00 Z-8.5000
G01 Z-12.0000
G00 Z0.5000
G00 Z-11.5000
G01 Z-15.0000
G00 Z5.0000

(No. 9 Drill machining: Drill 10)
G00 X266.2503 Y523.8783 Z5.0000
G00 Z0.5000
G01 Z-3.0000 F300
G00 Z0.5000
G00 Z-2.5000
G01 Z-6.0000
G00 Z0.5000
G00 Z-5.5000
G01 Z-9.0000
G00 Z0.5000
G00 Z-8.5000
G01 Z-12.0000
G00 Z0.5000
G00 Z-11.5000
G01 Z-15.0000
G00 Z5.0000

(No. 10 Drill machining: Drill 17)
G00 X266.2503 Y492.0263 Z5.0000
G00 Z0.5000
G01 Z-3.0000 F300
G00 Z0.5000
G00 Z-2.5000
G01 Z-6.0000
G00 Z0.5000
G00 Z-5.5000
G01 Z-9.0000
G00 Z0.5000
G00 Z-8.5000
G01 Z-12.0000
G00 Z0.5000
G00 Z-11.5000
G01 Z-15.0000
G00 Z5.0000

(No. 11 Drill machining: Drill 16)
G00 X133.2503 Y492.0263 Z5.0000
G00 Z0.5000
G01 Z-3.0000 F300
G00 Z0.5000
G00 Z-2.5000
G01 Z-6.0000
G00 Z0.5000
G00 Z-5.5000
G01 Z-9.0000
G00 Z0.5000
G00 Z-8.5000
G01 Z-12.0000
G00 Z0.5000
G00 Z-11.5000
G01 Z-15.0000
G00 Z5.0000

(No. 12 Drill machining: Drill 11)
G00 X133.2503 Y523.8783 Z5.0000
G00 Z0.5000
G01 Z-3.0000 F300
G00 Z0.5000
G00 Z-2.5000
G01 Z-6.0000
G00 Z0.5000
G00 Z-5.5000
G01 Z-9.0000
G00 Z0.5000
G00 Z-8.5000
G01 Z-12.0000
G00 Z0.5000
G00 Z-11.5000
G01 Z-15.0000
G00 Z5.0000

(No. 13 Drill machining: Drill 12)
G00 X7.2503 Y523.8783 Z5.0000
G00 Z0.5000
G01 Z-3.0000 F300
G00 Z0.5000
G00 Z-2.5000
G01 Z-6.0000
G00 Z0.5000
G00 Z-5.5000
G01 Z-9.0000
G00 Z0.5000
G00 Z-8.5000
G01 Z-12.0000
G00 Z0.5000
G00 Z-11.5000
G01 Z-15.0000
G00 Z5.0000

(No. 14 Drill machining: Drill 15)
G00 X7.2503 Y492.0263 Z5.0000
G00 Z0.5000
G01 Z-3.0000 F300
G00 Z0.5000
G00 Z-2.5000
G01 Z-6.0000
G00 Z0.5000
G00 Z-5.5000
G01 Z-9.0000
G00 Z0.5000
G00 Z-8.5000
G01 Z-12.0000
G00 Z0.5000
G00 Z-11.5000
G01 Z-15.0000
G00 Z5.0000

(No. 15 Drill machining: Drill 26)
G00 X7.2503 Y370.8883 Z5.0000
G00 Z0.5000
G01 Z-3.0000 F300
G00 Z0.5000
G00 Z-2.5000
G01 Z-6.0000
G00 Z0.5000
G00 Z-5.5000
G01 Z-9.0000
G00 Z0.5000
G00 Z-8.5000
G01 Z-12.0000
G00 Z0.5000
G00 Z-11.5000
G01 Z-15.0000
G00 Z5.0000

(No. 16 Drill machining: Drill 25)
G00 X7.2503 Y249.7502 Z5.0000
G00 Z0.5000
G01 Z-3.0000 F300
G00 Z0.5000
G00 Z-2.5000
G01 Z-6.0000
G00 Z0.5000
G00 Z-5.5000
G01 Z-9.0000
G00 Z0.5000
G00 Z-8.5000
G01 Z-12.0000
G00 Z0.5000
G00 Z-11.5000
G01 Z-15.0000
G00 Z5.0000

(No. 17 Drill machining: Drill 24)
G00 X7.2503 Y128.6121 Z5.0000
G00 Z0.5000
G01 Z-3.0000 F300
G00 Z0.5000
G00 Z-2.5000
G01 Z-6.0000
G00 Z0.5000
G00 Z-5.5000
G01 Z-9.0000
G00 Z0.5000
G00 Z-8.5000
G01 Z-12.0000
G00 Z0.5000
G00 Z-11.5000
G01 Z-15.0000
G00 Z5.0000

(No. 18 Drill machining: Drill 13)
G00 X7.2503 Y645.0164 Z5.0000
G00 Z0.5000
G01 Z-3.0000 F300
G00 Z0.5000
G00 Z-2.5000
G01 Z-6.0000
G00 Z0.5000
G00 Z-5.5000
G01 Z-9.0000
G00 Z0.5000
G00 Z-8.5000
G01 Z-12.0000
G00 Z0.5000
G00 Z-11.5000
G01 Z-15.0000
G00 Z5.0000

(No. 19 Drill machining: Drill 14)
G00 X7.2503 Y766.1544 Z5.0000
G00 Z0.5000
G01 Z-3.0000 F300
G00 Z0.5000
G00 Z-2.5000
G01 Z-6.0000
G00 Z0.5000
G00 Z-5.5000
G01 Z-9.0000
G00 Z0.5000
G00 Z-8.5000
G01 Z-12.0000
G00 Z0.5000
G00 Z-11.5000
G01 Z-15.0000
G00 Z5.0000

(No. 20 Drill machining: Drill 2)
G00 X7.2503 Y887.2925 Z5.0000
G00 Z0.5000
G01 Z-3.0000 F300
G00 Z0.5000
G00 Z-2.5000
G01 Z-6.0000
G00 Z0.5000
G00 Z-5.5000
G01 Z-9.0000
G00 Z0.5000
G00 Z-8.5000
G01 Z-12.0000
G00 Z0.5000
G00 Z-11.5000
G01 Z-15.0000
G00 Z5.0000

(No. 21 Drill machining: Drill 1)
G00 X7.2503 Y1008.4306 Z5.0000
G00 Z0.5000
G01 Z-3.0000 F300
G00 Z0.5000
G00 Z-2.5000
G01 Z-6.0000
G00 Z0.5000
G00 Z-5.5000
G01 Z-9.0000
G00 Z0.5000
G00 Z-8.5000
G01 Z-12.0000
G00 Z0.5000
G00 Z-11.5000
G01 Z-15.0000
G00 Z5.0000

(No. 22 Drill machining: Drill 3)
G00 X133.2503 Y1008.4306 Z5.0000
G00 Z0.5000
G01 Z-3.0000 F300
G00 Z0.5000
G00 Z-2.5000
G01 Z-6.0000
G00 Z0.5000
G00 Z-5.5000
G01 Z-9.0000
G00 Z0.5000
G00 Z-8.5000
G01 Z-12.0000
G00 Z0.5000
G00 Z-11.5000
G01 Z-15.0000
G00 Z5.0000

(No. 23 Drill machining: Drill 4)
G00 X266.2503 Y1008.4306 Z5.0000
G00 Z0.5000
G01 Z-3.0000 F300
G00 Z0.5000
G00 Z-2.5000
G01 Z-6.0000
G00 Z0.5000
G00 Z-5.5000
G01 Z-9.0000
G00 Z0.5000
G00 Z-8.5000
G01 Z-12.0000
G00 Z0.5000
G00 Z-11.5000
G01 Z-15.0000
G00 Z5.0000

(No. 24 Drill machining: Drill 5)
G00 X391.9215 Y1008.4306 Z5.0000
G00 Z0.5000
G01 Z-3.0000 F300
G00 Z0.5000
G00 Z-2.5000
G01 Z-6.0000
G00 Z0.5000
G00 Z-5.5000
G01 Z-9.0000
G00 Z0.5000
G00 Z-8.5000
G01 Z-12.0000
G00 Z0.5000
G00 Z-11.5000
G01 Z-15.0000
G00 Z5.0000

(No. 25 Drill machining: Drill 6)
G00 X391.9215 Y887.2925 Z5.0000
G00 Z0.5000
G01 Z-3.0000 F300
G00 Z0.5000
G00 Z-2.5000
G01 Z-6.0000
G00 Z0.5000
G00 Z-5.5000
G01 Z-9.0000
G00 Z0.5000
G00 Z-8.5000
G01 Z-12.0000
G00 Z0.5000
G00 Z-11.5000
G01 Z-15.0000
G00 Z5.0000

(No. 26 Drill machining: Drill 7)
G00 X391.9215 Y766.1544 Z5.0000
G00 Z0.5000
G01 Z-3.0000 F300
G00 Z0.5000
G00 Z-2.5000
G01 Z-6.0000
G00 Z0.5000
G00 Z-5.5000
G01 Z-9.0000
G00 Z0.5000
G00 Z-8.5000
G01 Z-12.0000
G00 Z0.5000
G00 Z-11.5000
G01 Z-15.0000
G00 Z5.0000

(No. 27 Drill machining: Drill 8)
G00 X391.9215 Y645.0164 Z5.0000
G00 Z0.5000
G01 Z-3.0000 F300
G00 Z0.5000
G00 Z-2.5000
G01 Z-6.0000
G00 Z0.5000
G00 Z-5.5000
G01 Z-9.0000
G00 Z0.5000
G00 Z-8.5000
G01 Z-12.0000
G00 Z0.5000
G00 Z-11.5000
G01 Z-15.0000
G00 Z5.0000

(No. 28 Pocketing linear: Pocket 2)
M05
M06 T2 (straight bit 6mm)
M03 S24000
G00 X560.8000 Y498.2003 Z5.0000
G00 Z0.5000
G01 Z0.0000 F300
G01 Z-3.0000
G01 X640.9506 F600
G03 X643.9071 Y499.4003 I-4.9237 J16.3727
G01 X557.8435
G02 X555.8506 Y500.6003 I7.1813 J14.1807
G01 X645.8999
G03 X647.4347 Y501.8003 I-8.6443 J12.6379
G01 X554.3158
G02 X553.0744 Y503.0003 I9.7856 J11.3655
G01 X648.6761
G03 X649.7029 Y504.2003 I-10.1884 J9.7570
G01 X552.0476
G02 X551.1869 Y505.4003 I10.7301 J8.6048
G01 X650.5636
G03 X651.2819 Y506.6003 I-12.5659 J8.3369
G01 X550.4686
G02 X549.8748 Y507.8003 I11.9699 J6.6696
G01 X651.8757
G03 X652.3664 Y509.0003 I-12.8624 J5.9601
G01 X549.3841
G02 X548.9987 Y510.2003 I12.8715 J4.7964
G01 X652.7519
G03 X653.0493 Y511.4003 I-12.9289 J3.8412
G01 X548.7013
G02 X548.4928 Y512.6003 I13.1370 J2.8997
G01 X653.2577
G03 X653.3799 Y513.8003 I-12.8934 J1.9193
G01 X548.3706
G02 X548.3253 Y515.0003 I13.2650 J1.1023
G01 X653.4253
G03 X653.3799 Y516.2003 I-13.3104 J0.0977
G01 X548.3706
G02 X548.4928 Y517.4003 I13.1901 J-0.7371
G01 X653.2577
G03 X653.0493 Y518.6003 I-13.3322 J-1.6974
G01 X548.7013
G02 X548.9987 Y519.8003 I13.0997 J-2.6098
G01 X652.7519
G03 X652.3664 Y521.0003 I-14.1368 J-3.8791
G01 X549.3841
G02 X549.8748 Y522.2003 I13.1284 J-4.6682
G01 X651.8757
G03 X651.2819 Y523.4003 I-12.5952 J-5.4852
G01 X550.4686
G02 X551.1869 Y524.6003 I13.2586 J-7.1215
G01 X650.5636
G03 X649.7029 Y525.8003 I-11.9798 J-7.6838
G01 X552.0476
G02 X553.0744 Y527.0003 I10.9351 J-8.3173
G01 X648.6761
G03 X647.4347 Y528.2003 I-10.4489 J-9.5674
G01 X554.3158
G02 X555.8506 Y529.4003 I10.1094 J-11.3487
G01 X645.8999
G03 X643.9071 Y530.6003 I-9.1741 J-12.9807
G01 X557.8435
G02 X560.8000 Y531.8003 I7.9265 J-15.2870
G01 X640.9506
G01 X641.0785 Y532.2317
G03 X635.8753 Y533.0003 I-5.2054 J-17.2430
G01 X565.8753
G03 Y497.0003 I0.0000 J-18.0000
G01 X635.8753
G03 X641.0785 Y532.2317 I0.0001 J17.9999
G01 X640.9506 Y531.8003
G01 Z-6.0000 F300
G01 X560.8000 F600
G03 X557.8435 Y530.6003 I4.9237 J-16.3727
G01 X643.9071
G02 X645.8999 Y529.4003 I-7.1813 J-14.1807
G01 X555.8506
G03 X554.3158 Y528.2003 I8.6443 J-12.6379
G01 X647.4347
G02 X648.6761 Y527.0003 I-9.7856 J-11.3655
G01 X553.0744
G03 X552.0476 Y525.8003 I10.1884 J-9.7570
G01 X649.7029
G02 X650.5636 Y524.6003 I-10.7301 J-8.6048
G01 X551.1869
G03 X550.4686 Y523.4003 I12.5659 J-8.3369
G01 X651.2819
G02 X651.8757 Y522.2003 I-11.9699 J-6.6696
G01 X549.8748
G03 X549.3841 Y521.0003 I12.8624 J-5.9601
G01 X652.3664
G02 X652.7519 Y519.8003 I-12.8715 J-4.7964
G01 X548.9987
G03 X548.7013 Y518.6003 I12.9289 J-3.8412
G01 X653.0493
G02 X653.2577 Y517.4003 I-13.1370 J-2.8997
G01 X548.4928
G03 X548.3706 Y516.2003 I12.8934 J-1.9193
G01 X653.3799
G02 X653.4253 Y515.0003 I-13.2650 J-1.1023
G01 X548.3253
G03 X548.3706 Y513.8003 I13.3104 J-0.0977
G01 X653.3799
G02 X653.2577 Y512.6003 I-13.1901 J0.7371
G01 X548.4928
G03 X548.7013 Y511.4003 I13.3322 J1.6974
G01 X653.0493
G02 X652.7519 Y510.2003 I-13.0997 J2.6098
G01 X548.9987
G03 X549.3841 Y509.0003 I14.1368 J3.8791
G01 X652.3664
G02 X651.8757 Y507.8003 I-13.1284 J4.6682
G01 X549.8748
G03 X550.4686 Y506.6003 I12.5952 J5.4852
G01 X651.2819
G02 X650.5636 Y505.4003 I-13.2586 J7.1215
G01 X551.1869
G03 X552.0476 Y504.2003 I11.9798 J7.6838
G01 X649.7029
G02 X648.6761 Y503.0003 I-10.9351 J8.3173
G01 X553.0744
G03 X554.3158 Y501.8003 I10.4489 J9.5674
G01 X647.4347
G02 X645.8999 Y500.6003 I-10.1094 J11.3487
G01 X555.8506
G03 X557.8435 Y499.4003 I9.1741 J12.9807
G01 X643.9071
G02 X640.9506 Y498.2003 I-7.9265 J15.2870
G01 X560.8000
G01 X560.6720 Y497.7689
G03 X565.8753 Y497.0003 I5.2054 J17.2430
G01 X635.8753
G03 Y533.0003 I0.0000 J18.0000
G01 X565.8753
G03 X560.6720 Y497.7689 I-0.0001 J-17.9999
G01 X560.8000 Y498.2003
G01 Z-9.0000 F300
G01 X640.9506 F600
G03 X643.9071 Y499.4003 I-4.9237 J16.3727
G01 X557.8435
G02 X555.8506 Y500.6003 I7.1813 J14.1807
G01 X645.8999
G03 X647.4347 Y501.8003 I-8.6443 J12.6379
G01 X554.3158
G02 X553.0744 Y503.0003 I9.7856 J11.3655
G01 X648.6761
G03 X649.7029 Y504.2003 I-10.1884 J9.7570
G01 X552.0476
G02 X551.1869 Y505.4003 I10.7301 J8.6048
G01 X650.5636
G03 X651.2819 Y506.6003 I-12.5659 J8.3369
G01 X550.4686
G02 X549.8748 Y507.8003 I11.9699 J6.6696
G01 X651.8757
G03 X652.3664 Y509.0003 I-12.8624 J5.9601
G01 X549.3841
G02 X548.9987 Y510.2003 I12.8715 J4.7964
G01 X652.7519
G03 X653.0493 Y511.4003 I-12.9289 J3.8412
G01 X548.7013
G02 X548.4928 Y512.6003 I13.1370 J2.8997
G01 X653.2577
G03 X653.3799 Y513.8003 I-12.8934 J1.9193
G01 X548.3706
G02 X548.3253 Y515.0003 I13.2650 J1.1023
G01 X653.4253
G03 X653.3799 Y516.2003 I-13.3104 J0.0977
G01 X548.3706
G02 X548.4928 Y517.4003 I13.1901 J-0.7371
G01 X653.2577
G03 X653.0493 Y518.6003 I-13.3322 J-1.6974
G01 X548.7013
G02 X548.9987 Y519.8003 I13.0997 J-2.6098
G01 X652.7519
G03 X652.3664 Y521.0003 I-14.1368 J-3.8791
G01 X549.3841
G02 X549.8748 Y522.2003 I13.1284 J-4.6682
G01 X651.8757
G03 X651.2819 Y523.4003 I-12.5952 J-5.4852
G01 X550.4686
G02 X551.1869 Y524.6003 I13.2586 J-7.1215
G01 X650.5636
G03 X649.7029 Y525.8003 I-11.9798 J-7.6838
G01 X552.0476
G02 X553.0744 Y527.0003 I10.9351 J-8.3173
G01 X648.6761
G03 X647.4347 Y528.2003 I-10.4489 J-9.5674
G01 X554.3158
G02 X555.8506 Y529.4003 I10.1094 J-11.3487
G01 X645.8999
G03 X643.9071 Y530.6003 I-9.1741 J-12.9807
G01 X557.8435
G02 X560.8000 Y531.8003 I7.9265 J-15.2870
G01 X640.9506
G01 X641.0785 Y532.2317
G03 X635.8753 Y533.0003 I-5.2054 J-17.2430
G01 X565.8753
G03 Y497.0003 I0.0000 J-18.0000
G01 X635.8753
G03 X641.0785 Y532.2317 I0.0001 J17.9999
G01 X640.9506 Y531.8003
G01 Z-12.0000 F300
G01 X560.8000 F600
G03 X557.8435 Y530.6003 I4.9237 J-16.3727
G01 X643.9071
G02 X645.8999 Y529.4003 I-7.1813 J-14.1807
G01 X555.8506
G03 X554.3158 Y528.2003 I8.6443 J-12.6379
G01 X647.4347
G02 X648.6761 Y527.0003 I-9.7856 J-11.3655
G01 X553.0744
G03 X552.0476 Y525.8003 I10.1884 J-9.7570
G01 X649.7029
G02 X650.5636 Y524.6003 I-10.7301 J-8.6048
G01 X551.1869
G03 X550.4686 Y523.4003 I12.5659 J-8.3369
G01 X651.2819
G02 X651.8757 Y522.2003 I-11.9699 J-6.6696
G01 X549.8748
G03 X549.3841 Y521.0003 I12.8624 J-5.9601
G01 X652.3664
G02 X652.7519 Y519.8003 I-12.8715 J-4.7964
G01 X548.9987
G03 X548.7013 Y518.6003 I12.9289 J-3.8412
G01 X653.0493
G02 X653.2577 Y517.4003 I-13.1370 J-2.8997
G01 X548.4928
G03 X548.3706 Y516.2003 I12.8934 J-1.9193
G01 X653.3799
G02 X653.4253 Y515.0003 I-13.2650 J-1.1023
G01 X548.3253
G03 X548.3706 Y513.8003 I13.3104 J-0.0977
G01 X653.3799
G02 X653.2577 Y512.6003 I-13.1901 J0.7371
G01 X548.4928
G03 X548.7013 Y511.4003 I13.3322 J1.6974
G01 X653.0493
G02 X652.7519 Y510.2003 I-13.0997 J2.6098
G01 X548.9987
G03 X549.3841 Y509.0003 I14.1368 J3.8791
G01 X652.3664
G02 X651.8757 Y507.8003 I-13.1284 J4.6682
G01 X549.8748
G03 X550.4686 Y506.6003 I12.5952 J5.4852
G01 X651.2819
G02 X650.5636 Y505.4003 I-13.2586 J7.1215
G01 X551.1869
G03 X552.0476 Y504.2003 I11.9798 J7.6838
G01 X649.7029
G02 X648.6761 Y503.0003 I-10.9351 J8.3173
G01 X553.0744
G03 X554.3158 Y501.8003 I10.4489 J9.5674
G01 X647.4347
G02 X645.8999 Y500.6003 I-10.1094 J11.3487
G01 X555.8506
G03 X557.8435 Y499.4003 I9.1741 J12.9807
G01 X643.9071
G02 X640.9506 Y498.2003 I-7.9265 J15.2870
G01 X560.8000
G01 X560.6720 Y497.7689
G03 X565.8753 Y497.0003 I5.2054 J17.2430
G01 X635.8753
G03 Y533.0003 I0.0000 J18.0000
G01 X565.8753
G03 X560.6720 Y497.7689 I-0.0001 J-17.9999
G01 X560.8000 Y498.2003
G01 Z-15.0000 F300
G01 X640.9506 F600
G03 X643.9071 Y499.4003 I-4.9237 J16.3727
G01 X557.8435
G02 X555.8506 Y500.6003 I7.1813 J14.1807
G01 X645.8999
G03 X647.4347 Y501.8003 I-8.6443 J12.6379
G01 X554.3158
G02 X553.0744 Y503.0003 I9.7856 J11.3655
G01 X648.6761
G03 X649.7029 Y504.2003 I-10.1884 J9.7570
G01 X552.0476
G02 X551.1869 Y505.4003 I10.7301 J8.6048
G01 X650.5636
G03 X651.2819 Y506.6003 I-12.5659 J8.3369
G01 X550.4686
G02 X549.8748 Y507.8003 I11.9699 J6.6696
G01 X651.8757
G03 X652.3664 Y509.0003 I-12.8624 J5.9601
G01 X549.3841
G02 X548.9987 Y510.2003 I12.8715 J4.7964
G01 X652.7519
G03 X653.0493 Y511.4003 I-12.9289 J3.8412
G01 X548.7013
G02 X548.4928 Y512.6003 I13.1370 J2.8997
G01 X653.2577
G03 X653.3799 Y513.8003 I-12.8934 J1.9193
G01 X548.3706
G02 X548.3253 Y515.0003 I13.2650 J1.1023
G01 X653.4253
G03 X653.3799 Y516.2003 I-13.3104 J0.0977
G01 X548.3706
G02 X548.4928 Y517.4003 I13.1901 J-0.7371
G01 X653.2577
G03 X653.0493 Y518.6003 I-13.3322 J-1.6974
G01 X548.7013
G02 X548.9987 Y519.8003 I13.0997 J-2.6098
G01 X652.7519
G03 X652.3664 Y521.0003 I-14.1368 J-3.8791
G01 X549.3841
G02 X549.8748 Y522.2003 I13.1284 J-4.6682
G01 X651.8757
G03 X651.2819 Y523.4003 I-12.5952 J-5.4852
G01 X550.4686
G02 X551.1869 Y524.6003 I13.2586 J-7.1215
G01 X650.5636
G03 X649.7029 Y525.8003 I-11.9798 J-7.6838
G01 X552.0476
G02 X553.0744 Y527.0003 I10.9351 J-8.3173
G01 X648.6761
G03 X647.4347 Y528.2003 I-10.4489 J-9.5674
G01 X554.3158
G02 X555.8506 Y529.4003 I10.1094 J-11.3487
G01 X645.8999
G03 X643.9071 Y530.6003 I-9.1741 J-12.9807
G01 X557.8435
G02 X560.8000 Y531.8003 I7.9265 J-15.2870
G01 X640.9506
G01 X641.0785 Y532.2317
G03 X635.8753 Y533.0003 I-5.2054 J-17.2430
G01 X565.8753
G03 Y497.0003 I0.0000 J-18.0000
G01 X635.8753
G03 X641.0785 Y532.2317 I0.0001 J17.9999
G01 X640.9506 Y531.8003
G00 Z5.0000

(No. 29 Pocketing linear: Pocket 1)
G00 X640.9506 Y1085.1377 Z5.0000
G00 Z0.5000
G01 Z0.0000 F300
G01 Z-3.0000
G01 X560.8000 F600
G02 X557.8435 Y1086.3377 I4.9237 J16.3727
G01 X643.9071
G03 X645.8999 Y1087.5377 I-7.1813 J14.1807
G01 X555.8506
G02 X554.3158 Y1088.7377 I8.6443 J12.6379
G01 X647.4347
G03 X648.6761 Y1089.9377 I-9.7856 J11.3655
G01 X553.0744
G02 X552.0476 Y1091.1377 I10.1884 J9.7570
G01 X649.7029
G03 X650.5636 Y1092.3377 I-10.7301 J8.6048
G01 X551.1869
G02 X550.4686 Y1093.5377 I12.5659 J8.3369
G01 X651.2819
G03 X651.8757 Y1094.7377 I-11.9699 J6.6696
G01 X549.8748
G02 X549.3841 Y1095.9377 I12.8624 J5.9601
G01 X652.3664
G03 X652.7519 Y1097.1377 I-12.8715 J4.7964
G01 X548.9987
G02 X548.7013 Y1098.3377 I12.9289 J3.8412
G01 X653.0493
G03 X653.2577 Y1099.5377 I-13.1370 J2.8997
G01 X548.4928
G02 X548.3706 Y1100.7377 I12.8934 J1.9193
G01 X653.3799
G03 X653.4253 Y1101.9377 I-13.2650 J1.1023
G01 X548.3253
G02 X548.3706 Y1103.1377 I13.3104 J0.0977
G01 X653.3799
G03 X653.2577 Y1104.3377 I-13.1901 J-0.7371
G01 X548.4928
G02 X548.7013 Y1105.5377 I13.3322 J-1.6974
G01 X653.0493
G03 X652.7519 Y1106.7377 I-13.0997 J-2.6098
G01 X548.9987
G02 X549.3841 Y1107.9377 I14.1368 J-3.8791
G01 X652.3664
G03 X651.8757 Y1109.1377 I-13.1284 J-4.6682
G01 X549.8748
G02 X550.4686 Y1110.3377 I12.5952 J-5.4852
G01 X651.2819
G03 X650.5636 Y1111.5377 I-13.2586 J-7.1215
G01 X551.1869
G02 X552.0476 Y1112.7377 I11.9798 J-7.6838
G01 X649.7029
G03 X648.6761 Y1113.9377 I-10.9351 J-8.3173
G01 X553.0744
G02 X554.3158 Y1115.1377 I10.4489 J-9.5674
G01 X647.4347
G03 X645.8999 Y1116.3377 I-10.1094 J-11.3487
G01 X555.8506
G02 X557.8435 Y1117.5377 I9.1741 J-12.9807
G01 X643.9071
G03 X640.9506 Y1118.7377 I-7.9265 J-15.2870
G01 X560.8000
G01 X560.6720 Y1119.1691
G03 X565.8753 Y1083.9377 I5.2034 J-17.2314
G01 X635.8753
G03 Y1119.9377 I0.0000 J18.0000
G01 X565.8753
G03 X560.6720 Y1119.1691 I0.0021 J-18.0116
G01 X560.8000 Y1118.7377
G01 Z-6.0000 F300
G01 X640.9506 F600
G02 X643.9071 Y1117.5377 I-4.9237 J-16.3727
G01 X557.8435
G03 X555.8506 Y1116.3377 I7.1813 J-14.1807
G01 X645.8999
G02 X647.4347 Y1115.1377 I-8.6443 J-12.6379
G01 X554.3158
G03 X553.0744 Y1113.9377 I9.7856 J-11.3655
G01 X648.6761
G02 X649.7029 Y1112.7377 I-10.1884 J-9.7570
G01 X552.0476
G03 X551.1869 Y1111.5377 I10.7301 J-8.6048
G01 X650.5636
G02 X651.2819 Y1110.3377 I-12.5659 J-8.3369
G01 X550.4686
G03 X549.8748 Y1109.1377 I11.9699 J-6.6696
G01 X651.8757
G02 X652.3664 Y1107.9377 I-12.8624 J-5.9601
G01 X549.3841
G03 X548.9987 Y1106.7377 I12.8715 J-4.7964
G01 X652.7519
G02 X653.0493 Y1105.5377 I-12.9289 J-3.8412
G01 X548.7013
G03 X548.4928 Y1104.3377 I13.1370 J-2.8997
G01 X653.2577
G02 X653.3799 Y1103.1377 I-12.8934 J-1.9193
G01 X548.3706
G03 X548.3253 Y1101.9377 I13.2650 J-1.1023
G01 X653.4253
G02 X653.3799 Y1100.7377 I-13.3104 J-0.0977
G01 X548.3706
G03 X548.4928 Y1099.5377 I13.1901 J0.7371
G01 X653.2577
G02 X653.0493 Y1098.3377 I-13.3322 J1.6974
G01 X548.7013
G03 X548.9987 Y1097.1377 I13.0997 J2.6098
G01 X652.7519
G02 X652.3664 Y1095.9377 I-14.1368 J3.8791
G01 X549.3841
G03 X549.8748 Y1094.7377 I13.1284 J4.6682
G01 X651.8757
G02 X651.2819 Y1093.5377 I-12.5952 J5.4852
G01 X550.4686
G03 X551.1869 Y1092.3377 I13.2586 J7.1215
G01 X650.5636
G02 X649.7029 Y1091.1377 I-11.9798 J7.6838
G01 X552.0476
G03 X553.0744 Y1089.9377 I10.9351 J8.3173
G01 X648.6761
G02 X647.4347 Y1088.7377 I-10.4489 J9.5674
G01 X554.3158
G03 X555.8506 Y1087.5377 I10.1094 J11.3487
G01 X645.8999
G02 X643.9071 Y1086.3377 I-9.1741 J12.9807
G01 X557.8435
G03 X560.8000 Y1085.1377 I7.9265 J15.2870
G01 X640.9506
G01 X641.0785 Y1084.7062
G03 X635.8753 Y1119.9377 I-5.2034 J17.2314
G01 X565.8753
G03 Y1083.9377 I0.0000 J-18.0000
G01 X635.8753
G03 X641.0785 Y1084.7062 I-0.0021 J18.0116
G01 X640.9506 Y1085.1377
G01 Z-9.0000 F300
G01 X560.8000 F600
G02 X557.8435 Y1086.3377 I4.9237 J16.3727
G01 X643.9071
G03 X645.8999 Y1087.5377 I-7.1813 J14.1807
G01 X555.8506
G02 X554.3158 Y1088.7377 I8.6443 J12.6379
G01 X647.4347
G03 X648.6761 Y1089.9377 I-9.7856 J11.3655
G01 X553.0744
G02 X552.0476 Y1091.1377 I10.1884 J9.7570
G01 X649.7029
G03 X650.5636 Y1092.3377 I-10.7301 J8.6048
G01 X551.1869
G02 X550.4686 Y1093.5377 I12.5659 J8.3369
G01 X651.2819
G03 X651.8757 Y1094.7377 I-11.9699 J6.6696
G01 X549.8748
G02 X549.3841 Y1095.9377 I12.8624 J5.9601
G01 X652.3664
G03 X652.7519 Y1097.1377 I-12.8715 J4.7964
G01 X548.9987
G02 X548.7013 Y1098.3377 I12.9289 J3.8412
G01 X653.0493
G03 X653.2577 Y1099.5377 I-13.1370 J2.8997
G01 X548.4928
G02 X548.3706 Y1100.7377 I12.8934 J1.9193
G01 X653.3799
G03 X653.4253 Y1101.9377 I-13.2650 J1.1023
G01 X548.3253
G02 X548.3706 Y1103.1377 I13.3104 J0.0977
G01 X653.3799
G03 X653.2577 Y1104.3377 I-13.1901 J-0.7371
G01 X548.4928
G02 X548.7013 Y1105.5377 I13.3322 J-1.6974
G01 X653.0493
G03 X652.7519 Y1106.7377 I-13.0997 J-2.6098
G01 X548.9987
G02 X549.3841 Y1107.9377 I14.1368 J-3.8791
G01 X652.3664
G03 X651.8757 Y1109.1377 I-13.1284 J-4.6682
G01 X549.8748
G02 X550.4686 Y1110.3377 I12.5952 J-5.4852
G01 X651.2819
G03 X650.5636 Y1111.5377 I-13.2586 J-7.1215
G01 X551.1869
G02 X552.0476 Y1112.7377 I11.9798 J-7.6838
G01 X649.7029
G03 X648.6761 Y1113.9377 I-10.9351 J-8.3173
G01 X553.0744
G02 X554.3158 Y1115.1377 I10.4489 J-9.5674
G01 X647.4347
G03 X645.8999 Y1116.3377 I-10.1094 J-11.3487
G01 X555.8506
G02 X557.8435 Y1117.5377 I9.1741 J-12.9807
G01 X643.9071
G03 X640.9506 Y1118.7377 I-7.9265 J-15.2870
G01 X560.8000
G01 X560.6720 Y1119.1691
G03 X565.8753 Y1083.9377 I5.2034 J-17.2314
G01 X635.8753
G03 Y1119.9377 I0.0000 J18.0000
G01 X565.8753
G03 X560.6720 Y1119.1691 I0.0021 J-18.0116
G01 X560.8000 Y1118.7377
G01 Z-12.0000 F300
G01 X640.9506 F600
G02 X643.9071 Y1117.5377 I-4.9237 J-16.3727
G01 X557.8435
G03 X555.8506 Y1116.3377 I7.1813 J-14.1807
G01 X645.8999
G02 X647.4347 Y1115.1377 I-8.6443 J-12.6379
G01 X554.3158
G03 X553.0744 Y1113.9377 I9.7856 J-11.3655
G01 X648.6761
G02 X649.7029 Y1112.7377 I-10.1884 J-9.7570
G01 X552.0476
G03 X551.1869 Y1111.5377 I10.7301 J-8.6048
G01 X650.5636
G02 X651.2819 Y1110.3377 I-12.5659 J-8.3369
G01 X550.4686
G03 X549.8748 Y1109.1377 I11.9699 J-6.6696
G01 X651.8757
G02 X652.3664 Y1107.9377 I-12.8624 J-5.9601
G01 X549.3841
G03 X548.9987 Y1106.7377 I12.8715 J-4.7964
G01 X652.7519
G02 X653.0493 Y1105.5377 I-12.9289 J-3.8412
G01 X548.7013
G03 X548.4928 Y1104.3377 I13.1370 J-2.8997
G01 X653.2577
G02 X653.3799 Y1103.1377 I-12.8934 J-1.9193
G01 X548.3706
G03 X548.3253 Y1101.9377 I13.2650 J-1.1023
G01 X653.4253
G02 X653.3799 Y1100.7377 I-13.3104 J-0.0977
G01 X548.3706
G03 X548.4928 Y1099.5377 I13.1901 J0.7371
G01 X653.2577
G02 X653.0493 Y1098.3377 I-13.3322 J1.6974
G01 X548.7013
G03 X548.9987 Y1097.1377 I13.0997 J2.6098
G01 X652.7519
G02 X652.3664 Y1095.9377 I-14.1368 J3.8791
G01 X549.3841
G03 X549.8748 Y1094.7377 I13.1284 J4.6682
G01 X651.8757
G02 X651.2819 Y1093.5377 I-12.5952 J5.4852
G01 X550.4686
G03 X551.1869 Y1092.3377 I13.2586 J7.1215
G01 X650.5636
G02 X649.7029 Y1091.1377 I-11.9798 J7.6838
G01 X552.0476
G03 X553.0744 Y1089.9377 I10.9351 J8.3173
G01 X648.6761
G02 X647.4347 Y1088.7377 I-10.4489 J9.5674
G01 X554.3158
G03 X555.8506 Y1087.5377 I10.1094 J11.3487
G01 X645.8999
G02 X643.9071 Y1086.3377 I-9.1741 J12.9807
G01 X557.8435
G03 X560.8000 Y1085.1377 I7.9265 J15.2870
G01 X640.9506
G01 X641.0785 Y1084.7062
G03 X635.8753 Y1119.9377 I-5.2034 J17.2314
G01 X565.8753
G03 Y1083.9377 I0.0000 J-18.0000
G01 X635.8753
G03 X641.0785 Y1084.7062 I-0.0021 J18.0116
G01 X640.9506 Y1085.1377
G01 Z-15.0000 F300
G01 X560.8000 F600
G02 X557.8435 Y1086.3377 I4.9237 J16.3727
G01 X643.9071
G03 X645.8999 Y1087.5377 I-7.1813 J14.1807
G01 X555.8506
G02 X554.3158 Y1088.7377 I8.6443 J12.6379
G01 X647.4347
G03 X648.6761 Y1089.9377 I-9.7856 J11.3655
G01 X553.0744
G02 X552.0476 Y1091.1377 I10.1884 J9.7570
G01 X649.7029
G03 X650.5636 Y1092.3377 I-10.7301 J8.6048
G01 X551.1869
G02 X550.4686 Y1093.5377 I12.5659 J8.3369
G01 X651.2819
G03 X651.8757 Y1094.7377 I-11.9699 J6.6696
G01 X549.8748
G02 X549.3841 Y1095.9377 I12.8624 J5.9601
G01 X652.3664
G03 X652.7519 Y1097.1377 I-12.8715 J4.7964
G01 X548.9987
G02 X548.7013 Y1098.3377 I12.9289 J3.8412
G01 X653.0493
G03 X653.2577 Y1099.5377 I-13.1370 J2.8997
G01 X548.4928
G02 X548.3706 Y1100.7377 I12.8934 J1.9193
G01 X653.3799
G03 X653.4253 Y1101.9377 I-13.2650 J1.1023
G01 X548.3253
G02 X548.3706 Y1103.1377 I13.3104 J0.0977
G01 X653.3799
G03 X653.2577 Y1104.3377 I-13.1901 J-0.7371
G01 X548.4928
G02 X548.7013 Y1105.5377 I13.3322 J-1.6974
G01 X653.0493
G03 X652.7519 Y1106.7377 I-13.0997 J-2.6098
G01 X548.9987
G02 X549.3841 Y1107.9377 I14.1368 J-3.8791
G01 X652.3664
G03 X651.8757 Y1109.1377 I-13.1284 J-4.6682
G01 X549.8748
G02 X550.4686 Y1110.3377 I12.5952 J-5.4852
G01 X651.2819
G03 X650.5636 Y1111.5377 I-13.2586 J-7.1215
G01 X551.1869
G02 X552.0476 Y1112.7377 I11.9798 J-7.6838
G01 X649.7029
G03 X648.6761 Y1113.9377 I-10.9351 J-8.3173
G01 X553.0744
G02 X554.3158 Y1115.1377 I10.4489 J-9.5674
G01 X647.4347
G03 X645.8999 Y1116.3377 I-10.1094 J-11.3487
G01 X555.8506
G02 X557.8435 Y1117.5377 I9.1741 J-12.9807
G01 X643.9071
G03 X640.9506 Y1118.7377 I-7.9265 J-15.2870
G01 X560.8000
G01 X560.6720 Y1119.1691
G03 X565.8753 Y1083.9377 I5.2034 J-17.2314
G01 X635.8753
G03 Y1119.9377 I0.0000 J18.0000
G01 X565.8753
G03 X560.6720 Y1119.1691 I0.0021 J-18.0116
G01 X560.8000 Y1118.7377
G00 Z5.0000

(No. 30 Part machining: Part 7)
G00 X788.8753 Y694.7075 Z5.0000
G00 Z0.5000
G01 Z0.0000 F300
G01 Z-3.0000
G01 Y1068.6721 F600
G01 Y1084.6721
G01 Y1156.9377
G03 X785.8753 Y1159.9377 I-3.0000 J0.0000
G01 X608.8753
G01 X592.8753
G01 X415.8753
G03 X412.8753 Y1156.9377 I0.0000 J-3.0000
G01 Y1096.7712
G01 Y1080.7712
G01 Y784.9380
G01 Y768.9380
G01 Y586.9377
G03 X415.8753 Y583.9377 I3.0000 J0.0000
G01 X592.8753
G01 X608.8753
G01 X785.8753
G03 X788.8753 Y586.9377 I0.0000 J3.0000
G01 Y678.7075
G01 Y694.7075
G01 Z-6.0000 F300
G01 Y1068.6721 F600
G00 Z-5.0000
G01 Y1084.6721
G01 Z-6.0000 F300
G01 Y1156.9377 F600
G03 X785.8753 Y1159.9377 I-3.0000 J0.0000
G01 X608.8753
G00 Z-5.0000
G01 X592.8753
G01 Z-6.0000 F300
G01 X415.8753 F600
G03 X412.8753 Y1156.9377 I0.0000 J-3.0000
G01 Y1096.7712
G00 Z-5.0000
G01 Y1080.7712
G01 Z-6.0000 F300
G01 Y784.9380 F600
G00 Z-5.0000
G01 Y768.9380
G01 Z-6.0000 F300
G01 Y586.9377 F600
G03 X415.8753 Y583.9377 I3.0000 J0.0000
G01 X592.8753
G00 Z-5.0000
G01 X608.8753
G01 Z-6.0000 F300
G01 X785.8753 F600
G03 X788.8753 Y586.9377 I0.0000 J3.0000
G01 Y678.7075
G00 Z-5.0000
G01 Y694.7075
G00 Z-5.5000
G01 Z-6.0000 F300
G01 Z-9.0000
G01 Y1068.6721 F600
G00 Z-5.0000
G01 Y1084.6721
G00 Z-5.5000
G01 Z-6.0000 F300
G01 Z-9.0000
G01 Y1156.9377 F600
G03 X785.8753 Y1159.9377 I-3.0000 J0.0000
G01 X608.8753
G00 Z-5.0000
G01 X592.8753
G00 Z-5.5000
G01 Z-6.0000 F300
G01 Z-9.0000
G01 X415.8753 F600
G03 X412.8753 Y1156.9377 I0.0000 J-3.0000
G01 Y1096.7712
G00 Z-5.0000
G01 Y1080.7712
G00 Z-5.5000
G01 Z-6.0000 F300
G01 Z-9.0000
G01 Y784.9380 F600
G00 Z-5.0000
G01 Y768.9380
G00 Z-5.5000
G01 Z-6.0000 F300
G01 Z-9.0000
G01 Y586.9377 F600
G03 X415.8753 Y583.9377 I3.0000 J0.0000
G01 X592.8753
G00 Z-5.0000
G01 X608.8753
G00 Z-5.5000
G01 Z-6.0000 F300
G01 Z-9.0000
G01 X785.8753 F600
G03 X788.8753 Y586.9377 I0.0000 J3.0000
G01 Y678.7075
G00 Z-5.0000
G01 Y694.7075
G00 Z-8.5000
G01 Z-9.0000 F300
G01 Z-12.0000
G01 Y1068.6721 F600
G00 Z-5.0000
G01 Y1084.6721
G00 Z-8.5000
G01 Z-9.0000 F300
G01 Z-12.0000
G01 Y1156.9377 F600
G03 X785.8753 Y1159.9377 I-3.0000 J0.0000
G01 X608.8753
G00 Z-5.0000
G01 X592.8753
G00 Z-8.5000
G01 Z-9.0000 F300
G01 Z-12.0000
G01 X415.8753 F600
G03 X412.8753 Y1156.9377 I0.0000 J-3.0000
G01 Y1096.7712
G00 Z-5.0000
G01 Y1080.7712
G00 Z-8.5000
G01 Z-9.0000 F300
G01 Z-12.0000
G01 Y784.9380 F600
G00 Z-5.0000
G01 Y768.9380
G00 Z-8.5000
G01 Z-9.0000 F300
G01 Z-12.0000
G01 Y586.9377 F600
G03 X415.8753 Y583.9377 I3.0000 J0.0000
G01 X592.8753
G00 Z-5.0000
G01 X608.8753
G00 Z-8.5000
G01 Z-9.0000 F300
G01 Z-12.0000
G01 X785.8753 F600
G03 X788.8753 Y586.9377 I0.0000 J3.0000
G01 Y678.7075
G00 Z-5.0000
G01 Y694.7075
G00 Z-11.5000
G01 Z-12.0000 F300
G01 Z-15.0000
G01 Y1068.6721 F600
G00 Z-5.0000
G01 Y1084.6721
G00 Z-11.5000
G01 Z-12.0000 F300
G01 Z-15.0000
G01 Y1156.9377 F600
G03 X785.8753 Y1159.9377 I-3.0000 J0.0000
G01 X608.8753
G00 Z-5.0000
G01 X592.8753
G00 Z-11.5000
G01 Z-12.0000 F300
G01 Z-15.0000
G01 X415.8753 F600
G03 X412.8753 Y1156.9377 I0.0000 J-3.0000
G01 Y1096.7712
G00 Z-5.0000
G01 Y1080.7712
G00 Z-11.5000
G01 Z-12.0000 F300
G01 Z-15.0000
G01 Y784.9380 F600
G00 Z-5.0000
G01 Y768.9380
G00 Z-11.5000
G01 Z-12.0000 F300
G01 Z-15.0000
G01 Y586.9377 F600
G03 X415.8753 Y583.9377 I3.0000 J0.0000
G01 X592.8753
G00 Z-5.0000
G01 X608.8753
G00 Z-11.5000
G01 Z-12.0000 F300
G01 Z-15.0000
G01 X785.8753 F600
G03 X788.8753 Y586.9377 I0.0000 J3.0000
G01 Y678.7075
G00 Z-5.0000
G01 Y694.7075
G00 Z5.0000

(No. 31 Part machining: Part 3)
G00 X788.8753 Y505.1812 Z5.0000
G00 Z0.5000
G01 Z0.0000 F300
G01 Z-3.0000
G01 Y570.0003 F600
G03 X785.8753 Y573.0003 I-3.0000 J0.0000
G01 X415.8753
G03 X412.8753 Y570.0003 I0.0000 J-3.0000
G01 Y458.3936
G00 Z0.0000
G01 Y442.3936
G01 Z-3.0000 F300
G01 Y140.1862 F600
G00 Z0.0000
G01 Y124.1862
G01 Z-3.0000 F300
G01 Y0.0003 F600
G03 X415.8753 Y-2.9997 I3.0000 J0.0000
G01 X592.8753
G00 Z0.0000
G01 X608.8753
G01 Z-3.0000 F300
G01 X785.8753 F600
G03 X788.8753 Y0.0003 I0.0000 J3.0000
G01 Y42.9773
G00 Z0.0000
G01 Y58.9773
G01 Z-3.0000 F300
G01 Y489.1812 F600
G00 Z0.0000
G01 Y505.1812
G00 Z-2.5000
G01 Z-3.0000 F300
G01 Z-6.0000
G01 Y570.0003 F600
G03 X785.8753 Y573.0003 I-3.0000 J0.0000
G01 X415.8753
G03 X412.8753 Y570.0003 I0.0000 J-3.0000
G01 Y458.3936
G00 Z0.0000
G01 Y442.3936
G00 Z-2.5000
G01 Z-3.0000 F300
G01 Z-6.0000
G01 Y140.1862 F600
G00 Z0.0000
G01 Y124.1862
G00 Z-2.5000
G01 Z-3.0000 F300
G01 Z-6.0000
G01 Y0.0003 F600
G03 X415.8753 Y-2.9997 I3.0000 J0.0000
G01 X592.8753
G00 Z0.0000
G01 X608.8753
G00 Z-2.5000
G01 Z-3.0000 F300
G01 Z-6.0000
G01 X785.8753 F600
G03 X788.8753 Y0.0003 I0.0000 J3.0000
G01 Y42.9773
G00 Z0.0000
G01 Y58.9773
G00 Z-2.5000
G01 Z-3.0000 F300
G01 Z-6.0000
G01 Y489.1812 F600
G00 Z0.0000
G01 Y505.1812
G00 Z-5.5000
G01 Z-6.0000 F300
G01 Z-9.0000
G01 Y570.0003 F600
G03 X785.8753 Y573.0003 I-3.0000 J0.0000
G01 X415.8753
G03 X412.8753 Y570.0003 I0.0000 J-3.0000
G01 Y458.3936
G00 Z0.0000
G01 Y442.3936
G00 Z-5.5000
G01 Z-6.0000 F300
G01 Z-9.0000
G01 Y140.1862 F600
G00 Z0.0000
G01 Y124.1862
G00 Z-5.5000
G01 Z-6.0000 F300
G01 Z-9.0000
G01 Y0.0003 F600
G03 X415.8753 Y-2.9997 I3.0000 J0.0000
G01 X592.8753
G00 Z0.0000
G01 X608.8753
G00 Z-5.5000
G01 Z-6.0000 F300
G01 Z-9.0000
G01 X785.8753 F600
G03 X788.8753 Y0.0003 I0.0000 J3.0000
G01 Y42.9773
G00 Z0.0000
G01 Y58.9773
G00 Z-5.5000
G01 Z-6.0000 F300
G01 Z-9.0000
G01 Y489.1812 F600
G00 Z0.0000
G01 Y505.1812
G00 Z-8.5000
G01 Z-9.0000 F300
G01 Z-12.0000
G01 Y570.0003 F600
G03 X785.8753 Y573.0003 I-3.0000 J0.0000
G01 X415.8753
G03 X412.8753 Y570.0003 I0.0000 J-3.0000
G01 Y458.3936
G00 Z0.0000
G01 Y442.3936
G00 Z-8.5000
G01 Z-9.0000 F300
G01 Z-12.0000
G01 Y140.1862 F600
G00 Z0.0000
G01 Y124.1862
G00 Z-8.5000
G01 Z-9.0000 F300
G01 Z-12.0000
G01 Y0.0003 F600
G03 X415.8753 Y-2.9997 I3.0000 J0.0000
G01 X592.8753
G00 Z0.0000
G01 X608.8753
G00 Z-8.5000
G01 Z-9.0000 F300
G01 Z-12.0000
G01 X785.8753 F600
G03 X788.8753 Y0.0003 I0.0000 J3.0000
G01 Y42.9773
G00 Z0.0000
G01 Y58.9773
G00 Z-8.5000
G01 Z-9.0000 F300
G01 Z-12.0000
G01 Y489.1812 F600
G00 Z0.0000
G01 Y505.1812
G00 Z-11.5000
G01 Z-12.0000 F300
G01 Z-15.0000
G01 Y570.0003 F600
G03 X785.8753 Y573.0003 I-3.0000 J0.0000
G01 X415.8753
G03 X412.8753 Y570.0003 I0.0000 J-3.0000
G01 Y458.3936
G00 Z0.0000
G01 Y442.3936
G00 Z-11.5000
G01 Z-12.0000 F300
G01 Z-15.0000
G01 Y140.1862 F600
G00 Z0.0000
G01 Y124.1862
G00 Z-11.5000
G01 Z-12.0000 F300
G01 Z-15.0000
G01 Y0.0003 F600
G03 X415.8753 Y-2.9997 I3.0000 J0.0000
G01 X592.8753
G00 Z0.0000
G01 X608.8753
G00 Z-11.5000
G01 Z-12.0000 F300
G01 Z-15.0000
G01 X785.8753 F600
G03 X788.8753 Y0.0003 I0.0000 J3.0000
G01 Y42.9773
G00 Z0.0000
G01 Y58.9773
G00 Z-11.5000
G01 Z-12.0000 F300
G01 Z-15.0000
G01 Y489.1812 F600
G00 Z5.0000

(No. 32 Part machining: Part 6)
G00 X336.3501 Y-3.0000 Z5.0000
G00 Z0.5000
G01 Z0.0000 F300
G01 Z-3.0000
G01 X399.5006 F600
G03 X402.5006 Y0.0000 I0.0000 J3.0000
G01 Y499.5006
G03 X399.5006 Y502.5006 I-3.0000 J0.0000
G01 X0.0000
G03 X-3.0000 Y499.5006 I0.0000 J-3.0000
G01 Y466.4694
G00 Z0.0000
G01 Y450.4694
G01 Z-3.0000 F300
G01 Y85.4643 F600
G00 Z0.0000
G01 Y69.4643
G01 Z-3.0000 F300
G01 Y0.0000 F600
G03 X0.0000 Y-3.0000 I3.0000 J0.0000
G01 X320.3501
G00 Z0.0000
G01 X336.3501
G00 Z-2.5000
G01 Z-3.0000 F300
G01 Z-6.0000
G01 X399.5006 F600
G03 X402.5006 Y0.0000 I0.0000 J3.0000
G01 Y499.5006
G03 X399.5006 Y502.5006 I-3.0000 J0.0000
G01 X0.0000
G03 X-3.0000 Y499.5006 I0.0000 J-3.0000
G01 Y466.4694
G00 Z0.0000
G01 Y450.4694
G00 Z-2.5000
G01 Z-3.0000 F300
G01 Z-6.0000
G01 Y85.4643 F600
G00 Z0.0000
G01 Y69.4643
G00 Z-2.5000
G01 Z-3.0000 F300
G01 Z-6.0000
G01 Y0.0000 F600
G03 X0.0000 Y-3.0000 I3.0000 J0.0000
G01 X320.3501
G00 Z0.0000
G01 X336.3501
G00 Z-5.5000
G01 Z-6.0000 F300
G01 Z-9.0000
G01 X399.5006 F600
G03 X402.5006 Y0.0000 I0.0000 J3.0000
G01 Y499.5006
G03 X399.5006 Y502.5006 I-3.0000 J0.0000
G01 X0.0000
G03 X-3.0000 Y499.5006 I0.0000 J-3.0000
G01 Y466.4694
G00 Z0.0000
G01 Y450.4694
G00 Z-5.5000
G01 Z-6.0000 F300
G01 Z-9.0000
G01 Y85.4643 F600
G00 Z0.0000
G01 Y69.4643
G00 Z-5.5000
G01 Z-6.0000 F300
G01 Z-9.0000
G01 Y0.0000 F600
G03 X0.0000 Y-3.0000 I3.0000 J0.0000
G01 X320.3501
G00 Z0.0000
G01 X336.3501
G00 Z-8.5000
G01 Z-9.0000 F300
G01 Z-12.0000
G01 X399.5006 F600
G03 X402.5006 Y0.0000 I0.0000 J3.0000
G01 Y499.5006
G03 X399.5006 Y502.5006 I-3.0000 J0.0000
G01 X0.0000
G03 X-3.0000 Y499.5006 I0.0000 J-3.0000
G01 Y466.4694
G00 Z0.0000
G01 Y450.4694
G00 Z-8.5000
G01 Z-9.0000 F300
G01 Z-12.0000
G01 Y85.4643 F600
G00 Z0.0000
G01 Y69.4643
G00 Z-8.5000
G01 Z-9.0000 F300
G01 Z-12.0000
G01 Y0.0000 F600
G03 X0.0000 Y-3.0000 I3.0000 J0.0000
G01 X320.3501
G00 Z0.0000
G01 X336.3501
G00 Z-11.5000
G01 Z-12.0000 F300
G01 Z-15.0000
G01 X399.5006 F600
G03 X402.5006 Y0.0000 I0.0000 J3.0000
G01 Y499.5006
G03 X399.5006 Y502.5006 I-3.0000 J0.0000
G01 X0.0000
G03 X-3.0000 Y499.5006 I0.0000 J-3.0000
G01 Y466.4694
G00 Z0.0000
G01 Y450.4694
G00 Z-11.5000
G01 Z-12.0000 F300
G01 Z-15.0000
G01 Y85.4643 F600
G00 Z0.0000
G01 Y69.4643
G00 Z-11.5000
G01 Z-12.0000 F300
G01 Z-15.0000
G01 Y0.0000 F600
G03 X0.0000 Y-3.0000 I3.0000 J0.0000
G01 X320.3501
G00 Z5.0000

(No. 33 Part machining: Part 5)
G00 X-3.0000 Y915.0105 Z5.0000
G00 Z0.5000
G01 Z0.0000 F300
G01 Z-3.0000
G01 Y598.9044 F600
G00 Z0.0000
G01 Y582.9044
G01 Z-3.0000 F300
G01 Y516.4043 F600
G03 X0.0000 Y513.4043 I3.0000 J0.0000
G01 X326.4625
G00 Z0.0000
G01 X342.4625
G01 Z-3.0000 F300
G01 X399.5006 F600
G03 X402.5006 Y516.4043 I0.0000 J3.0000
G01 Y1015.9048
G03 X399.5006 Y1018.9048 I-3.0000 J0.0000
G01 X338.3876
G00 Z0.0000
G01 X322.3876
G01 Z-3.0000 F300
G01 X0.0000 F600
G03 X-3.0000 Y1015.9048 I0.0000 J-3.0000
G01 Y931.0105
G00 Z0.0000
G01 Y915.0105
G00 Z-2.5000
G01 Z-3.0000 F300
G01 Z-6.0000
G01 Y598.9044 F600
G00 Z0.0000
G01 Y582.9044
G00 Z-2.5000
G01 Z-3.0000 F300
G01 Z-6.0000
G01 Y516.4043 F600
G03 X0.0000 Y513.4043 I3.0000 J0.0000
G01 X326.4625
G00 Z0.0000
G01 X342.4625
G00 Z-2.5000
G01 Z-3.0000 F300
G01 Z-6.0000
G01 X399.5006 F600
G03 X402.5006 Y516.4043 I0.0000 J3.0000
G01 Y1015.9048
G03 X399.5006 Y1018.9048 I-3.0000 J0.0000
G01 X338.3876
G00 Z0.0000
G01 X322.3876
G00 Z-2.5000
G01 Z-3.0000 F300
G01 Z-6.0000
G01 X0.0000 F600
G03 X-3.0000 Y1015.9048 I0.0000 J-3.0000
G01 Y931.0105
G00 Z0.0000
G01 Y915.0105
G00 Z-5.5000
G01 Z-6.0000 F300
G01 Z-9.0000
G01 Y598.9044 F600
G00 Z0.0000
G01 Y582.9044
G00 Z-5.5000
G01 Z-6.0000 F300
G01 Z-9.0000
G01 Y516.4043 F600
G03 X0.0000 Y513.4043 I3.0000 J0.0000
G01 X326.4625
G00 Z0.0000
G01 X342.4625
G00 Z-5.5000
G01 Z-6.0000 F300
G01 Z-9.0000
G01 X399.5006 F600
G03 X402.5006 Y516.4043 I0.0000 J3.0000
G01 Y1015.9048
G03 X399.5006 Y1018.9048 I-3.0000 J0.0000
G01 X338.3876
G00 Z0.0000
G01 X322.3876
G00 Z-5.5000
G01 Z-6.0000 F300
G01 Z-9.0000
G01 X0.0000 F600
G03 X-3.0000 Y1015.9048 I0.0000 J-3.0000
G01 Y931.0105
G00 Z0.0000
G01 Y915.0105
G00 Z-8.5000
G01 Z-9.0000 F300
G01 Z-12.0000
G01 Y598.9044 F600
G00 Z0.0000
G01 Y582.9044
G00 Z-8.5000
G01 Z-9.0000 F300
G01 Z-12.0000
G01 Y516.4043 F600
G03 X0.0000 Y513.4043 I3.0000 J0.0000
G01 X326.4625
G00 Z0.0000
G01 X342.4625
G00 Z-8.5000
G01 Z-9.0000 F300
G01 Z-12.0000
G01 X399.5006 F600
G03 X402.5006 Y516.4043 I0.0000 J3.0000
G01 Y1015.9048
G03 X399.5006 Y1018.9048 I-3.0000 J0.0000
G01 X338.3876
G00 Z0.0000
G01 X322.3876
G00 Z-8.5000
G01 Z-9.0000 F300
G01 Z-12.0000
G01 X0.0000 F600
G03 X-3.0000 Y1015.9048 I0.0000 J-3.0000
G01 Y931.0105
G00 Z0.0000
G01 Y915.0105
G00 Z-11.5000
G01 Z-12.0000 F300
G01 Z-15.0000
G01 Y598.9044 F600
G00 Z0.0000
G01 Y582.9044
G00 Z-11.5000
G01 Z-12.0000 F300
G01 Z-15.0000
G01 Y516.4043 F600
G03 X0.0000 Y513.4043 I3.0000 J0.0000
G01 X326.4625
G00 Z0.0000
G01 X342.4625
G00 Z-11.5000
G01 Z-12.0000 F300
G01 Z-15.0000
G01 X399.5006 F600
G03 X402.5006 Y516.4043 I0.0000 J3.0000
G01 Y1015.9048
G03 X399.5006 Y1018.9048 I-3.0000 J0.0000
G01 X338.3876
G00 Z0.0000
G01 X322.3876
G00 Z-11.5000
G01 Z-12.0000 F300
G01 Z-15.0000
G01 X0.0000 F600
G03 X-3.0000 Y1015.9048 I0.0000 J-3.0000
G01 Y931.0105
G00 Z5.0000
G00 X0.0000 Y0.0000


M05
M30
